; GCode generated by CraftWare

G28 X0 Y0
G28 Z0

M190 S60 ;set bed temp (wait)
M109 S215 ;set head temp (wait)

; ------------------------------------
; Raft Layer #0
; ------------------------------------
G21 ; mm
G90 ; abs
G92 E0 ; reset extr
M106 S0
;segType:Raft
G0 F4800 E-1.0000
G0 F300 Z0.300
G0 X0.000 Y0.000 F10800
G0 F4800 E0.0000
G1 X68.374 Y158.692 E8.6208 F600
G1 X68.374 Y112.248 E10.9378
G1 X72.254 Y112.248 E11.1314
G1 X72.254 Y158.692 E13.4485
G1 X76.134 Y158.692 E13.6421
G1 X76.134 Y112.248 E15.9591
G1 X80.013 Y123.991 E16.5761
G1 X80.013 Y146.949 E17.7215
G1 X83.893 Y143.254 E17.9888
G1 X83.893 Y127.685 E18.7655
G1 X87.773 Y127.685 E18.9591
G1 X87.773 Y143.254 E19.7359
G1 X91.653 Y143.254 E19.9294
G1 X91.653 Y127.685 E20.7062
G0 F4800 E19.7062
G0 X72.254 Y81.901 F10800
G0 F4800 E20.7062
G1 X72.254 Y39.284 E22.8324 F600
G1 X68.374 Y38.097 E23.0348
G1 X68.374 Y83.089 E25.2795
G1 X64.494 Y83.089 E25.4730
G1 X64.494 Y38.097 E27.7177
G1 X60.614 Y39.944 E27.9321
G1 X60.614 Y81.242 E29.9924
G1 X76.134 Y69.103 E30.9754
G1 X76.134 Y53.534 E31.7521
G1 X80.013 Y53.534 E31.9457
G1 X80.013 Y67.652 E32.6501
G1 X83.893 Y67.652 E32.8436
G1 X83.893 Y53.534 E33.5480
G1 X87.773 Y54.853 E33.7524
G1 X87.773 Y66.332 E34.3251
G0 F4800 E33.3251
G0 X153.730 Y78.867 F10800
G0 F4800 E34.3251
G1 X153.730 Y33.874 E36.5698 F600
G1 X157.610 Y33.874 E36.7633
G1 X157.610 Y78.867 E39.0080
G1 X161.490 Y78.867 E39.2016
G1 X161.490 Y33.874 E41.4462
G1 X165.369 Y44.298 E42.0011
G1 X165.369 Y67.124 E43.1399
G1 X169.249 Y63.429 E43.4072
G1 X169.249 Y47.860 E44.1839
G1 X173.129 Y47.860 E44.3775
G1 X173.129 Y63.429 E45.1543
G1 X177.009 Y63.429 E45.3478
G1 X177.009 Y47.860 E46.1246
G0 F4800 E45.1246
G0 X161.490 Y115.942 F10800
G0 F4800 E46.1246
G1 X161.490 Y160.539 E48.3495 F600
G1 X157.610 Y161.462 E48.5485
G1 X157.610 Y115.019 E50.8656
G1 X153.730 Y115.019 E51.0591
G1 X153.730 Y161.462 E53.3762
G1 X149.850 Y151.039 E53.9311
G1 X149.850 Y125.574 E55.2015
G1 X165.369 Y130.456 E56.0132
G1 X165.369 Y146.025 E56.7899
G1 X169.249 Y146.025 E56.9835
G1 X169.249 Y130.456 E57.7603
G1 X173.129 Y130.456 E57.9538
G1 X173.129 Y146.025 E58.7306
G1 X177.009 Y144.970 E58.9312
G1 X177.009 Y131.512 E59.6026



; ------------------------------------
; Raft Layer #1
; ------------------------------------
G21 ; mm
G90 ; abs
G92 E0 ; reset extr
M106 S0
;segType:Raft
G0 F4800 E-1.0000
G0 F300 Z0.600
G0 X177.403 Y131.876 F10800
G0 F4800 E0.0000
G1 X148.462 Y131.876 E1.4438 F3600
G1 X148.462 Y130.555 E1.5097
G1 X176.111 Y130.555 E2.8891
G1 X177.920 Y133.196 E3.0488
G1 X148.462 Y133.196 E4.5185
G1 X148.462 Y134.517 E4.5843
G1 X177.920 Y134.517 E6.0540
G1 X177.920 Y135.838 E6.1199
G1 X148.462 Y135.838 E7.5895
G1 X148.462 Y137.159 E7.6554
G1 X177.920 Y137.159 E9.1250
G1 X177.920 Y138.479 E9.1909
G1 X148.462 Y138.479 E10.6605
G1 X148.462 Y139.800 E10.7264
G1 X177.920 Y139.800 E12.1960
G1 X177.920 Y141.121 E12.2619
G1 X148.462 Y141.121 E13.7315
G1 X148.462 Y142.442 E13.7974
G1 X177.920 Y142.442 E15.2671
G1 X177.920 Y143.762 E15.3329
G1 X148.462 Y143.762 E16.8026
G1 X148.462 Y145.083 E16.8685
G1 X176.757 Y145.083 E18.2801
G0 F4800 E17.2801
G0 X163.966 Y146.404 F10800
G0 F4800 E18.2801
G1 X148.462 Y146.404 E19.0536 F3600
G1 X148.462 Y147.725 E19.1194
G1 X163.966 Y147.725 E19.8929
G1 X163.966 Y149.045 E19.9588
G1 X148.462 Y149.045 E20.7323
G1 X149.238 Y150.366 E20.8087
G1 X163.191 Y150.366 E21.5048
G1 X162.545 Y151.687 E21.5782
G1 X149.884 Y151.687 E22.2099
G1 X149.884 Y153.008 E22.2758
G1 X162.545 Y153.008 E22.9074
G1 X162.545 Y154.328 E22.9733
G1 X149.884 Y154.328 E23.6050
G1 X149.884 Y155.649 E23.6709
G1 X162.545 Y155.649 E24.3026
G1 X162.545 Y156.970 E24.3685
G1 X149.884 Y156.970 E25.0002
G1 X149.884 Y158.291 E25.0661
G1 X162.545 Y158.291 E25.6977
G1 X162.287 Y159.611 E25.7649
G1 X150.142 Y159.611 E26.3708
G1 X151.434 Y160.932 E26.4629
G1 X160.995 Y160.932 E26.9399
G0 F4800 E25.9399
G0 X163.966 Y129.234 F10800
G0 F4800 E26.9399
G1 X148.462 Y129.234 E27.7134 F3600
G1 X148.462 Y127.913 E27.7793
G1 X163.966 Y127.913 E28.5528
G1 X163.708 Y126.593 E28.6199
G1 X148.721 Y126.593 E29.3676
G1 X149.884 Y125.272 E29.4554
G1 X162.545 Y125.272 E30.0871
G1 X162.545 Y123.951 E30.1530
G1 X149.884 Y123.951 E30.7847
G1 X149.884 Y122.631 E30.8506
G1 X162.545 Y122.631 E31.4822
G1 X162.545 Y121.310 E31.5481
G1 X149.884 Y121.310 E32.1798
G1 X149.884 Y119.989 E32.2457
G1 X162.545 Y119.989 E32.8774
G1 X162.545 Y118.668 E32.9433
G1 X149.884 Y118.668 E33.5750
G1 X149.884 Y117.348 E33.6408
G1 X162.545 Y117.348 E34.2725
G1 X161.641 Y116.027 E34.3524
G1 X150.788 Y116.027 E34.8938
G0 F4800 E33.8938
G0 X152.209 Y77.725 F10800
G0 F4800 E34.8938
G1 X163.062 Y77.725 E35.4353 F3600
G0 F4800 E34.4353
G0 X163.966 Y68.480 F10800
G0 F4800 E35.4353
G1 X151.305 Y68.480 E36.0669 F3600
G1 X151.305 Y69.801 E36.1328
G1 X163.966 Y69.801 E36.7645
G1 X163.966 Y71.122 E36.8304
G1 X151.305 Y71.122 E37.4621
G1 X151.305 Y72.442 E37.5280
G1 X163.966 Y72.442 E38.1597
G1 X163.966 Y73.763 E38.2255
G1 X151.305 Y73.763 E38.8572
G1 X151.305 Y75.084 E38.9231
G1 X163.966 Y75.084 E39.5548
G1 X163.966 Y76.405 E39.6207
G1 X151.305 Y76.405 E40.2524
G0 F4800 E39.2524
G0 X150.013 Y67.159 F10800
G0 F4800 E40.2524
G1 X165.258 Y67.159 E41.0130 F3600
G1 X165.387 Y65.839 E41.0792
G1 X149.884 Y65.839 E41.8527
G1 X149.884 Y64.518 E41.9186
G1 X165.387 Y64.518 E42.6920
G0 F4800 E41.6920
G0 X177.532 Y63.197 F10800
G0 F4800 E42.6920
G1 X149.884 Y63.197 E44.0714 F3600
G1 X149.884 Y61.876 E44.1373
G1 X178.824 Y61.876 E45.5812
G1 X179.341 Y60.556 E45.6519
G1 X149.884 Y60.556 E47.1215
G1 X149.884 Y59.235 E47.1874
G1 X179.858 Y59.235 E48.6828
G1 X179.987 Y57.914 E48.7490
G1 X149.884 Y57.914 E50.2509
G1 X149.884 Y56.593 E50.3168
G1 X179.987 Y56.593 E51.8186
G1 X179.987 Y55.273 E51.8845
G1 X149.884 Y55.273 E53.3864
G1 X149.884 Y53.952 E53.4523
G1 X179.987 Y53.952 E54.9541
G1 X179.341 Y52.631 E55.0275
G1 X149.884 Y52.631 E56.4971
G1 X149.884 Y51.311 E56.5630
G1 X179.341 Y51.311 E58.0326
G1 X179.341 Y49.990 E58.0985
G1 X149.884 Y49.990 E59.5681
G1 X149.884 Y48.669 E59.6340
G1 X178.178 Y48.669 E61.0456
G0 F4800 E60.0456
G0 X165.387 Y47.348 F10800
G0 F4800 E61.0456
G1 X149.884 Y47.348 E61.8191 F3600
G1 X149.884 Y46.028 E61.8850
G1 X165.387 Y46.028 E62.6585
G1 X165.387 Y44.707 E62.7244
G1 X149.884 Y44.707 E63.4979
G1 X150.788 Y43.386 E63.5777
G1 X164.483 Y43.386 E64.2610
G1 X163.966 Y36.782 E64.5914
G1 X151.305 Y36.782 E65.2231
G1 X151.305 Y38.103 E65.2890
G1 X163.966 Y38.103 E65.9207
G1 X163.966 Y39.424 E65.9866
G1 X151.305 Y39.424 E66.6183
G1 X151.305 Y40.745 E66.6842
G1 X163.966 Y40.745 E67.3159
G1 X163.966 Y42.065 E67.3817
G1 X151.305 Y42.065 E68.0134
G1 X151.692 Y35.462 E68.3435
G1 X163.579 Y35.462 E68.9365
G1 X162.287 Y34.141 E69.0286
G1 X152.984 Y34.141 E69.4927
G0 F4800 E68.4927
G0 X89.031 Y57.914 F10800
G0 F4800 E69.4927
G1 X58.928 Y57.914 E70.9946 F3600
G1 X58.928 Y59.235 E71.0605
G1 X89.031 Y59.235 E72.5623
G1 X89.031 Y60.556 E72.6282
G1 X58.928 Y60.556 E74.1301
G1 X58.928 Y61.876 E74.1960
G1 X89.031 Y61.876 E75.6978
G1 X89.031 Y63.197 E75.7637
G1 X58.928 Y63.197 E77.2656
G1 X58.928 Y64.518 E77.3315
G1 X88.385 Y64.518 E78.8011
G1 X88.127 Y65.839 E78.8682
G1 X58.928 Y65.839 E80.3250
G1 X58.928 Y67.159 E80.3909
G1 X86.835 Y67.159 E81.7831
G0 F4800 E80.7831
G0 X78.566 Y68.480 F10800
G0 F4800 E81.7831
G1 X58.928 Y68.480 E82.7629 F3600
G1 X58.928 Y69.801 E82.8288
G1 X74.432 Y69.801 E83.6023
G1 X74.432 Y71.122 E83.6682
G1 X58.928 Y71.122 E84.4416
G1 X58.928 Y72.442 E84.5075
G1 X74.432 Y72.442 E85.2810
G1 X73.269 Y73.763 E85.3688
G1 X60.091 Y73.763 E86.0263
G1 X60.349 Y75.084 E86.0934
G1 X73.011 Y75.084 E86.7251
G1 X73.011 Y76.405 E86.7910
G1 X60.349 Y76.405 E87.4227
G1 X60.349 Y77.725 E87.4886
G1 X73.011 Y77.725 E88.1203
G1 X73.011 Y79.046 E88.1861
G1 X60.349 Y79.046 E88.8178
G1 X60.349 Y80.367 E88.8837
G1 X73.011 Y80.367 E89.5154
G1 X72.365 Y81.688 E89.5888
G1 X60.995 Y81.688 E90.1560
G1 X62.287 Y83.008 E90.2482
G1 X71.073 Y83.008 E90.6865
G0 F4800 E89.6865
G0 X66.680 Y113.385 F10800
G0 F4800 E90.6865
G1 X77.791 Y113.385 E91.2408 F3600
G1 X78.566 Y114.706 E91.3172
G1 X65.905 Y114.706 E91.9489
G1 X65.905 Y116.027 E92.0148
G1 X78.566 Y116.027 E92.6465
G1 X78.566 Y117.348 E92.7124
G1 X65.905 Y117.348 E93.3440
G1 X65.905 Y118.668 E93.4099
G1 X78.566 Y118.668 E94.0416
G1 X78.566 Y119.989 E94.1075
G1 X65.905 Y119.989 E94.7392
G1 X65.905 Y121.310 E94.8051
G1 X78.566 Y121.310 E95.4368
G1 X78.696 Y122.631 E95.5030
G1 X65.776 Y122.631 E96.1475
G1 X64.484 Y123.951 E96.2397
G1 X79.988 Y123.951 E97.0132
G1 X79.988 Y125.272 E97.0791
G1 X64.484 Y125.272 E97.8526
G1 X64.484 Y126.593 E97.9185
G1 X79.988 Y126.593 E98.6920
G0 F4800 E97.6920
G0 X92.261 Y127.913 F10800
G0 F4800 E98.6920
G1 X64.484 Y127.913 E100.0778 F3600
G1 X64.484 Y129.234 E100.1437
G1 X93.553 Y129.234 E101.5940
G1 X93.941 Y130.555 E101.6626
G1 X64.484 Y130.555 E103.1323
G1 X64.484 Y131.876 E103.1982
G1 X93.941 Y131.876 E104.6678
G1 X94.070 Y133.196 E104.7340
G1 X64.484 Y133.196 E106.2101
G1 X64.484 Y134.517 E106.2760
G1 X94.070 Y134.517 E107.7520
G1 X94.070 Y135.838 E107.8179
G1 X64.484 Y135.838 E109.2940
G1 X64.484 Y137.159 E109.3599
G1 X94.070 Y137.159 E110.8359
G1 X94.070 Y138.479 E110.9018
G1 X64.484 Y138.479 E112.3779
G1 X64.484 Y139.800 E112.4438
G1 X93.941 Y139.800 E113.9134
G1 X93.941 Y141.121 E113.9793
G1 X64.484 Y141.121 E115.4489
G1 X64.484 Y142.442 E115.5148
G1 X92.649 Y142.442 E116.9200
G0 F4800 E115.9200
G0 X79.988 Y143.762 F10800
G0 F4800 E116.9200
G1 X64.484 Y143.762 E117.6935 F3600
G1 X64.484 Y145.083 E117.7594
G1 X79.988 Y145.083 E118.5329
G1 X79.988 Y146.404 E118.5988
G1 X64.484 Y146.404 E119.3722
G1 X65.388 Y147.725 E119.4521
G1 X79.083 Y147.725 E120.1353
G0 F4800 E119.1353
G0 X78.179 Y156.970 F10800
G0 F4800 E120.1353
G1 X66.293 Y156.970 E120.7283 F3600
G1 X65.905 Y155.649 E120.7970
G1 X78.566 Y155.649 E121.4287
G1 X78.566 Y154.328 E121.4946
G1 X65.905 Y154.328 E122.1263
G1 X65.905 Y153.008 E122.1922
G1 X78.566 Y153.008 E122.8239
G1 X78.566 Y151.687 E122.8897
G1 X65.905 Y151.687 E123.5214
G1 X65.905 Y150.366 E123.5873
G1 X78.566 Y150.366 E124.2190
G1 X78.566 Y149.045 E124.2849
G1 X65.905 Y149.045 E124.9166
G0 F4800 E123.9166
G0 X67.585 Y158.291 F10800
G0 F4800 E124.9166
G1 X76.887 Y158.291 E125.3807 F3600
G0 F4800 E124.3807
G0 X88.385 Y56.593 F10800
G0 F4800 E125.3807
G1 X58.928 Y56.593 E126.8503 F3600
G1 X58.928 Y55.273 E126.9162
G1 X88.127 Y55.273 E128.3729
G1 X86.835 Y53.952 E128.4651
G1 X58.928 Y53.952 E129.8574
G1 X58.928 Y52.631 E129.9233
G1 X74.432 Y52.631 E130.6967
G1 X74.432 Y51.311 E130.7626
G1 X58.928 Y51.311 E131.5361
G1 X58.928 Y49.990 E131.6020
G1 X74.432 Y49.990 E132.3755
G1 X74.432 Y48.669 E132.4414
G1 X58.928 Y48.669 E133.2149
G1 X59.962 Y47.348 E133.2985
G1 X73.398 Y47.348 E133.9689
G1 X73.011 Y46.028 E134.0375
G1 X60.349 Y46.028 E134.6692
G1 X60.349 Y44.707 E134.7351
G1 X73.011 Y44.707 E135.3668
G1 X73.011 Y43.386 E135.4327
G1 X60.349 Y43.386 E136.0644
G1 X60.349 Y42.065 E136.1302
G1 X73.011 Y42.065 E136.7619
G1 X73.011 Y40.745 E136.8278
G1 X60.349 Y40.745 E137.4595
G1 X60.995 Y39.424 E137.5328
G1 X72.365 Y39.424 E138.1001
G1 X71.073 Y38.103 E138.1922
G1 X62.287 Y38.103 E138.6305



; ------------------------------------
; Raft Layer #2
; ------------------------------------
G21 ; mm
G90 ; abs
G92 E0 ; reset extr
M106 S0
;segType:Raft
G0 F4800 E-1.0000
G0 F300 Z0.900
G0 X60.614 Y39.944 F10800
G0 F4800 E0.0000
G1 X60.614 Y81.242 E2.0604 F3600
G1 X61.002 Y81.637 E2.0880
G1 X61.002 Y39.548 E4.1879
G1 X61.390 Y39.152 E4.2155
G1 X61.390 Y82.033 E6.3549
G1 X61.778 Y82.429 E6.3825
G1 X61.778 Y38.756 E8.5614
G1 X62.166 Y38.360 E8.5890
G1 X62.166 Y82.825 E10.8074
G1 X62.554 Y83.089 E10.8308
G1 X62.554 Y38.097 E13.0754
G1 X62.942 Y38.097 E13.0948
G1 X62.942 Y83.089 E15.3395
G1 X63.330 Y83.089 E15.3588
G1 X63.330 Y38.097 E17.6035
G1 X63.718 Y38.097 E17.6229
G1 X63.718 Y83.089 E19.8675
G1 X64.106 Y83.089 E19.8869
G1 X64.106 Y38.097 E22.1316
G1 X64.494 Y38.097 E22.1509
G1 X64.494 Y83.089 E24.3956
G1 X64.882 Y83.089 E24.4149
G1 X64.882 Y38.097 E26.6596
G1 X65.270 Y38.097 E26.6790
G1 X65.270 Y83.089 E28.9236
G1 X65.658 Y83.089 E28.9430
G1 X65.658 Y38.097 E31.1877
G1 X66.046 Y38.097 E31.2070
G1 X66.046 Y83.089 E33.4517
G1 X66.434 Y83.089 E33.4710
G1 X66.434 Y38.097 E35.7157
G1 X66.822 Y38.097 E35.7351
G1 X66.822 Y83.089 E37.9797
G1 X67.210 Y83.089 E37.9991
G1 X67.210 Y38.097 E40.2438
G1 X67.598 Y38.097 E40.2631
G1 X67.598 Y83.089 E42.5078
G1 X67.986 Y83.089 E42.5271
G1 X67.986 Y38.097 E44.7718
G1 X68.374 Y38.097 E44.7912
G1 X68.374 Y83.089 E47.0358
G1 X68.762 Y83.089 E47.0552
G1 X68.762 Y38.097 E49.2999
G1 X69.150 Y38.097 E49.3192
G1 X69.150 Y83.089 E51.5639
G1 X69.538 Y83.089 E51.5833
G1 X69.538 Y38.097 E53.8279
G1 X69.926 Y38.097 E53.8473
G1 X69.926 Y83.089 E56.0920
G1 X70.314 Y83.089 E56.1113
G1 X70.314 Y38.097 E58.3560
G1 X70.702 Y38.097 E58.3753
G1 X70.702 Y83.089 E60.6200
G1 X71.090 Y83.089 E60.6394
G1 X71.090 Y38.097 E62.8840
G1 X71.478 Y38.492 E62.9117
G1 X71.478 Y82.693 E65.1169
G1 X71.866 Y82.297 E65.1445
G1 X71.866 Y38.888 E67.3102
G1 X72.254 Y39.284 E67.3378
G1 X72.254 Y81.901 E69.4640
G1 X72.642 Y81.505 E69.4917
G1 X72.642 Y39.680 E71.5784
G1 X73.030 Y40.076 E71.6060
G1 X73.030 Y81.110 E73.6532
G0 F4800 E72.6532
G0 X73.418 Y73.721 F10800
G0 F4800 E73.6532
G1 X73.418 Y47.332 E74.9697 F3600
G1 X73.806 Y47.728 E74.9974
G1 X73.806 Y73.325 E76.2744
G1 X74.194 Y72.929 E76.3021
G1 X74.194 Y48.124 E77.5396
G0 F4800 E76.5396
G0 X74.582 Y69.103 F10800
G0 F4800 E77.5396
G1 X74.582 Y53.534 E78.3163 F3600
G1 X74.970 Y53.534 E78.3357
G1 X74.970 Y69.103 E79.1124
G1 X75.358 Y69.103 E79.1318
G1 X75.358 Y53.534 E79.9085
G1 X75.745 Y53.534 E79.9279
G1 X75.745 Y69.103 E80.7047
G1 X76.133 Y69.103 E80.7240
G1 X76.133 Y53.534 E81.5008
G1 X76.521 Y53.534 E81.5201
G1 X76.521 Y69.103 E82.2969
G1 X76.909 Y69.103 E82.3162
G1 X76.909 Y53.534 E83.0930
G1 X77.297 Y53.534 E83.1123
G1 X77.297 Y69.103 E83.8891
G1 X77.685 Y69.103 E83.9084
G1 X77.685 Y53.534 E84.6852
G1 X78.073 Y53.534 E84.7045
G1 X78.073 Y69.103 E85.4813
G1 X78.461 Y68.707 E85.5089
G1 X78.461 Y53.534 E86.2659
G1 X78.849 Y53.534 E86.2853
G1 X78.849 Y68.311 E87.0225
G1 X79.237 Y67.915 E87.0502
G1 X79.237 Y53.534 E87.7677
G1 X79.625 Y53.534 E87.7871
G1 X79.625 Y67.652 E88.4914
G1 X80.013 Y67.652 E88.5107
G1 X80.013 Y53.534 E89.2151
G1 X80.401 Y53.534 E89.2344
G1 X80.401 Y67.652 E89.9388
G1 X80.789 Y67.652 E89.9581
G1 X80.789 Y53.534 E90.6625
G1 X81.177 Y53.534 E90.6818
G1 X81.177 Y67.652 E91.3862
G1 X81.565 Y67.652 E91.4055
G1 X81.565 Y53.534 E92.1099
G1 X81.953 Y53.534 E92.1292
G1 X81.953 Y67.652 E92.8336
G1 X82.341 Y67.652 E92.8529
G1 X82.341 Y53.534 E93.5572
G1 X82.729 Y53.534 E93.5766
G1 X82.729 Y67.652 E94.2809
G1 X83.117 Y67.652 E94.3003
G1 X83.117 Y53.534 E95.0046
G1 X83.505 Y53.534 E95.0240
G1 X83.505 Y67.652 E95.7283
G1 X83.893 Y67.652 E95.7477
G1 X83.893 Y53.534 E96.4520
G1 X84.281 Y53.534 E96.4714
G1 X84.281 Y67.652 E97.1757
G1 X84.669 Y67.652 E97.1951
G1 X84.669 Y53.534 E97.8994
G1 X85.057 Y53.534 E97.9188
G1 X85.057 Y67.652 E98.6231
G1 X85.445 Y67.652 E98.6425
G1 X85.445 Y53.534 E99.3468
G1 X85.833 Y53.534 E99.3662
G1 X85.833 Y67.652 E100.0705
G1 X86.221 Y67.652 E100.0898
G1 X86.221 Y53.534 E100.7942
G1 X86.609 Y53.666 E100.8146
G1 X86.609 Y67.520 E101.5058
G1 X86.997 Y67.124 E101.5335
G1 X86.997 Y54.062 E102.1851
G1 X87.385 Y54.457 E102.2128
G1 X87.385 Y66.728 E102.8250
G1 X87.773 Y66.332 E102.8526
G1 X87.773 Y54.853 E103.4253
G1 X88.161 Y55.249 E103.4530
G1 X88.161 Y65.936 E103.9861
G1 X88.549 Y64.089 E104.0803
G1 X88.549 Y57.096 E104.4292
G1 X88.937 Y57.492 E104.4568
G1 X88.937 Y63.693 E104.7662
G0 F4800 E103.7662
G0 X60.226 Y73.853 F10800
G0 F4800 E104.7662
G1 X60.226 Y47.201 E106.0959 F3600
G1 X59.838 Y47.596 E106.1236
G1 X59.838 Y73.457 E107.4138
G1 X59.450 Y73.061 E107.4414
G1 X59.450 Y47.992 E108.6921
G1 X59.062 Y48.388 E108.7197
G1 X59.062 Y72.665 E109.9310
G0 F4800 E108.9310
G0 X78.461 Y114.095 F10800
G0 F4800 E109.9310
G1 X78.461 Y156.844 E112.0637 F3600
G1 X78.073 Y157.240 E112.0914
G1 X78.073 Y113.699 E114.2636
G1 X77.685 Y113.304 E114.2913
G1 X77.685 Y157.636 E116.5030
G1 X77.297 Y158.032 E116.5307
G1 X77.297 Y112.908 E118.7819
G1 X76.909 Y112.512 E118.8096
G1 X76.909 Y158.428 E121.1003
G1 X76.521 Y158.692 E121.1237
G1 X76.521 Y112.248 E123.4408
G1 X76.133 Y112.248 E123.4602
G1 X76.133 Y158.692 E125.7773
G1 X75.745 Y158.692 E125.7966
G1 X75.745 Y112.248 E128.1137
G1 X75.358 Y112.248 E128.1331
G1 X75.358 Y158.692 E130.4501
G1 X74.970 Y158.692 E130.4695
G1 X74.970 Y112.248 E132.7866
G1 X74.582 Y112.248 E132.8059
G1 X74.582 Y158.692 E135.1230
G1 X74.194 Y158.692 E135.1424
G1 X74.194 Y112.248 E137.4595
G1 X73.806 Y112.248 E137.4788
G1 X73.806 Y158.692 E139.7959
G1 X73.418 Y158.692 E139.8153
G1 X73.418 Y112.248 E142.1323
G1 X73.030 Y112.248 E142.1517
G1 X73.030 Y158.692 E144.4688
G1 X72.642 Y158.692 E144.4882
G1 X72.642 Y112.248 E146.8052
G1 X72.254 Y112.248 E146.8246
G1 X72.254 Y158.692 E149.1417
G1 X71.866 Y158.692 E149.1610
G1 X71.866 Y112.248 E151.4781
G1 X71.478 Y112.248 E151.4975
G1 X71.478 Y158.692 E153.8146
G1 X71.090 Y158.692 E153.8339
G1 X71.090 Y112.248 E156.1510
G1 X70.702 Y112.248 E156.1704
G1 X70.702 Y158.692 E158.4874
G1 X70.314 Y158.692 E158.5068
G1 X70.314 Y112.248 E160.8239
G1 X69.926 Y112.248 E160.8432
G1 X69.926 Y158.692 E163.1603
G1 X69.538 Y158.692 E163.1797
G1 X69.538 Y112.248 E165.4968
G1 X69.150 Y112.248 E165.5161
G1 X69.150 Y158.692 E167.8332
G1 X68.762 Y158.692 E167.8526
G1 X68.762 Y112.248 E170.1696
G1 X68.374 Y112.248 E170.1890
G1 X68.374 Y158.692 E172.5061
G1 X67.986 Y158.692 E172.5254
G1 X67.986 Y112.248 E174.8425
G1 X67.598 Y112.644 E174.8702
G1 X67.598 Y158.296 E177.1478
G1 X67.210 Y157.900 E177.1754
G1 X67.210 Y113.040 E179.4135
G1 X66.822 Y113.435 E179.4411
G1 X66.822 Y157.504 E181.6397
G1 X66.434 Y157.108 E181.6674
G1 X66.434 Y113.831 E183.8265
G1 X66.046 Y114.227 E183.8541
G1 X66.046 Y156.712 E185.9737
G0 F4800 E184.9737
G0 X65.658 Y148.004 F10800
G0 F4800 E185.9737
G1 X65.658 Y122.935 E187.2244 F3600
G1 X65.270 Y123.331 E187.2521
G1 X65.270 Y147.608 E188.4633
G1 X64.882 Y147.213 E188.4909
G1 X64.882 Y123.727 E189.6626
G0 F4800 E188.6626
G0 X80.401 Y143.254 F10800
G0 F4800 E189.6626
G1 X80.401 Y127.685 E190.4394 F3600
G1 X80.789 Y127.685 E190.4587
G1 X80.789 Y143.254 E191.2355
G1 X81.177 Y143.254 E191.2549
G1 X81.177 Y127.685 E192.0316
G1 X81.565 Y127.685 E192.0510
G1 X81.565 Y143.254 E192.8277
G1 X81.953 Y143.254 E192.8471
G1 X81.953 Y127.685 E193.6238
G1 X82.341 Y127.685 E193.6432
G1 X82.341 Y143.254 E194.4199
G1 X82.729 Y143.254 E194.4393
G1 X82.729 Y127.685 E195.2161
G1 X83.117 Y127.685 E195.2354
G1 X83.117 Y143.254 E196.0122
G1 X83.505 Y143.254 E196.0315
G1 X83.505 Y127.685 E196.8083
G1 X83.893 Y127.685 E196.8276
G1 X83.893 Y143.254 E197.6044
G1 X84.281 Y143.254 E197.6238
G1 X84.281 Y127.685 E198.4005
G1 X84.669 Y127.685 E198.4199
G1 X84.669 Y143.254 E199.1966
G1 X85.057 Y143.254 E199.2160
G1 X85.057 Y127.685 E199.9927
G1 X85.445 Y127.685 E200.0121
G1 X85.445 Y143.254 E200.7888
G1 X85.833 Y143.254 E200.8082
G1 X85.833 Y127.685 E201.5850
G1 X86.221 Y127.685 E201.6043
G1 X86.221 Y143.254 E202.3811
G1 X86.609 Y143.254 E202.4004
G1 X86.609 Y127.685 E203.1772
G1 X86.997 Y127.685 E203.1965
G1 X86.997 Y143.254 E203.9733
G1 X87.385 Y143.254 E203.9927
G1 X87.385 Y127.685 E204.7694
G1 X87.773 Y127.685 E204.7888
G1 X87.773 Y143.254 E205.5655
G1 X88.161 Y143.254 E205.5849
G1 X88.161 Y127.685 E206.3616
G1 X88.549 Y127.685 E206.3810
G1 X88.549 Y143.254 E207.1577
G1 X88.937 Y143.254 E207.1771
G1 X88.937 Y127.685 E207.9538
G1 X89.325 Y127.685 E207.9732
G1 X89.325 Y143.254 E208.7500
G1 X89.713 Y143.254 E208.7693
G1 X89.713 Y127.685 E209.5461
G1 X90.101 Y127.685 E209.5654
G1 X90.101 Y143.254 E210.3422
G1 X90.489 Y143.254 E210.3616
G1 X90.489 Y127.685 E211.1383
G1 X90.877 Y127.685 E211.1577
G1 X90.877 Y143.254 E211.9344
G1 X91.265 Y143.254 E211.9538
G1 X91.265 Y127.685 E212.7305
G1 X91.653 Y127.685 E212.7499
G1 X91.653 Y143.254 E213.5266
G1 X92.041 Y143.254 E213.5460
G1 X92.041 Y127.685 E214.3228
G1 X92.429 Y128.081 E214.3504
G1 X92.429 Y142.859 E215.0877
G1 X92.817 Y142.463 E215.1153
G1 X92.817 Y128.477 E215.8131
G1 X93.205 Y128.873 E215.8407
G1 X93.205 Y142.067 E216.4990
G1 X93.593 Y141.671 E216.5266
G1 X93.593 Y129.268 E217.1454
G1 X93.981 Y129.664 E217.1730
G1 X93.981 Y141.275 E217.7523
G0 F4800 E216.7523
G0 X80.013 Y146.949 F10800
G0 F4800 E217.7523
G1 X80.013 Y123.991 E218.8977 F3600
G1 X79.625 Y123.595 E218.9253
G1 X79.625 Y147.345 E220.1102
G1 X79.237 Y147.740 E220.1378
G1 X79.237 Y123.199 E221.3622
G1 X78.849 Y122.803 E221.3899
G1 X78.849 Y148.136 E222.6537
G0 F4800 E221.6537
G0 X148.686 Y126.762 F10800
G0 F4800 E222.6537
G1 X148.686 Y149.851 E223.8057 F3600
G1 X149.074 Y150.247 E223.8333
G1 X149.074 Y126.366 E225.0248
G1 X149.462 Y125.970 E225.0524
G1 X149.462 Y150.643 E226.2834
G1 X149.850 Y151.039 E226.3110
G1 X149.850 Y125.574 E227.5815
G0 F4800 E226.5815
G0 X150.238 Y116.734 F10800
G0 F4800 E227.5815
G1 X150.238 Y159.747 E229.7274 F3600
G1 X150.626 Y160.143 E229.7550
G1 X150.626 Y116.338 E231.9405
G1 X151.014 Y115.942 E231.9681
G1 X151.014 Y160.539 E234.1931
G1 X151.402 Y160.935 E234.2207
G1 X151.402 Y115.547 E236.4851
G1 X151.790 Y115.151 E236.5128
G1 X151.790 Y161.330 E238.8167
G1 X152.178 Y161.462 E238.8371
G1 X152.178 Y115.019 E241.1542
G1 X152.566 Y115.019 E241.1736
G1 X152.566 Y161.462 E243.4906
G1 X152.954 Y161.462 E243.5100
G1 X152.954 Y115.019 E245.8271
G1 X153.342 Y115.019 E245.8464
G1 X153.342 Y161.462 E248.1635
G1 X153.730 Y161.462 E248.1829
G1 X153.730 Y115.019 E250.5000
G1 X154.118 Y115.019 E250.5193
G1 X154.118 Y161.462 E252.8364
G1 X154.506 Y161.462 E252.8558
G1 X154.506 Y115.019 E255.1728
G1 X154.894 Y115.019 E255.1922
G1 X154.894 Y161.462 E257.5093
G1 X155.281 Y161.462 E257.5286
G1 X155.281 Y115.019 E259.8457
G1 X155.669 Y115.019 E259.8651
G1 X155.669 Y161.462 E262.1821
G1 X156.057 Y161.462 E262.2015
G1 X156.057 Y115.019 E264.5186
G1 X156.445 Y115.019 E264.5379
G1 X156.445 Y161.462 E266.8550
G1 X156.833 Y161.462 E266.8743
G1 X156.833 Y115.019 E269.1914
G1 X157.221 Y115.019 E269.2108
G1 X157.221 Y161.462 E271.5278
G1 X157.609 Y161.462 E271.5472
G1 X157.609 Y115.019 E273.8643
G1 X157.997 Y115.019 E273.8836
G1 X157.997 Y161.462 E276.2007
G1 X158.385 Y161.462 E276.2200
G1 X158.385 Y115.019 E278.5371
G1 X158.773 Y115.019 E278.5565
G1 X158.773 Y161.462 E280.8735
G1 X159.161 Y161.462 E280.8929
G1 X159.161 Y115.019 E283.2100
G1 X159.549 Y115.019 E283.2293
G1 X159.549 Y161.462 E285.5464
G1 X159.937 Y161.462 E285.5657
G1 X159.937 Y115.019 E287.8828
G1 X160.325 Y115.019 E287.9022
G1 X160.325 Y161.462 E290.2193
G1 X160.713 Y161.330 E290.2397
G1 X160.713 Y115.151 E292.5436
G1 X161.101 Y115.547 E292.5713
G1 X161.101 Y160.935 E294.8357
G1 X161.489 Y160.539 E294.8634
G1 X161.489 Y115.942 E297.0883
G1 X161.877 Y116.338 E297.1159
G1 X161.877 Y160.143 E299.3013
G1 X162.265 Y159.747 E299.3290
G1 X162.265 Y116.734 E301.4749
G0 F4800 E300.4749
G0 X162.653 Y125.574 F10800
G0 F4800 E301.4749
G1 X162.653 Y151.039 E302.7454 F3600
G1 X163.041 Y150.643 E302.7730
G1 X163.041 Y125.970 E304.0040
G1 X163.429 Y126.366 E304.0316
G1 X163.429 Y150.247 E305.2231
G1 X163.817 Y149.851 E305.2507
G1 X163.817 Y126.762 E306.4027
G0 F4800 E305.4027
G0 X164.205 Y130.456 F10800
G0 F4800 E306.4027
G1 X164.205 Y146.025 E307.1794 F3600
G1 X164.593 Y146.025 E307.1988
G1 X164.593 Y130.456 E307.9755
G1 X164.981 Y130.456 E307.9949
G1 X164.981 Y146.025 E308.7716
G1 X165.369 Y146.025 E308.7909
G1 X165.369 Y130.456 E309.5677
G1 X165.757 Y130.456 E309.5870
G1 X165.757 Y146.025 E310.3638
G1 X166.145 Y146.025 E310.3831
G1 X166.145 Y130.456 E311.1598
G1 X166.533 Y130.456 E311.1792
G1 X166.533 Y146.025 E311.9559
G1 X166.921 Y146.025 E311.9753
G1 X166.921 Y130.456 E312.7520
G1 X167.309 Y130.456 E312.7713
G1 X167.309 Y146.025 E313.5481
G1 X167.697 Y146.025 E313.5674
G1 X167.697 Y130.456 E314.3442
G1 X168.085 Y130.456 E314.3635
G1 X168.085 Y146.025 E315.1402
G1 X168.473 Y146.025 E315.1596
G1 X168.473 Y130.456 E315.9363
G1 X168.861 Y130.456 E315.9557
G1 X168.861 Y146.025 E316.7324
G1 X169.249 Y146.025 E316.7518
G1 X169.249 Y130.456 E317.5285
G1 X169.637 Y130.456 E317.5478
G1 X169.637 Y146.025 E318.3246
G1 X170.025 Y146.025 E318.3439
G1 X170.025 Y130.456 E319.1206
G1 X170.413 Y130.456 E319.1400
G1 X170.413 Y146.025 E319.9167
G1 X170.801 Y146.025 E319.9361
G1 X170.801 Y130.456 E320.7128
G1 X171.189 Y130.456 E320.7322
G1 X171.189 Y146.025 E321.5089
G1 X171.577 Y146.025 E321.5282
G1 X171.577 Y130.456 E322.3050
G1 X171.965 Y130.456 E322.3243
G1 X171.965 Y146.025 E323.1011
G1 X172.353 Y146.025 E323.1204
G1 X172.353 Y130.456 E323.8971
G1 X172.741 Y130.456 E323.9165
G1 X172.741 Y146.025 E324.6932
G1 X173.129 Y146.025 E324.7126
G1 X173.129 Y130.456 E325.4893
G1 X173.517 Y130.456 E325.5086
G1 X173.517 Y146.025 E326.2854
G1 X173.905 Y146.025 E326.3047
G1 X173.905 Y130.456 E327.0815
G1 X174.293 Y130.456 E327.1008
G1 X174.293 Y146.025 E327.8775
G1 X174.680 Y146.025 E327.8969
G1 X174.680 Y130.456 E328.6736
G1 X175.068 Y130.456 E328.6930
G1 X175.068 Y146.025 E329.4697
G1 X175.456 Y146.025 E329.4891
G1 X175.456 Y130.456 E330.2658
G1 X175.844 Y130.456 E330.2851
G1 X175.844 Y146.025 E331.0619
G1 X176.232 Y145.761 E331.0853
G1 X176.232 Y130.720 E331.8357
G1 X176.620 Y131.116 E331.8634
G1 X176.620 Y145.365 E332.5743
G1 X177.008 Y144.970 E332.6019
G1 X177.008 Y131.512 E333.2734
G1 X177.396 Y131.907 E333.3010
G1 X177.396 Y144.574 E333.9329
G1 X177.784 Y144.178 E333.9606
G1 X177.784 Y132.303 E334.5530
G0 F4800 E333.5530
G0 X151.402 Y76.888 F10800
G0 F4800 E334.5530
G1 X151.402 Y35.854 E336.6002 F3600
G1 X151.790 Y35.458 E336.6279
G1 X151.790 Y77.283 E338.7146
G1 X152.178 Y77.679 E338.7422
G1 X152.178 Y35.062 E340.8684
G1 X152.566 Y34.666 E340.8960
G1 X152.566 Y78.075 E343.0617
G1 X152.954 Y78.471 E343.0894
G1 X152.954 Y34.270 E345.2945
G1 X153.342 Y33.874 E345.3222
G1 X153.342 Y78.867 E347.5668
G1 X153.730 Y78.867 E347.5862
G1 X153.730 Y33.874 E349.8309
G1 X154.118 Y33.874 E349.8502
G1 X154.118 Y78.867 E352.0949
G1 X154.506 Y78.867 E352.1142
G1 X154.506 Y33.874 E354.3589
G1 X154.894 Y33.874 E354.3782
G1 X154.894 Y78.867 E356.6229
G1 X155.281 Y78.867 E356.6422
G1 X155.281 Y33.874 E358.8869
G1 X155.669 Y33.874 E358.9062
G1 X155.669 Y78.867 E361.1509
G1 X156.057 Y78.867 E361.1702
G1 X156.057 Y33.874 E363.4149
G1 X156.445 Y33.874 E363.4342
G1 X156.445 Y78.867 E365.6789
G1 X156.833 Y78.867 E365.6983
G1 X156.833 Y33.874 E367.9429
G1 X157.221 Y33.874 E367.9623
G1 X157.221 Y78.867 E370.2069
G1 X157.609 Y78.867 E370.2263
G1 X157.609 Y33.874 E372.4709
G1 X157.997 Y33.874 E372.4903
G1 X157.997 Y78.867 E374.7349
G1 X158.385 Y78.867 E374.7543
G1 X158.385 Y33.874 E376.9989
G1 X158.773 Y33.874 E377.0183
G1 X158.773 Y78.867 E379.2630
G1 X159.161 Y78.867 E379.2823
G1 X159.161 Y33.874 E381.5270
G1 X159.549 Y33.874 E381.5463
G1 X159.549 Y78.867 E383.7910
G1 X159.937 Y78.867 E383.8103
G1 X159.937 Y33.874 E386.0550
G1 X160.325 Y33.874 E386.0743
G1 X160.325 Y78.867 E388.3190
G1 X160.713 Y78.867 E388.3383
G1 X160.713 Y33.874 E390.5830
G1 X161.101 Y33.874 E390.6023
G1 X161.101 Y78.867 E392.8470
G1 X161.489 Y78.867 E392.8663
G1 X161.489 Y33.874 E395.1110
G1 X161.877 Y33.874 E395.1304
G1 X161.877 Y78.867 E397.3750
G1 X162.265 Y78.603 E397.3984
G1 X162.265 Y34.138 E399.6168
G1 X162.653 Y34.534 E399.6444
G1 X162.653 Y78.207 E401.8233
G1 X163.041 Y77.811 E401.8509
G1 X163.041 Y34.930 E403.9902
G1 X163.429 Y35.326 E404.0179
G1 X163.429 Y77.415 E406.1177
G1 X163.817 Y77.019 E406.1454
G1 X163.817 Y35.722 E408.2058
G0 F4800 E407.2058
G0 X151.014 Y43.242 F10800
G0 F4800 E408.2058
G1 X151.014 Y68.179 E409.4499 F3600
G1 X150.626 Y67.784 E409.4775
G1 X150.626 Y43.638 E410.6821
G1 X150.238 Y44.034 E410.7098
G1 X150.238 Y67.388 E411.8749
G0 F4800 E410.8749
G0 X164.205 Y68.311 F10800
G0 F4800 E411.8749
G1 X164.205 Y43.110 E413.1322 F3600
G1 X164.593 Y43.506 E413.1599
G1 X164.593 Y67.915 E414.3776
G1 X164.981 Y67.520 E414.4053
G1 X164.981 Y43.902 E415.5836
G1 X165.369 Y44.298 E415.6112
G1 X165.369 Y67.124 E416.7500
G0 F4800 E415.7500
G0 X165.757 Y63.429 F10800
G0 F4800 E416.7500
G1 X165.757 Y47.860 E417.5267 F3600
G1 X166.145 Y47.860 E417.5461
G1 X166.145 Y63.429 E418.3228
G1 X166.533 Y63.429 E418.3422
G1 X166.533 Y47.860 E419.1189
G1 X166.921 Y47.860 E419.1383
G1 X166.921 Y63.429 E419.9150
G1 X167.309 Y63.429 E419.9344
G1 X167.309 Y47.860 E420.7111
G1 X167.697 Y47.860 E420.7304
G1 X167.697 Y63.429 E421.5072
G1 X168.085 Y63.429 E421.5265
G1 X168.085 Y47.860 E422.3032
G1 X168.473 Y47.860 E422.3226
G1 X168.473 Y63.429 E423.0993
G1 X168.861 Y63.429 E423.1187
G1 X168.861 Y47.860 E423.8954
G1 X169.249 Y47.860 E423.9148
G1 X169.249 Y63.429 E424.6915
G1 X169.637 Y63.429 E424.7108
G1 X169.637 Y47.860 E425.4876
G1 X170.025 Y47.860 E425.5069
G1 X170.025 Y63.429 E426.2837
G1 X170.413 Y63.429 E426.3030
G1 X170.413 Y47.860 E427.0797
G1 X170.801 Y47.860 E427.0991
G1 X170.801 Y63.429 E427.8758
G1 X171.189 Y63.429 E427.8952
G1 X171.189 Y47.860 E428.6719
G1 X171.577 Y47.860 E428.6912
G1 X171.577 Y63.429 E429.4680
G1 X171.965 Y63.429 E429.4873
G1 X171.965 Y47.860 E430.2641
G1 X172.353 Y47.860 E430.2834
G1 X172.353 Y63.429 E431.0601
G1 X172.741 Y63.429 E431.0795
G1 X172.741 Y47.860 E431.8562
G1 X173.129 Y47.860 E431.8756
G1 X173.129 Y63.429 E432.6523
G1 X173.517 Y63.429 E432.6717
G1 X173.517 Y47.860 E433.4484
G1 X173.905 Y47.860 E433.4677
G1 X173.905 Y63.429 E434.2445
G1 X174.293 Y63.429 E434.2638
G1 X174.293 Y47.860 E435.0406
G1 X174.680 Y47.860 E435.0599
G1 X174.680 Y63.429 E435.8366
G1 X175.068 Y63.429 E435.8560
G1 X175.068 Y47.860 E436.6327
G1 X175.456 Y47.860 E436.6521
G1 X175.456 Y63.429 E437.4288
G1 X175.844 Y63.429 E437.4481
G1 X175.844 Y47.860 E438.2249
G1 X176.232 Y47.860 E438.2442
G1 X176.232 Y63.429 E439.0210
G1 X176.620 Y63.429 E439.0403
G1 X176.620 Y47.860 E439.8170
G1 X177.008 Y47.860 E439.8364
G1 X177.008 Y63.429 E440.6131
G1 X177.396 Y63.429 E440.6325
G1 X177.396 Y47.860 E441.4092
G1 X177.784 Y48.256 E441.4369
G1 X177.784 Y63.034 E442.1741
G1 X178.172 Y62.638 E442.2017
G1 X178.172 Y48.652 E442.8995
G1 X178.560 Y49.048 E442.9271
G1 X178.560 Y62.242 E443.5854
G1 X178.948 Y61.846 E443.6131
G1 X178.948 Y49.444 E444.2318
G1 X179.336 Y49.839 E444.2595
G1 X179.336 Y61.450 E444.8388
G1 X179.724 Y59.471 E444.9394
G1 X179.724 Y53.006 E445.2619



; ------------------------------------
; Raft Layer #3
; ------------------------------------
G21 ; mm
G90 ; abs
G92 E0 ; reset extr
M106 S0
;segType:Raft
G0 F4800 E-1.0000
G0 F300 Z1.200
G0 X177.532 Y48.009 F10800
G0 F4800 E0.0000
G1 X149.884 Y48.009 E1.3794 F3600
G1 X149.884 Y48.405 E1.3992
G1 X177.920 Y48.405 E2.7979
G1 X178.307 Y48.801 E2.8255
G1 X149.884 Y48.801 E4.2436
G1 X149.884 Y49.198 E4.2633
G1 X178.695 Y49.198 E5.7007
G1 X179.082 Y49.594 E5.7284
G1 X149.884 Y49.594 E7.1851
G1 X149.884 Y49.990 E7.2049
G1 X179.341 Y49.990 E8.6745
G1 X179.341 Y50.386 E8.6943
G1 X149.884 Y50.386 E10.1639
G1 X149.884 Y50.783 E10.1837
G1 X179.341 Y50.783 E11.6533
G1 X179.341 Y51.179 E11.6731
G1 X149.884 Y51.179 E13.1427
G1 X149.884 Y51.575 E13.1624
G1 X179.341 Y51.575 E14.6321
G1 X179.341 Y51.971 E14.6518
G1 X149.884 Y51.971 E16.1215
G1 X149.884 Y52.367 E16.1412
G1 X179.341 Y52.367 E17.6109
G1 X179.470 Y52.764 E17.6316
G1 X149.884 Y52.764 E19.1077
G1 X149.884 Y53.160 E19.1275
G1 X179.858 Y53.160 E20.6229
G1 X179.987 Y53.556 E20.6437
G1 X149.884 Y53.556 E22.1455
G1 X149.884 Y53.952 E22.1653
G1 X179.987 Y53.952 E23.6671
G1 X179.987 Y54.348 E23.6869
G1 X149.884 Y54.348 E25.1888
G1 X149.884 Y54.745 E25.2085
G1 X179.987 Y54.745 E26.7104
G1 X179.987 Y55.141 E26.7301
G1 X149.884 Y55.141 E28.2320
G1 X149.884 Y55.537 E28.2518
G1 X179.987 Y55.537 E29.7536
G1 X179.987 Y55.933 E29.7734
G1 X149.884 Y55.933 E31.2752
G1 X149.884 Y56.330 E31.2950
G1 X179.987 Y56.330 E32.7969
G1 X179.987 Y56.726 E32.8166
G1 X149.884 Y56.726 E34.3185
G1 X149.884 Y57.122 E34.3382
G1 X179.987 Y57.122 E35.8401
G1 X179.987 Y57.518 E35.8599
G1 X149.884 Y57.518 E37.3617
G1 X149.884 Y57.914 E37.3815
G1 X179.987 Y57.914 E38.8833
G1 X179.987 Y58.311 E38.9031
G1 X149.884 Y58.311 E40.4049
G1 X149.884 Y58.707 E40.4247
G1 X179.987 Y58.707 E41.9266
G1 X179.987 Y59.103 E41.9463
G1 X149.884 Y59.103 E43.4482
G1 X149.884 Y59.499 E43.4679
G1 X179.599 Y59.499 E44.9505
G1 X179.341 Y59.896 E44.9741
G1 X149.884 Y59.896 E46.4437
G1 X149.884 Y60.292 E46.4634
G1 X179.341 Y60.292 E47.9331
G1 X179.341 Y60.688 E47.9528
G1 X149.884 Y60.688 E49.4225
G1 X149.884 Y61.084 E49.4422
G1 X179.341 Y61.084 E50.9119
G1 X179.212 Y61.480 E50.9326
G1 X149.884 Y61.480 E52.3958
G1 X149.884 Y61.877 E52.4156
G1 X178.824 Y61.877 E53.8594
G1 X178.436 Y62.273 E53.8871
G1 X149.884 Y62.273 E55.3116
G1 X149.884 Y62.669 E55.3314
G1 X178.049 Y62.669 E56.7365
G1 X177.661 Y63.065 E56.7642
G1 X149.884 Y63.065 E58.1500
G1 X149.884 Y63.462 E58.1698
G1 X165.387 Y63.462 E58.9433
G1 X165.387 Y63.858 E58.9630
G1 X149.884 Y63.858 E59.7365
G1 X149.884 Y64.254 E59.7563
G1 X165.387 Y64.254 E60.5298
G1 X165.387 Y64.650 E60.5495
G1 X149.884 Y64.650 E61.3230
G1 X149.884 Y65.046 E61.3428
G1 X165.387 Y65.046 E62.1163
G1 X165.387 Y65.443 E62.1360
G1 X149.884 Y65.443 E62.9095
G1 X149.884 Y65.839 E62.9293
G1 X165.387 Y65.839 E63.7028
G1 X165.387 Y66.235 E63.7226
G1 X149.884 Y66.235 E64.4960
G1 X149.884 Y66.631 E64.5158
G1 X165.387 Y66.631 E65.2893
G1 X165.387 Y67.028 E65.3091
G1 X149.884 Y67.028 E66.0825
G1 X150.271 Y67.424 E66.1102
G1 X165.000 Y67.424 E66.8450
G1 X164.612 Y67.820 E66.8727
G1 X150.659 Y67.820 E67.5688
G1 X151.046 Y68.216 E67.5964
G1 X164.225 Y68.216 E68.2539
G1 X163.966 Y68.612 E68.2775
G1 X151.305 Y68.612 E68.9092
G1 X151.305 Y69.009 E68.9290
G1 X163.966 Y69.009 E69.5606
G1 X163.966 Y69.405 E69.5804
G1 X151.305 Y69.405 E70.2121
G1 X151.305 Y69.801 E70.2319
G1 X163.966 Y69.801 E70.8635
G1 X163.966 Y70.197 E70.8833
G1 X151.305 Y70.197 E71.5150
G1 X151.305 Y70.594 E71.5348
G1 X163.966 Y70.594 E72.1664
G1 X163.966 Y70.990 E72.1862
G1 X151.305 Y70.990 E72.8179
G1 X151.305 Y71.386 E72.8377
G1 X163.966 Y71.386 E73.4693
G1 X163.966 Y71.782 E73.4891
G1 X151.305 Y71.782 E74.1208
G1 X151.305 Y72.178 E74.1406
G1 X163.966 Y72.178 E74.7723
G1 X163.966 Y72.575 E74.7920
G1 X151.305 Y72.575 E75.4237
G1 X151.305 Y72.971 E75.4435
G1 X163.966 Y72.971 E76.0752
G1 X163.966 Y73.367 E76.0949
G1 X151.305 Y73.367 E76.7266
G1 X151.305 Y73.763 E76.7464
G1 X163.966 Y73.763 E77.3781
G1 X163.966 Y74.160 E77.3978
G1 X151.305 Y74.160 E78.0295
G1 X151.305 Y74.556 E78.0493
G1 X163.966 Y74.556 E78.6810
G1 X163.966 Y74.952 E78.7007
G1 X151.305 Y74.952 E79.3324
G1 X151.305 Y75.348 E79.3522
G1 X163.966 Y75.348 E79.9839
G1 X163.966 Y75.744 E80.0036
G1 X151.305 Y75.744 E80.6353
G1 X151.305 Y76.141 E80.6551
G1 X163.966 Y76.141 E81.2868
G1 X163.966 Y76.537 E81.3065
G1 X151.305 Y76.537 E81.9382
G1 X151.434 Y76.933 E81.9590
G1 X163.837 Y76.933 E82.5778
G1 X163.449 Y77.329 E82.6054
G1 X151.822 Y77.329 E83.1856
G1 X152.209 Y77.726 E83.2132
G1 X163.062 Y77.726 E83.7546
G1 X162.674 Y78.122 E83.7823
G1 X152.597 Y78.122 E84.2851
G1 X152.984 Y78.518 E84.3127
G1 X162.287 Y78.518 E84.7768
G0 F4800 E83.7768
G0 X165.387 Y47.613 F10800
G0 F4800 E84.7768
G1 X149.884 Y47.613 E85.5503 F3600
G1 X149.884 Y47.217 E85.5701
G1 X165.387 Y47.217 E86.3435
G1 X165.387 Y46.820 E86.3633
G1 X149.884 Y46.820 E87.1368
G1 X149.884 Y46.424 E87.1566
G1 X165.387 Y46.424 E87.9300
G1 X165.387 Y46.028 E87.9498
G1 X149.884 Y46.028 E88.7233
G1 X149.884 Y45.632 E88.7431
G1 X165.387 Y45.632 E89.5165
G1 X165.387 Y45.235 E89.5363
G1 X149.884 Y45.235 E90.3098
G1 X149.884 Y44.839 E90.3296
G1 X165.387 Y44.839 E91.1030
G1 X165.387 Y44.443 E91.1228
G1 X149.884 Y44.443 E91.8963
G1 X150.142 Y44.047 E91.9199
G1 X165.129 Y44.047 E92.6676
G1 X164.741 Y43.651 E92.6953
G1 X150.530 Y43.651 E93.4043
G1 X150.917 Y43.254 E93.4319
G1 X164.354 Y43.254 E94.1023
G1 X163.966 Y42.858 E94.1299
G1 X151.305 Y42.858 E94.7616
G1 X151.305 Y42.462 E94.7814
G1 X163.966 Y42.462 E95.4131
G1 X163.966 Y42.066 E95.4328
G1 X151.305 Y42.066 E96.0645
G1 X151.305 Y41.669 E96.0843
G1 X163.966 Y41.669 E96.7160
G1 X163.966 Y41.273 E96.7358
G1 X151.305 Y41.273 E97.3674
G1 X151.305 Y40.877 E97.3872
G1 X163.966 Y40.877 E98.0189
G1 X163.966 Y40.481 E98.0387
G1 X151.305 Y40.481 E98.6703
G1 X151.305 Y40.085 E98.6901
G1 X163.966 Y40.085 E99.3218
G1 X163.966 Y39.688 E99.3416
G1 X151.305 Y39.688 E99.9732
G1 X151.305 Y39.292 E99.9930
G1 X163.966 Y39.292 E100.6247
G1 X163.966 Y38.896 E100.6445
G1 X151.305 Y38.896 E101.2761
G1 X151.305 Y38.500 E101.2959
G1 X163.966 Y38.500 E101.9276
G1 X163.966 Y38.103 E101.9474
G1 X151.305 Y38.103 E102.5790
G1 X151.305 Y37.707 E102.5988
G1 X163.966 Y37.707 E103.2305
G1 X163.966 Y37.311 E103.2503
G1 X151.305 Y37.311 E103.8819
G1 X151.305 Y36.915 E103.9017
G1 X163.966 Y36.915 E104.5334
G1 X163.966 Y36.519 E104.5532
G1 X151.305 Y36.519 E105.1849
G1 X151.305 Y36.122 E105.2046
G1 X163.966 Y36.122 E105.8363
G1 X163.837 Y35.726 E105.8571
G1 X151.434 Y35.726 E106.4759
G1 X151.822 Y35.330 E106.5035
G1 X163.449 Y35.330 E107.0836
G1 X163.062 Y34.934 E107.1113
G1 X152.209 Y34.934 E107.6527
G1 X152.597 Y34.537 E107.6804
G1 X162.674 Y34.537 E108.1832
G1 X162.287 Y34.141 E108.2108
G1 X152.984 Y34.141 E108.6749
G0 F4800 E107.6749
G0 X160.607 Y114.970 F10800
G0 F4800 E108.6749
G1 X151.822 Y114.970 E109.1132 F3600
G1 X151.434 Y115.366 E109.1409
G1 X160.995 Y115.366 E109.6178
G1 X161.382 Y115.763 E109.6455
G1 X151.046 Y115.763 E110.1612
G1 X150.659 Y116.159 E110.1888
G1 X161.770 Y116.159 E110.7431
G1 X162.157 Y116.555 E110.7708
G1 X150.271 Y116.555 E111.3638
G1 X149.884 Y116.951 E111.3914
G1 X162.545 Y116.951 E112.0231
G1 X162.545 Y117.348 E112.0429
G1 X149.884 Y117.348 E112.6746
G1 X149.884 Y117.744 E112.6943
G1 X162.545 Y117.744 E113.3260
G1 X162.545 Y118.140 E113.3458
G1 X149.884 Y118.140 E113.9775
G1 X149.884 Y118.536 E113.9973
G1 X162.545 Y118.536 E114.6289
G1 X162.545 Y118.932 E114.6487
G1 X149.884 Y118.932 E115.2804
G1 X149.884 Y119.329 E115.3002
G1 X162.545 Y119.329 E115.9318
G1 X162.545 Y119.725 E115.9516
G1 X149.884 Y119.725 E116.5833
G1 X149.884 Y120.121 E116.6031
G1 X162.545 Y120.121 E117.2347
G1 X162.545 Y120.517 E117.2545
G1 X149.884 Y120.517 E117.8862
G1 X149.884 Y120.914 E117.9060
G1 X162.545 Y120.914 E118.5376
G1 X162.545 Y121.310 E118.5574
G1 X149.884 Y121.310 E119.1891
G1 X149.884 Y121.706 E119.2089
G1 X162.545 Y121.706 E119.8405
G1 X162.545 Y122.102 E119.8603
G1 X149.884 Y122.102 E120.4920
G1 X149.884 Y122.498 E120.5118
G1 X162.545 Y122.498 E121.1434
G1 X162.545 Y122.895 E121.1632
G1 X149.884 Y122.895 E121.7949
G1 X149.884 Y123.291 E121.8147
G1 X162.545 Y123.291 E122.4463
G1 X162.545 Y123.687 E122.4661
G1 X149.884 Y123.687 E123.0978
G1 X149.884 Y124.083 E123.1176
G1 X162.545 Y124.083 E123.7493
G1 X162.545 Y124.480 E123.7690
G1 X149.884 Y124.480 E124.4007
G1 X149.884 Y124.876 E124.4205
G1 X162.545 Y124.876 E125.0522
G1 X162.545 Y125.272 E125.0719
G1 X149.884 Y125.272 E125.7036
G1 X149.625 Y125.668 E125.7272
G1 X162.803 Y125.668 E126.3847
G1 X163.191 Y126.064 E126.4123
G1 X149.238 Y126.064 E127.1085
G1 X148.850 Y126.461 E127.1361
G1 X163.579 Y126.461 E127.8709
G1 X163.966 Y126.857 E127.8986
G1 X148.462 Y126.857 E128.6721
G1 X148.462 Y127.253 E128.6918
G1 X163.966 Y127.253 E129.4653
G1 X163.966 Y127.649 E129.4851
G1 X148.462 Y127.649 E130.2586
G1 X148.462 Y128.046 E130.2783
G1 X163.966 Y128.046 E131.0518
G1 X163.966 Y128.442 E131.0716
G1 X148.462 Y128.442 E131.8450
G1 X148.462 Y128.838 E131.8648
G1 X163.966 Y128.838 E132.6383
G1 X163.966 Y129.234 E132.6580
G1 X148.462 Y129.234 E133.4315
G1 X148.462 Y129.630 E133.4513
G1 X163.966 Y129.630 E134.2248
G1 X163.966 Y130.027 E134.2445
G1 X148.462 Y130.027 E135.0180
G1 X148.462 Y130.423 E135.0378
G1 X175.982 Y130.423 E136.4107
G1 X176.369 Y130.819 E136.4384
G1 X148.462 Y130.819 E137.8306
G1 X148.462 Y131.215 E137.8504
G1 X176.757 Y131.215 E139.2620
G1 X177.144 Y131.612 E139.2896
G1 X148.462 Y131.612 E140.7206
G1 X148.462 Y132.008 E140.7404
G1 X177.532 Y132.008 E142.1906
G1 X177.920 Y132.404 E142.2183
G1 X148.462 Y132.404 E143.6879
G1 X148.462 Y132.800 E143.7077
G1 X177.920 Y132.800 E145.1773
G1 X177.920 Y133.196 E145.1971
G1 X148.462 Y133.196 E146.6667
G1 X148.462 Y133.593 E146.6864
G1 X177.920 Y133.593 E148.1561
G1 X177.920 Y133.989 E148.1758
G1 X148.462 Y133.989 E149.6454
G1 X148.462 Y134.385 E149.6652
G1 X177.920 Y134.385 E151.1348
G1 X177.920 Y134.781 E151.1546
G1 X148.462 Y134.781 E152.6242
G1 X148.462 Y135.178 E152.6440
G1 X177.920 Y135.178 E154.1136
G1 X177.920 Y135.574 E154.1333
G1 X148.462 Y135.574 E155.6030
G1 X148.462 Y135.970 E155.6227
G1 X177.920 Y135.970 E157.0923
G1 X177.920 Y136.366 E157.1121
G1 X148.462 Y136.366 E158.5817
G1 X148.462 Y136.762 E158.6015
G1 X177.920 Y136.762 E160.0711
G1 X177.920 Y137.159 E160.0909
G1 X148.462 Y137.159 E161.5605
G1 X148.462 Y137.555 E161.5802
G1 X177.920 Y137.555 E163.0499
G1 X177.920 Y137.951 E163.0696
G1 X148.462 Y137.951 E164.5392
G1 X148.462 Y138.347 E164.5590
G1 X177.920 Y138.347 E166.0286
G1 X177.920 Y138.744 E166.0484
G1 X148.462 Y138.744 E167.5180
G1 X148.462 Y139.140 E167.5378
G1 X177.920 Y139.140 E169.0074
G1 X177.920 Y139.536 E169.0271
G1 X148.462 Y139.536 E170.4968
G1 X148.462 Y139.932 E170.5165
G1 X177.920 Y139.932 E171.9861
G1 X177.920 Y140.328 E172.0059
G1 X148.462 Y140.328 E173.4755
G1 X148.462 Y140.725 E173.4953
G1 X177.920 Y140.725 E174.9649
G1 X177.920 Y141.121 E174.9847
G1 X148.462 Y141.121 E176.4543
G1 X148.462 Y141.517 E176.4740
G1 X177.920 Y141.517 E177.9437
G1 X177.920 Y141.913 E177.9634
G1 X148.462 Y141.913 E179.4330
G1 X148.462 Y142.310 E179.4528
G1 X177.920 Y142.310 E180.9224
G1 X177.920 Y142.706 E180.9422
G1 X148.462 Y142.706 E182.4118
G1 X148.462 Y143.102 E182.4316
G1 X177.920 Y143.102 E183.9012
G1 X177.920 Y143.498 E183.9209
G1 X148.462 Y143.498 E185.3906
G1 X148.462 Y143.894 E185.4103
G1 X177.920 Y143.894 E186.8799
G1 X177.532 Y144.291 E186.9076
G1 X148.462 Y144.291 E188.3579
G1 X148.462 Y144.687 E188.3776
G1 X177.144 Y144.687 E189.8086
G1 X176.757 Y145.083 E189.8362
G1 X148.462 Y145.083 E191.2478
G1 X148.462 Y145.479 E191.2676
G1 X176.369 Y145.479 E192.6599
G1 X175.982 Y145.876 E192.6875
G1 X148.462 Y145.876 E194.0605
G1 X148.462 Y146.272 E194.0802
G1 X163.966 Y146.272 E194.8537
G1 X163.966 Y146.668 E194.8735
G1 X148.462 Y146.668 E195.6469
G1 X148.462 Y147.064 E195.6667
G1 X163.966 Y147.064 E196.4402
G1 X163.966 Y147.460 E196.4600
G1 X148.462 Y147.460 E197.2334
G1 X148.462 Y147.857 E197.2532
G1 X163.966 Y147.857 E198.0267
G1 X163.966 Y148.253 E198.0464
G1 X148.462 Y148.253 E198.8199
G1 X148.462 Y148.649 E198.8397
G1 X163.966 Y148.649 E199.6132
G1 X163.966 Y149.045 E199.6329
G1 X148.462 Y149.045 E200.4064
G1 X148.462 Y149.442 E200.4262
G1 X163.966 Y149.442 E201.1997
G1 X163.708 Y149.838 E201.2233
G1 X148.721 Y149.838 E201.9710
G1 X149.108 Y150.234 E201.9986
G1 X163.320 Y150.234 E202.7076
G1 X162.933 Y150.630 E202.7353
G1 X149.496 Y150.630 E203.4056
G1 X149.884 Y151.026 E203.4333
G1 X162.545 Y151.026 E204.0650
G1 X162.545 Y151.423 E204.0847
G1 X149.884 Y151.423 E204.7164
G1 X149.884 Y151.819 E204.7362
G1 X162.545 Y151.819 E205.3678
G1 X162.545 Y152.215 E205.3876
G1 X149.884 Y152.215 E206.0193
G1 X149.884 Y152.611 E206.0391
G1 X162.545 Y152.611 E206.6707
G1 X162.545 Y153.008 E206.6905
G1 X149.884 Y153.008 E207.3222
G1 X149.884 Y153.404 E207.3419
G1 X162.545 Y153.404 E207.9736
G1 X162.545 Y153.800 E207.9934
G1 X149.884 Y153.800 E208.6251
G1 X149.884 Y154.196 E208.6448
G1 X162.545 Y154.196 E209.2765
G1 X162.545 Y154.592 E209.2963
G1 X149.884 Y154.592 E209.9280
G1 X149.884 Y154.989 E209.9477
G1 X162.545 Y154.989 E210.5794
G1 X162.545 Y155.385 E210.5992
G1 X149.884 Y155.385 E211.2308
G1 X149.884 Y155.781 E211.2506
G1 X162.545 Y155.781 E211.8823
G1 X162.545 Y156.177 E211.9021
G1 X149.884 Y156.177 E212.5337
G1 X149.884 Y156.574 E212.5535
G1 X162.545 Y156.574 E213.1852
G1 X162.545 Y156.970 E213.2049
G1 X149.884 Y156.970 E213.8366
G1 X149.884 Y157.366 E213.8564
G1 X162.545 Y157.366 E214.4881
G1 X162.545 Y157.762 E214.5078
G1 X149.884 Y157.762 E215.1395
G1 X149.884 Y158.158 E215.1593
G1 X162.545 Y158.158 E215.7910
G1 X162.545 Y158.555 E215.8107
G1 X149.884 Y158.555 E216.4424
G1 X149.884 Y158.951 E216.4622
G1 X162.545 Y158.951 E217.0938
G1 X162.545 Y159.347 E217.1136
G1 X149.884 Y159.347 E217.7453
G1 X150.271 Y159.743 E217.7729
G1 X162.157 Y159.743 E218.3659
G1 X161.770 Y160.140 E218.3936
G1 X150.659 Y160.140 E218.9479
G1 X151.046 Y160.536 E218.9756
G1 X161.382 Y160.536 E219.4912
G1 X160.995 Y160.932 E219.5189
G1 X151.434 Y160.932 E219.9959
G1 X151.822 Y161.328 E220.0235
G1 X160.607 Y161.328 E220.4618
G0 F4800 E219.4618
G0 X79.988 Y143.498 F10800
G0 F4800 E220.4618
G1 X64.484 Y143.498 E221.2353 F3600
G1 X64.484 Y143.894 E221.2551
G1 X79.988 Y143.894 E222.0285
G1 X79.988 Y144.291 E222.0483
G1 X64.484 Y144.291 E222.8218
G1 X64.484 Y144.687 E222.8415
G1 X79.988 Y144.687 E223.6150
G1 X79.988 Y145.083 E223.6348
G1 X64.484 Y145.083 E224.4083
G1 X64.484 Y145.479 E224.4280
G1 X79.988 Y145.479 E225.2015
G1 X79.988 Y145.876 E225.2213
G1 X64.484 Y145.876 E225.9948
G1 X64.484 Y146.272 E226.0145
G1 X79.988 Y146.272 E226.7880
G1 X79.988 Y146.668 E226.8078
G1 X64.484 Y146.668 E227.5813
G1 X64.742 Y147.064 E227.6049
G1 X79.729 Y147.064 E228.3526
G1 X79.342 Y147.460 E228.3802
G1 X65.130 Y147.460 E229.0892
G1 X65.517 Y147.857 E229.1169
G1 X78.954 Y147.857 E229.7872
G1 X78.566 Y148.253 E229.8149
G1 X65.905 Y148.253 E230.4466
G1 X65.905 Y148.649 E230.4663
G1 X78.566 Y148.649 E231.0980
G1 X78.566 Y149.045 E231.1178
G1 X65.905 Y149.045 E231.7494
G1 X65.905 Y149.442 E231.7692
G1 X78.566 Y149.442 E232.4009
G1 X78.566 Y149.838 E232.4207
G1 X65.905 Y149.838 E233.0523
G1 X65.905 Y150.234 E233.0721
G1 X78.566 Y150.234 E233.7038
G1 X78.566 Y150.630 E233.7235
G1 X65.905 Y150.630 E234.3552
G1 X65.905 Y151.026 E234.3750
G1 X78.566 Y151.026 E235.0067
G1 X78.566 Y151.423 E235.0264
G1 X65.905 Y151.423 E235.6581
G1 X65.905 Y151.819 E235.6779
G1 X78.566 Y151.819 E236.3096
G1 X78.566 Y152.215 E236.3293
G1 X65.905 Y152.215 E236.9610
G1 X65.905 Y152.611 E236.9808
G1 X78.566 Y152.611 E237.6124
G1 X78.566 Y153.008 E237.6322
G1 X65.905 Y153.008 E238.2639
G1 X65.905 Y153.404 E238.2836
G1 X78.566 Y153.404 E238.9153
G1 X78.566 Y153.800 E238.9351
G1 X65.905 Y153.800 E239.5668
G1 X65.905 Y154.196 E239.5865
G1 X78.566 Y154.196 E240.2182
G1 X78.566 Y154.592 E240.2380
G1 X65.905 Y154.592 E240.8697
G1 X65.905 Y154.989 E240.8894
G1 X78.566 Y154.989 E241.5211
G1 X78.566 Y155.385 E241.5409
G1 X65.905 Y155.385 E242.1725
G1 X65.905 Y155.781 E242.1923
G1 X78.566 Y155.781 E242.8240
G1 X78.566 Y156.177 E242.8437
G1 X65.905 Y156.177 E243.4754
G1 X65.905 Y156.574 E243.4952
G1 X78.566 Y156.574 E244.1269
G1 X78.179 Y156.970 E244.1545
G1 X66.293 Y156.970 E244.7475
G1 X66.680 Y157.366 E244.7752
G1 X77.791 Y157.366 E245.3295
G1 X77.404 Y157.762 E245.3572
G1 X67.068 Y157.762 E245.8728
G1 X67.455 Y158.158 E245.9005
G1 X77.016 Y158.158 E246.3775
G1 X76.628 Y158.555 E246.4051
G1 X67.843 Y158.555 E246.8434
G0 F4800 E245.8434
G0 X64.484 Y143.102 F10800
G0 F4800 E246.8434
G1 X92.003 Y143.102 E248.2164 F3600
G1 X92.391 Y142.706 E248.2440
G1 X64.484 Y142.706 E249.6363
G1 X64.484 Y142.310 E249.6560
G1 X92.778 Y142.310 E251.0676
G1 X93.166 Y141.913 E251.0953
G1 X64.484 Y141.913 E252.5262
G1 X64.484 Y141.517 E252.5460
G1 X93.553 Y141.517 E253.9963
G1 X93.941 Y141.121 E254.0239
G1 X64.484 Y141.121 E255.4936
G1 X64.484 Y140.725 E255.5133
G1 X93.941 Y140.725 E256.9830
G1 X93.941 Y140.328 E257.0027
G1 X64.484 Y140.328 E258.4724
G1 X64.484 Y139.932 E258.4921
G1 X93.941 Y139.932 E259.9618
G1 X93.941 Y139.536 E259.9815
G1 X64.484 Y139.536 E261.4512
G1 X64.484 Y139.140 E261.4710
G1 X93.941 Y139.140 E262.9406
G1 X94.070 Y138.744 E262.9614
G1 X64.484 Y138.744 E264.4375
G1 X64.484 Y138.347 E264.4572
G1 X94.070 Y138.347 E265.9333
G1 X94.070 Y137.951 E265.9531
G1 X64.484 Y137.951 E267.4292
G1 X64.484 Y137.555 E267.4489
G1 X94.070 Y137.555 E268.9250
G1 X94.070 Y137.159 E268.9448
G1 X64.484 Y137.159 E270.4208
G1 X64.484 Y136.762 E270.4406
G1 X94.070 Y136.762 E271.9167
G1 X94.070 Y136.366 E271.9365
G1 X64.484 Y136.366 E273.4125
G1 X64.484 Y135.970 E273.4323
G1 X94.070 Y135.970 E274.9084
G1 X94.070 Y135.574 E274.9282
G1 X64.484 Y135.574 E276.4042
G1 X64.484 Y135.178 E276.4240
G1 X94.070 Y135.178 E277.9001
G1 X94.070 Y134.781 E277.9199
G1 X64.484 Y134.781 E279.3959
G1 X64.484 Y134.385 E279.4157
G1 X94.070 Y134.385 E280.8918
G1 X94.070 Y133.989 E280.9116
G1 X64.484 Y133.989 E282.3876
G1 X64.484 Y133.593 E282.4074
G1 X94.070 Y133.593 E283.8835
G1 X94.070 Y133.196 E283.9033
G1 X64.484 Y133.196 E285.3793
G1 X64.484 Y132.800 E285.3991
G1 X93.941 Y132.800 E286.8688
G1 X93.941 Y132.404 E286.8885
G1 X64.484 Y132.404 E288.3582
G1 X64.484 Y132.008 E288.3779
G1 X93.941 Y132.008 E289.8476
G1 X93.941 Y131.612 E289.8674
G1 X64.484 Y131.612 E291.3370
G1 X64.484 Y131.215 E291.3568
G1 X93.941 Y131.215 E292.8264
G1 X93.941 Y130.819 E292.8462
G1 X64.484 Y130.819 E294.3158
G1 X64.484 Y130.423 E294.3356
G1 X93.941 Y130.423 E295.8052
G1 X93.941 Y130.027 E295.8250
G1 X64.484 Y130.027 E297.2946
G1 X64.484 Y129.630 E297.3144
G1 X93.941 Y129.630 E298.7840
G1 X93.553 Y129.234 E298.8117
G1 X64.484 Y129.234 E300.2620
G1 X64.484 Y128.838 E300.2818
G1 X93.166 Y128.838 E301.7127
G1 X92.778 Y128.442 E301.7403
G1 X64.484 Y128.442 E303.1520
G1 X64.484 Y128.046 E303.1717
G1 X92.391 Y128.046 E304.5640
G1 X92.003 Y127.649 E304.5917
G1 X64.484 Y127.649 E305.9646
G1 X64.484 Y127.253 E305.9844
G1 X79.988 Y127.253 E306.7579
G1 X79.988 Y126.857 E306.7776
G1 X64.484 Y126.857 E307.5511
G1 X64.484 Y126.461 E307.5709
G1 X79.988 Y126.461 E308.3444
G1 X79.988 Y126.064 E308.3642
G1 X64.484 Y126.064 E309.1377
G1 X64.484 Y125.668 E309.1575
G1 X79.988 Y125.668 E309.9310
G1 X79.988 Y125.272 E309.9507
G1 X64.484 Y125.272 E310.7242
G1 X64.484 Y124.876 E310.7440
G1 X79.988 Y124.876 E311.5175
G1 X79.988 Y124.480 E311.5373
G1 X64.484 Y124.480 E312.3108
G1 X64.484 Y124.083 E312.3305
G1 X79.988 Y124.083 E313.1040
G1 X79.729 Y123.687 E313.1276
G1 X64.742 Y123.687 E313.8753
G1 X65.130 Y123.291 E313.9030
G1 X79.342 Y123.291 E314.6120
G1 X78.954 Y122.895 E314.6397
G1 X65.517 Y122.895 E315.3100
G1 X65.905 Y122.498 E315.3377
G1 X78.566 Y122.498 E315.9693
G1 X78.566 Y122.102 E315.9891
G1 X65.905 Y122.102 E316.6208
G1 X65.905 Y121.706 E316.6406
G1 X78.566 Y121.706 E317.2723
G1 X78.566 Y121.310 E317.2920
G1 X65.905 Y121.310 E317.9237
G1 X65.905 Y120.914 E317.9435
G1 X78.566 Y120.914 E318.5752
G1 X78.566 Y120.517 E318.5950
G1 X65.905 Y120.517 E319.2266
G1 X65.905 Y120.121 E319.2464
G1 X78.566 Y120.121 E319.8781
G1 X78.566 Y119.725 E319.8979
G1 X65.905 Y119.725 E320.5296
G1 X65.905 Y119.329 E320.5493
G1 X78.566 Y119.329 E321.1810
G1 X78.566 Y118.932 E321.2008
G1 X65.905 Y118.932 E321.8325
G1 X65.905 Y118.536 E321.8522
G1 X78.566 Y118.536 E322.4839
G1 X78.566 Y118.140 E322.5037
G1 X65.905 Y118.140 E323.1354
G1 X65.905 Y117.744 E323.1552
G1 X78.566 Y117.744 E323.7868
G1 X78.566 Y117.348 E323.8066
G1 X65.905 Y117.348 E324.4383
G1 X65.905 Y116.951 E324.4581
G1 X78.566 Y116.951 E325.0898
G1 X78.566 Y116.555 E325.1095
G1 X65.905 Y116.555 E325.7412
G1 X65.905 Y116.159 E325.7610
G1 X78.566 Y116.159 E326.3927
G1 X78.566 Y115.763 E326.4125
G1 X65.905 Y115.763 E327.0441
G1 X65.905 Y115.366 E327.0639
G1 X78.566 Y115.366 E327.6956
G1 X78.566 Y114.970 E327.7154
G1 X65.905 Y114.970 E328.3471
G1 X65.905 Y114.574 E328.3668
G1 X78.566 Y114.574 E328.9985
G1 X78.566 Y114.178 E329.0183
G1 X65.905 Y114.178 E329.6500
G1 X66.293 Y113.782 E329.6776
G1 X78.179 Y113.782 E330.2706
G1 X77.791 Y113.385 E330.2983
G1 X66.680 Y113.385 E330.8526
G1 X67.068 Y112.989 E330.8803
G1 X77.404 Y112.989 E331.3959
G1 X77.016 Y112.593 E331.4236
G1 X67.455 Y112.593 E331.9006
G1 X67.843 Y112.197 E331.9282
G1 X76.628 Y112.197 E332.3665
G0 F4800 E331.3665
G0 X62.158 Y82.876 F10800
G0 F4800 E332.3665
G1 X71.202 Y82.876 E332.8177 F3600
G1 X71.590 Y82.480 E332.8453
G1 X61.771 Y82.480 E333.3352
G1 X61.383 Y82.084 E333.3629
G1 X71.977 Y82.084 E333.8914
G1 X72.365 Y81.688 E333.9190
G1 X60.995 Y81.688 E334.4863
G1 X60.608 Y81.292 E334.5139
G1 X72.752 Y81.292 E335.1198
G1 X73.011 Y80.895 E335.1434
G1 X60.349 Y80.895 E335.7751
G1 X60.349 Y80.499 E335.7949
G1 X73.011 Y80.499 E336.4266
G1 X73.011 Y80.103 E336.4463
G1 X60.349 Y80.103 E337.0780
G1 X60.349 Y79.707 E337.0978
G1 X73.011 Y79.707 E337.7295
G1 X73.011 Y79.310 E337.7492
G1 X60.349 Y79.310 E338.3809
G1 X60.349 Y78.914 E338.4007
G1 X73.011 Y78.914 E339.0324
G1 X73.011 Y78.518 E339.0522
G1 X60.349 Y78.518 E339.6839
G1 X60.349 Y78.122 E339.7036
G1 X73.011 Y78.122 E340.3353
G1 X73.011 Y77.726 E340.3551
G1 X60.349 Y77.726 E340.9868
G1 X60.349 Y77.329 E341.0065
G1 X73.011 Y77.329 E341.6382
G1 X73.011 Y76.933 E341.6580
G1 X60.349 Y76.933 E342.2897
G1 X60.349 Y76.537 E342.3095
G1 X73.011 Y76.537 E342.9411
G1 X73.011 Y76.141 E342.9609
G1 X60.349 Y76.141 E343.5926
G1 X60.349 Y75.744 E343.6124
G1 X73.011 Y75.744 E344.2441
G1 X73.011 Y75.348 E344.2638
G1 X60.349 Y75.348 E344.8955
G1 X60.349 Y74.952 E344.9153
G1 X73.011 Y74.952 E345.5470
G1 X73.011 Y74.556 E345.5668
G1 X60.349 Y74.556 E346.1984
G1 X60.349 Y74.160 E346.2182
G1 X73.011 Y74.160 E346.8499
G1 X73.269 Y73.763 E346.8735
G1 X60.091 Y73.763 E347.5310
G1 X59.703 Y73.367 E347.5586
G1 X73.657 Y73.367 E348.2547
G1 X74.044 Y72.971 E348.2824
G1 X59.316 Y72.971 E349.0172
G1 X58.928 Y72.575 E349.0448
G1 X74.432 Y72.575 E349.8183
G1 X74.432 Y72.178 E349.8381
G1 X58.928 Y72.178 E350.6116
G1 X58.928 Y71.782 E350.6314
G1 X74.432 Y71.782 E351.4049
G1 X74.432 Y71.386 E351.4247
G1 X58.928 Y71.386 E352.1982
G1 X58.928 Y70.990 E352.2179
G1 X74.432 Y70.990 E352.9914
G1 X74.432 Y70.594 E353.0112
G1 X58.928 Y70.594 E353.7847
G1 X58.928 Y70.197 E353.8045
G1 X74.432 Y70.197 E354.5780
G1 X74.432 Y69.801 E354.5978
G1 X58.928 Y69.801 E355.3713
G1 X58.928 Y69.405 E355.3910
G1 X74.432 Y69.405 E356.1645
G0 F4800 E355.1645
G0 X58.928 Y69.009 F10800
G0 F4800 E356.1645
G1 X78.050 Y69.009 E357.1185 F3600
G1 X78.437 Y68.612 E357.1462
G1 X58.928 Y68.612 E358.1195
G1 X58.928 Y68.216 E358.1392
G1 X78.825 Y68.216 E359.1319
G1 X79.212 Y67.820 E359.1595
G1 X58.928 Y67.820 E360.1715
G1 X58.928 Y67.424 E360.1913
G1 X86.577 Y67.424 E361.5707
G1 X86.964 Y67.028 E361.5983
G1 X58.928 Y67.028 E362.9970
G1 X58.928 Y66.631 E363.0168
G1 X87.352 Y66.631 E364.4349
G1 X87.739 Y66.235 E364.4625
G1 X58.928 Y66.235 E365.8999
G1 X58.928 Y65.839 E365.9197
G1 X88.127 Y65.839 E367.3764
G1 X88.385 Y65.443 E367.4000
G1 X58.928 Y65.443 E368.8696
G1 X58.928 Y65.046 E368.8894
G1 X88.385 Y65.046 E370.3591
G1 X88.385 Y64.650 E370.3788
G1 X58.928 Y64.650 E371.8485
G1 X58.928 Y64.254 E371.8682
G1 X88.385 Y64.254 E373.3379
G1 X88.644 Y63.858 E373.3615
G1 X58.928 Y63.858 E374.8440
G1 X58.928 Y63.462 E374.8638
G1 X89.031 Y63.462 E376.3656
G1 X89.031 Y63.065 E376.3854
G1 X58.928 Y63.065 E377.8873
G1 X58.928 Y62.669 E377.9070
G1 X89.031 Y62.669 E379.4089
G1 X89.031 Y62.273 E379.4287
G1 X58.928 Y62.273 E380.9305
G1 X58.928 Y61.877 E380.9503
G1 X89.031 Y61.877 E382.4522
G1 X89.031 Y61.480 E382.4719
G1 X58.928 Y61.480 E383.9738
G1 X58.928 Y61.084 E383.9936
G1 X89.031 Y61.084 E385.4954
G1 X89.031 Y60.688 E385.5152
G1 X58.928 Y60.688 E387.0171
G1 X58.928 Y60.292 E387.0368
G1 X89.031 Y60.292 E388.5387
G1 X89.031 Y59.896 E388.5585
G1 X58.928 Y59.896 E390.0603
G1 X58.928 Y59.499 E390.0801
G1 X89.031 Y59.499 E391.5820
G1 X89.031 Y59.103 E391.6018
G1 X58.928 Y59.103 E393.1036
G1 X58.928 Y58.707 E393.1234
G1 X89.031 Y58.707 E394.6253
G1 X89.031 Y58.311 E394.6450
G1 X58.928 Y58.311 E396.1469
G1 X58.928 Y57.914 E396.1667
G1 X89.031 Y57.914 E397.6685
G1 X88.902 Y57.518 E397.6893
G1 X58.928 Y57.518 E399.1847
G1 X58.928 Y57.122 E399.2045
G1 X88.515 Y57.122 E400.6806
G1 X88.385 Y56.726 E400.7013
G1 X58.928 Y56.726 E402.1710
G1 X58.928 Y56.330 E402.1907
G1 X88.385 Y56.330 E403.6604
G1 X88.385 Y55.933 E403.6802
G1 X58.928 Y55.933 E405.1498
G1 X58.928 Y55.537 E405.1696
G1 X88.385 Y55.537 E406.6392
G1 X87.998 Y55.141 E406.6669
G1 X58.928 Y55.141 E408.1171
G1 X58.928 Y54.745 E408.1369
G1 X87.610 Y54.745 E409.5679
G1 X87.223 Y54.348 E409.5955
G1 X58.928 Y54.348 E411.0071
G1 X58.928 Y53.952 E411.0269
G1 X86.835 Y53.952 E412.4192
G1 X86.447 Y53.556 E412.4468
G1 X58.928 Y53.556 E413.8197
G1 X58.928 Y53.160 E413.8395
G1 X74.432 Y53.160 E414.6130
G1 X74.432 Y52.764 E414.6328
G1 X58.928 Y52.764 E415.4063
G1 X58.928 Y52.367 E415.4261
G1 X74.432 Y52.367 E416.1996
G1 X74.432 Y51.971 E416.2193
G1 X58.928 Y51.971 E416.9928
G1 X58.928 Y51.575 E417.0126
G1 X74.432 Y51.575 E417.7861
G1 X74.432 Y51.179 E417.8059
G1 X58.928 Y51.179 E418.5794
G1 X58.928 Y50.783 E418.5992
G1 X74.432 Y50.783 E419.3727
G1 X74.432 Y50.386 E419.3924
G1 X58.928 Y50.386 E420.1659
G1 X58.928 Y49.990 E420.1857
G1 X74.432 Y49.990 E420.9592
G1 X74.432 Y49.594 E420.9790
G1 X58.928 Y49.594 E421.7525
G1 X58.928 Y49.198 E421.7723
G1 X74.432 Y49.198 E422.5458
G1 X74.432 Y48.801 E422.5655
G1 X58.928 Y48.801 E423.3390
G1 X58.928 Y48.405 E423.3588
G1 X74.432 Y48.405 E424.1323
G1 X74.044 Y48.009 E424.1600
G1 X59.316 Y48.009 E424.8948
G1 X59.703 Y47.613 E424.9224
G1 X73.657 Y47.613 E425.6186
G1 X73.269 Y47.217 E425.6462
G1 X60.091 Y47.217 E426.3037
G1 X60.349 Y46.820 E426.3273
G1 X73.011 Y46.820 E426.9589
G1 X73.011 Y46.424 E426.9787
G1 X60.349 Y46.424 E427.6104
G1 X60.349 Y46.028 E427.6302
G1 X73.011 Y46.028 E428.2619
G1 X73.011 Y45.632 E428.2816
G1 X60.349 Y45.632 E428.9133
G1 X60.349 Y45.235 E428.9331
G1 X73.011 Y45.235 E429.5648
G1 X73.011 Y44.839 E429.5846
G1 X60.349 Y44.839 E430.2162
G1 X60.349 Y44.443 E430.2360
G1 X73.011 Y44.443 E430.8677
G1 X73.011 Y44.047 E430.8875
G1 X60.349 Y44.047 E431.5192
G1 X60.349 Y43.651 E431.5389
G1 X73.011 Y43.651 E432.1706
G1 X73.011 Y43.254 E432.1904
G1 X60.349 Y43.254 E432.8221
G1 X60.349 Y42.858 E432.8419
G1 X73.011 Y42.858 E433.4735
G1 X73.011 Y42.462 E433.4933
G1 X60.349 Y42.462 E434.1250
G1 X60.349 Y42.066 E434.1448
G1 X73.011 Y42.066 E434.7765
G1 X73.011 Y41.669 E434.7962
G1 X60.349 Y41.669 E435.4279
G1 X60.349 Y41.273 E435.4477
G1 X73.011 Y41.273 E436.0794
G1 X73.011 Y40.877 E436.0991
G1 X60.349 Y40.877 E436.7308
G1 X60.349 Y40.481 E436.7506
G1 X73.011 Y40.481 E437.3823
G1 X73.011 Y40.085 E437.4021
G1 X60.349 Y40.085 E438.0337
G1 X60.737 Y39.688 E438.0614
G1 X72.623 Y39.688 E438.6544
G1 X72.236 Y39.292 E438.6821
G1 X61.125 Y39.292 E439.2364
G1 X61.512 Y38.896 E439.2640
G1 X71.848 Y38.896 E439.7797
G1 X71.460 Y38.500 E439.8073
G1 X61.900 Y38.500 E440.2843
G1 X62.287 Y38.103 E440.3120
G1 X71.073 Y38.103 E440.7503



; ------------------------------------
; Raft Layer #4
; ------------------------------------
G21 ; mm
G90 ; abs
G92 E0 ; reset extr
M106 S255
;segType:Raft
G0 F4800 E-1.0000
G0 F300 Z1.500
G0 X74.194 Y48.124 F10800
G0 F4800 E0.0000
G1 X74.194 Y72.929 E1.2375 F3600
G1 X73.806 Y73.325 E1.2652
G1 X73.806 Y47.728 E2.5422
G1 X73.418 Y47.332 E2.5699
G1 X73.418 Y73.721 E3.8864
G0 F4800 E2.8864
G0 X74.582 Y69.103 F10800
G0 F4800 E3.8864
G1 X74.582 Y53.534 E4.6631 F3600
G1 X74.970 Y53.534 E4.6825
G1 X74.970 Y69.103 E5.4592
G1 X75.358 Y69.103 E5.4786
G1 X75.358 Y53.534 E6.2553
G1 X75.745 Y53.534 E6.2747
G1 X75.745 Y69.103 E7.0515
G1 X76.133 Y69.103 E7.0708
G1 X76.133 Y53.534 E7.8476
G1 X76.521 Y53.534 E7.8669
G1 X76.521 Y69.103 E8.6437
G1 X76.909 Y69.103 E8.6630
G1 X76.909 Y53.534 E9.4398
G1 X77.297 Y53.534 E9.4591
G1 X77.297 Y69.103 E10.2359
G1 X77.685 Y69.103 E10.2552
G1 X77.685 Y53.534 E11.0320
G1 X78.073 Y53.534 E11.0513
G1 X78.073 Y69.103 E11.8281
G1 X78.461 Y68.707 E11.8557
G1 X78.461 Y53.534 E12.6127
G1 X78.849 Y53.534 E12.6321
G1 X78.849 Y68.311 E13.3693
G1 X79.237 Y67.915 E13.3970
G1 X79.237 Y53.534 E14.1145
G1 X79.625 Y53.534 E14.1339
G1 X79.625 Y67.652 E14.8382
G1 X80.013 Y67.652 E14.8576
G1 X80.013 Y53.534 E15.5619
G1 X80.401 Y53.534 E15.5813
G1 X80.401 Y67.652 E16.2856
G1 X80.789 Y67.652 E16.3049
G1 X80.789 Y53.534 E17.0093
G1 X81.177 Y53.534 E17.0286
G1 X81.177 Y67.652 E17.7330
G1 X81.565 Y67.652 E17.7523
G1 X81.565 Y53.534 E18.4567
G1 X81.953 Y53.534 E18.4760
G1 X81.953 Y67.652 E19.1804
G1 X82.341 Y67.652 E19.1997
G1 X82.341 Y53.534 E19.9041
G1 X82.729 Y53.534 E19.9234
G1 X82.729 Y67.652 E20.6278
G1 X83.117 Y67.652 E20.6471
G1 X83.117 Y53.534 E21.3515
G1 X83.505 Y53.534 E21.3708
G1 X83.505 Y67.652 E22.0752
G1 X83.893 Y67.652 E22.0945
G1 X83.893 Y53.534 E22.7989
G1 X84.281 Y53.534 E22.8182
G1 X84.281 Y67.652 E23.5225
G1 X84.669 Y67.652 E23.5419
G1 X84.669 Y53.534 E24.2462
G1 X85.057 Y53.534 E24.2656
G1 X85.057 Y67.652 E24.9699
G1 X85.445 Y67.652 E24.9893
G1 X85.445 Y53.534 E25.6936
G1 X85.833 Y53.534 E25.7130
G1 X85.833 Y67.652 E26.4173
G1 X86.221 Y67.652 E26.4367
G1 X86.221 Y53.534 E27.1410
G1 X86.609 Y53.666 E27.1615
G1 X86.609 Y67.520 E27.8526
G1 X86.997 Y67.124 E27.8803
G1 X86.997 Y54.062 E28.5320
G1 X87.385 Y54.457 E28.5596
G1 X87.385 Y66.728 E29.1718
G1 X87.773 Y66.332 E29.1995
G1 X87.773 Y54.853 E29.7722
G1 X88.161 Y55.249 E29.7998
G1 X88.161 Y65.936 E30.3330
G1 X88.549 Y64.089 E30.4272
G1 X88.549 Y57.096 E30.7760
G1 X88.937 Y57.492 E30.8037
G1 X88.937 Y63.693 E31.1131
G0 F4800 E30.1131
G0 X73.030 Y81.110 F10800
G0 F4800 E31.1131
G1 X73.030 Y40.076 E33.1603 F3600
G1 X72.642 Y39.680 E33.1879
G1 X72.642 Y81.505 E35.2746
G1 X72.254 Y81.901 E35.3023
G1 X72.254 Y39.284 E37.4284
G1 X71.866 Y38.888 E37.4561
G1 X71.866 Y82.297 E39.6218
G1 X71.478 Y82.693 E39.6494
G1 X71.478 Y38.492 E41.8546
G1 X71.090 Y38.097 E41.8823
G1 X71.090 Y83.089 E44.1269
G1 X70.702 Y83.089 E44.1463
G1 X70.702 Y38.097 E46.3910
G1 X70.314 Y38.097 E46.4103
G1 X70.314 Y83.089 E48.6550
G1 X69.926 Y83.089 E48.6743
G1 X69.926 Y38.097 E50.9190
G1 X69.538 Y38.097 E50.9384
G1 X69.538 Y83.089 E53.1830
G1 X69.150 Y83.089 E53.2024
G1 X69.150 Y38.097 E55.4471
G1 X68.762 Y38.097 E55.4664
G1 X68.762 Y83.089 E57.7111
G1 X68.374 Y83.089 E57.7305
G1 X68.374 Y38.097 E59.9751
G1 X67.986 Y38.097 E59.9945
G1 X67.986 Y83.089 E62.2392
G1 X67.598 Y83.089 E62.2585
G1 X67.598 Y38.097 E64.5032
G1 X67.210 Y38.097 E64.5225
G1 X67.210 Y83.089 E66.7672
G1 X66.822 Y83.089 E66.7866
G1 X66.822 Y38.097 E69.0312
G1 X66.434 Y38.097 E69.0506
G1 X66.434 Y83.089 E71.2953
G1 X66.046 Y83.089 E71.3146
G1 X66.046 Y38.097 E73.5593
G1 X65.658 Y38.097 E73.5787
G1 X65.658 Y83.089 E75.8233
G1 X65.270 Y83.089 E75.8427
G1 X65.270 Y38.097 E78.0874
G1 X64.882 Y38.097 E78.1067
G1 X64.882 Y83.089 E80.3514
G1 X64.494 Y83.089 E80.3707
G1 X64.494 Y38.097 E82.6154
G1 X64.106 Y38.097 E82.6348
G1 X64.106 Y83.089 E84.8795
G1 X63.718 Y83.089 E84.8988
G1 X63.718 Y38.097 E87.1435
G1 X63.330 Y38.097 E87.1628
G1 X63.330 Y83.089 E89.4075
G1 X62.942 Y83.089 E89.4269
G1 X62.942 Y38.097 E91.6715
G1 X62.554 Y38.097 E91.6909
G1 X62.554 Y83.089 E93.9356
G1 X62.166 Y82.825 E93.9590
G1 X62.166 Y38.360 E96.1773
G1 X61.778 Y38.756 E96.2050
G1 X61.778 Y82.429 E98.3838
G1 X61.390 Y82.033 E98.4115
G1 X61.390 Y39.152 E100.5508
G1 X61.002 Y39.548 E100.5785
G1 X61.002 Y81.637 E102.6783
G1 X60.614 Y81.242 E102.7060
G1 X60.614 Y39.944 E104.7663
G0 F4800 E103.7663
G0 X59.062 Y72.665 F10800
G0 F4800 E104.7663
G1 X59.062 Y48.388 E105.9775 F3600
G1 X59.450 Y47.992 E106.0052
G1 X59.450 Y73.061 E107.2559
G1 X59.838 Y73.457 E107.2835
G1 X59.838 Y47.596 E108.5737
G1 X60.226 Y47.201 E108.6014
G1 X60.226 Y73.853 E109.9311
G0 F4800 E108.9311
G0 X78.461 Y114.095 F10800
G0 F4800 E109.9311
G1 X78.461 Y156.844 E112.0638 F3600
G1 X78.073 Y157.240 E112.0915
G1 X78.073 Y113.699 E114.2637
G1 X77.685 Y113.304 E114.2914
G1 X77.685 Y157.636 E116.5031
G1 X77.297 Y158.032 E116.5308
G1 X77.297 Y112.908 E118.7820
G1 X76.909 Y112.512 E118.8097
G1 X76.909 Y158.428 E121.1004
G1 X76.521 Y158.692 E121.1238
G1 X76.521 Y112.248 E123.4409
G1 X76.133 Y112.248 E123.4603
G1 X76.133 Y158.692 E125.7774
G1 X75.745 Y158.692 E125.7967
G1 X75.745 Y112.248 E128.1138
G1 X75.358 Y112.248 E128.1332
G1 X75.358 Y158.692 E130.4502
G1 X74.970 Y158.692 E130.4696
G1 X74.970 Y112.248 E132.7867
G1 X74.582 Y112.248 E132.8060
G1 X74.582 Y158.692 E135.1231
G1 X74.194 Y158.692 E135.1425
G1 X74.194 Y112.248 E137.4596
G1 X73.806 Y112.248 E137.4789
G1 X73.806 Y158.692 E139.7960
G1 X73.418 Y158.692 E139.8154
G1 X73.418 Y112.248 E142.1324
G1 X73.030 Y112.248 E142.1518
G1 X73.030 Y158.692 E144.4689
G1 X72.642 Y158.692 E144.4882
G1 X72.642 Y112.248 E146.8053
G1 X72.254 Y112.248 E146.8247
G1 X72.254 Y158.692 E149.1418
G1 X71.866 Y158.692 E149.1611
G1 X71.866 Y112.248 E151.4782
G1 X71.478 Y112.248 E151.4976
G1 X71.478 Y158.692 E153.8146
G1 X71.090 Y158.692 E153.8340
G1 X71.090 Y112.248 E156.1511
G1 X70.702 Y112.248 E156.1704
G1 X70.702 Y158.692 E158.4875
G1 X70.314 Y158.692 E158.5069
G1 X70.314 Y112.248 E160.8240
G1 X69.926 Y112.248 E160.8433
G1 X69.926 Y158.692 E163.1604
G1 X69.538 Y158.692 E163.1798
G1 X69.538 Y112.248 E165.4968
G1 X69.150 Y112.248 E165.5162
G1 X69.150 Y158.692 E167.8333
G1 X68.762 Y158.692 E167.8527
G1 X68.762 Y112.248 E170.1697
G1 X68.374 Y112.248 E170.1891
G1 X68.374 Y158.692 E172.5062
G1 X67.986 Y158.692 E172.5255
G1 X67.986 Y112.248 E174.8426
G1 X67.598 Y112.644 E174.8703
G1 X67.598 Y158.296 E177.1478
G1 X67.210 Y157.900 E177.1755
G1 X67.210 Y113.040 E179.4136
G1 X66.822 Y113.435 E179.4412
G1 X66.822 Y157.504 E181.6398
G1 X66.434 Y157.108 E181.6675
G1 X66.434 Y113.831 E183.8266
G1 X66.046 Y114.227 E183.8542
G1 X66.046 Y156.712 E185.9738
G0 F4800 E184.9738
G0 X65.658 Y148.004 F10800
G0 F4800 E185.9738
G1 X65.658 Y122.935 E187.2245 F3600
G1 X65.270 Y123.331 E187.2522
G1 X65.270 Y147.608 E188.4634
G1 X64.882 Y147.213 E188.4910
G1 X64.882 Y123.727 E189.6627
G0 F4800 E188.6627
G0 X80.401 Y143.254 F10800
G0 F4800 E189.6627
G1 X80.401 Y127.685 E190.4395 F3600
G1 X80.789 Y127.685 E190.4588
G1 X80.789 Y143.254 E191.2356
G1 X81.177 Y143.254 E191.2550
G1 X81.177 Y127.685 E192.0317
G1 X81.565 Y127.685 E192.0511
G1 X81.565 Y143.254 E192.8278
G1 X81.953 Y143.254 E192.8472
G1 X81.953 Y127.685 E193.6239
G1 X82.341 Y127.685 E193.6433
G1 X82.341 Y143.254 E194.4200
G1 X82.729 Y143.254 E194.4394
G1 X82.729 Y127.685 E195.2161
G1 X83.117 Y127.685 E195.2355
G1 X83.117 Y143.254 E196.0123
G1 X83.505 Y143.254 E196.0316
G1 X83.505 Y127.685 E196.8084
G1 X83.893 Y127.685 E196.8277
G1 X83.893 Y143.254 E197.6045
G1 X84.281 Y143.254 E197.6238
G1 X84.281 Y127.685 E198.4006
G1 X84.669 Y127.685 E198.4200
G1 X84.669 Y143.254 E199.1967
G1 X85.057 Y143.254 E199.2161
G1 X85.057 Y127.685 E199.9928
G1 X85.445 Y127.685 E200.0122
G1 X85.445 Y143.254 E200.7889
G1 X85.833 Y143.254 E200.8083
G1 X85.833 Y127.685 E201.5850
G1 X86.221 Y127.685 E201.6044
G1 X86.221 Y143.254 E202.3812
G1 X86.609 Y143.254 E202.4005
G1 X86.609 Y127.685 E203.1773
G1 X86.997 Y127.685 E203.1966
G1 X86.997 Y143.254 E203.9734
G1 X87.385 Y143.254 E203.9927
G1 X87.385 Y127.685 E204.7695
G1 X87.773 Y127.685 E204.7889
G1 X87.773 Y143.254 E205.5656
G1 X88.161 Y143.254 E205.5850
G1 X88.161 Y127.685 E206.3617
G1 X88.549 Y127.685 E206.3811
G1 X88.549 Y143.254 E207.1578
G1 X88.937 Y143.254 E207.1772
G1 X88.937 Y127.685 E207.9539
G1 X89.325 Y127.685 E207.9733
G1 X89.325 Y143.254 E208.7501
G1 X89.713 Y143.254 E208.7694
G1 X89.713 Y127.685 E209.5462
G1 X90.101 Y127.685 E209.5655
G1 X90.101 Y143.254 E210.3423
G1 X90.489 Y143.254 E210.3616
G1 X90.489 Y127.685 E211.1384
G1 X90.877 Y127.685 E211.1578
G1 X90.877 Y143.254 E211.9345
G1 X91.265 Y143.254 E211.9539
G1 X91.265 Y127.685 E212.7306
G1 X91.653 Y127.685 E212.7500
G1 X91.653 Y143.254 E213.5267
G1 X92.041 Y143.254 E213.5461
G1 X92.041 Y127.685 E214.3228
G1 X92.429 Y128.081 E214.3505
G1 X92.429 Y142.859 E215.0878
G1 X92.817 Y142.463 E215.1154
G1 X92.817 Y128.477 E215.8132
G1 X93.205 Y128.873 E215.8408
G1 X93.205 Y142.067 E216.4991
G1 X93.593 Y141.671 E216.5267
G1 X93.593 Y129.268 E217.1455
G1 X93.981 Y129.664 E217.1731
G1 X93.981 Y141.275 E217.7524
G0 F4800 E216.7524
G0 X80.013 Y146.949 F10800
G0 F4800 E217.7524
G1 X80.013 Y123.991 E218.8978 F3600
G1 X79.625 Y123.595 E218.9254
G1 X79.625 Y147.345 E220.1103
G1 X79.237 Y147.740 E220.1379
G1 X79.237 Y123.199 E221.3623
G1 X78.849 Y122.803 E221.3900
G1 X78.849 Y148.136 E222.6538
G0 F4800 E221.6538
G0 X148.686 Y126.762 F10800
G0 F4800 E222.6538
G1 X148.686 Y149.851 E223.8058 F3600
G1 X149.074 Y150.247 E223.8334
G1 X149.074 Y126.366 E225.0249
G1 X149.462 Y125.970 E225.0525
G1 X149.462 Y150.643 E226.2835
G1 X149.850 Y151.039 E226.3111
G1 X149.850 Y125.574 E227.5816
G0 F4800 E226.5816
G0 X150.238 Y116.734 F10800
G0 F4800 E227.5816
G1 X150.238 Y159.747 E229.7275 F3600
G1 X150.626 Y160.143 E229.7551
G1 X150.626 Y116.338 E231.9406
G1 X151.014 Y115.942 E231.9682
G1 X151.014 Y160.539 E234.1931
G1 X151.402 Y160.935 E234.2208
G1 X151.402 Y115.547 E236.4852
G1 X151.790 Y115.151 E236.5129
G1 X151.790 Y161.330 E238.8168
G1 X152.178 Y161.462 E238.8372
G1 X152.178 Y115.019 E241.1543
G1 X152.566 Y115.019 E241.1737
G1 X152.566 Y161.462 E243.4907
G1 X152.954 Y161.462 E243.5101
G1 X152.954 Y115.019 E245.8272
G1 X153.342 Y115.019 E245.8465
G1 X153.342 Y161.462 E248.1636
G1 X153.730 Y161.462 E248.1830
G1 X153.730 Y115.019 E250.5001
G1 X154.118 Y115.019 E250.5194
G1 X154.118 Y161.462 E252.8365
G1 X154.506 Y161.462 E252.8559
G1 X154.506 Y115.019 E255.1729
G1 X154.894 Y115.019 E255.1923
G1 X154.894 Y161.462 E257.5094
G1 X155.281 Y161.462 E257.5287
G1 X155.281 Y115.019 E259.8458
G1 X155.669 Y115.019 E259.8652
G1 X155.669 Y161.462 E262.1822
G1 X156.057 Y161.462 E262.2016
G1 X156.057 Y115.019 E264.5187
G1 X156.445 Y115.019 E264.5380
G1 X156.445 Y161.462 E266.8551
G1 X156.833 Y161.462 E266.8744
G1 X156.833 Y115.019 E269.1915
G1 X157.221 Y115.019 E269.2109
G1 X157.221 Y161.462 E271.5279
G1 X157.609 Y161.462 E271.5473
G1 X157.609 Y115.019 E273.8644
G1 X157.997 Y115.019 E273.8837
G1 X157.997 Y161.462 E276.2008
G1 X158.385 Y161.462 E276.2201
G1 X158.385 Y115.019 E278.5372
G1 X158.773 Y115.019 E278.5566
G1 X158.773 Y161.462 E280.8736
G1 X159.161 Y161.462 E280.8930
G1 X159.161 Y115.019 E283.2101
G1 X159.549 Y115.019 E283.2294
G1 X159.549 Y161.462 E285.5465
G1 X159.937 Y161.462 E285.5658
G1 X159.937 Y115.019 E287.8829
G1 X160.325 Y115.019 E287.9023
G1 X160.325 Y161.462 E290.2193
G1 X160.713 Y161.330 E290.2398
G1 X160.713 Y115.151 E292.5437
G1 X161.101 Y115.547 E292.5714
G1 X161.101 Y160.935 E294.8358
G1 X161.489 Y160.539 E294.8634
G1 X161.489 Y115.942 E297.0883
G1 X161.877 Y116.338 E297.1160
G1 X161.877 Y160.143 E299.3014
G1 X162.265 Y159.747 E299.3291
G1 X162.265 Y116.734 E301.4750
G0 F4800 E300.4750
G0 X162.653 Y125.574 F10800
G0 F4800 E301.4750
G1 X162.653 Y151.039 E302.7454 F3600
G1 X163.041 Y150.643 E302.7731
G1 X163.041 Y125.970 E304.0040
G1 X163.429 Y126.366 E304.0317
G1 X163.429 Y150.247 E305.2232
G1 X163.817 Y149.851 E305.2508
G1 X163.817 Y126.762 E306.4028
G0 F4800 E305.4028
G0 X164.205 Y130.456 F10800
G0 F4800 E306.4028
G1 X164.205 Y146.025 E307.1795 F3600
G1 X164.593 Y146.025 E307.1988
G1 X164.593 Y130.456 E307.9756
G1 X164.981 Y130.456 E307.9949
G1 X164.981 Y146.025 E308.7716
G1 X165.369 Y146.025 E308.7910
G1 X165.369 Y130.456 E309.5677
G1 X165.757 Y130.456 E309.5871
G1 X165.757 Y146.025 E310.3638
G1 X166.145 Y146.025 E310.3832
G1 X166.145 Y130.456 E311.1599
G1 X166.533 Y130.456 E311.1792
G1 X166.533 Y146.025 E311.9560
G1 X166.921 Y146.025 E311.9753
G1 X166.921 Y130.456 E312.7521
G1 X167.309 Y130.456 E312.7714
G1 X167.309 Y146.025 E313.5481
G1 X167.697 Y146.025 E313.5675
G1 X167.697 Y130.456 E314.3442
G1 X168.085 Y130.456 E314.3636
G1 X168.085 Y146.025 E315.1403
G1 X168.473 Y146.025 E315.1596
G1 X168.473 Y130.456 E315.9364
G1 X168.861 Y130.456 E315.9557
G1 X168.861 Y146.025 E316.7325
G1 X169.249 Y146.025 E316.7518
G1 X169.249 Y130.456 E317.5285
G1 X169.637 Y130.456 E317.5479
G1 X169.637 Y146.025 E318.3246
G1 X170.025 Y146.025 E318.3440
G1 X170.025 Y130.456 E319.1207
G1 X170.413 Y130.456 E319.1401
G1 X170.413 Y146.025 E319.9168
G1 X170.801 Y146.025 E319.9361
G1 X170.801 Y130.456 E320.7129
G1 X171.189 Y130.456 E320.7322
G1 X171.189 Y146.025 E321.5090
G1 X171.577 Y146.025 E321.5283
G1 X171.577 Y130.456 E322.3050
G1 X171.965 Y130.456 E322.3244
G1 X171.965 Y146.025 E323.1011
G1 X172.353 Y146.025 E323.1205
G1 X172.353 Y130.456 E323.8972
G1 X172.741 Y130.456 E323.9165
G1 X172.741 Y146.025 E324.6933
G1 X173.129 Y146.025 E324.7126
G1 X173.129 Y130.456 E325.4894
G1 X173.517 Y130.456 E325.5087
G1 X173.517 Y146.025 E326.2854
G1 X173.905 Y146.025 E326.3048
G1 X173.905 Y130.456 E327.0815
G1 X174.293 Y130.456 E327.1009
G1 X174.293 Y146.025 E327.8776
G1 X174.680 Y146.025 E327.8970
G1 X174.680 Y130.456 E328.6737
G1 X175.068 Y130.456 E328.6930
G1 X175.068 Y146.025 E329.4698
G1 X175.456 Y146.025 E329.4891
G1 X175.456 Y130.456 E330.2659
G1 X175.844 Y130.456 E330.2852
G1 X175.844 Y146.025 E331.0619
G1 X176.232 Y145.761 E331.0853
G1 X176.232 Y130.720 E331.8358
G1 X176.620 Y131.116 E331.8634
G1 X176.620 Y145.365 E332.5744
G1 X177.008 Y144.970 E332.6020
G1 X177.008 Y131.512 E333.2734
G1 X177.396 Y131.907 E333.3011
G1 X177.396 Y144.574 E333.9330
G1 X177.784 Y144.178 E333.9606
G1 X177.784 Y132.303 E334.5531
G0 F4800 E333.5531
G0 X151.402 Y76.888 F10800
G0 F4800 E334.5531
G1 X151.402 Y35.854 E336.6003 F3600
G1 X151.790 Y35.458 E336.6279
G1 X151.790 Y77.283 E338.7146
G1 X152.178 Y77.679 E338.7423
G1 X152.178 Y35.062 E340.8685
G1 X152.566 Y34.666 E340.8961
G1 X152.566 Y78.075 E343.0618
G1 X152.954 Y78.471 E343.0894
G1 X152.954 Y34.270 E345.2946
G1 X153.342 Y33.874 E345.3222
G1 X153.342 Y78.867 E347.5669
G1 X153.730 Y78.867 E347.5863
G1 X153.730 Y33.874 E349.8309
G1 X154.118 Y33.874 E349.8503
G1 X154.118 Y78.867 E352.0949
G1 X154.506 Y78.867 E352.1143
G1 X154.506 Y33.874 E354.3589
G1 X154.894 Y33.874 E354.3783
G1 X154.894 Y78.867 E356.6229
G1 X155.281 Y78.867 E356.6423
G1 X155.281 Y33.874 E358.8869
G1 X155.669 Y33.874 E358.9063
G1 X155.669 Y78.867 E361.1510
G1 X156.057 Y78.867 E361.1703
G1 X156.057 Y33.874 E363.4150
G1 X156.445 Y33.874 E363.4343
G1 X156.445 Y78.867 E365.6790
G1 X156.833 Y78.867 E365.6983
G1 X156.833 Y33.874 E367.9430
G1 X157.221 Y33.874 E367.9623
G1 X157.221 Y78.867 E370.2070
G1 X157.609 Y78.867 E370.2263
G1 X157.609 Y33.874 E372.4710
G1 X157.997 Y33.874 E372.4903
G1 X157.997 Y78.867 E374.7350
G1 X158.385 Y78.867 E374.7543
G1 X158.385 Y33.874 E376.9990
G1 X158.773 Y33.874 E377.0184
G1 X158.773 Y78.867 E379.2630
G1 X159.161 Y78.867 E379.2824
G1 X159.161 Y33.874 E381.5270
G1 X159.549 Y33.874 E381.5464
G1 X159.549 Y78.867 E383.7910
G1 X159.937 Y78.867 E383.8104
G1 X159.937 Y33.874 E386.0550
G1 X160.325 Y33.874 E386.0744
G1 X160.325 Y78.867 E388.3190
G1 X160.713 Y78.867 E388.3384
G1 X160.713 Y33.874 E390.5831
G1 X161.101 Y33.874 E390.6024
G1 X161.101 Y78.867 E392.8471
G1 X161.489 Y78.867 E392.8664
G1 X161.489 Y33.874 E395.1111
G1 X161.877 Y33.874 E395.1304
G1 X161.877 Y78.867 E397.3751
G1 X162.265 Y78.603 E397.3985
G1 X162.265 Y34.138 E399.6168
G1 X162.653 Y34.534 E399.6445
G1 X162.653 Y78.207 E401.8233
G1 X163.041 Y77.811 E401.8510
G1 X163.041 Y34.930 E403.9903
G1 X163.429 Y35.326 E404.0180
G1 X163.429 Y77.415 E406.1178
G1 X163.817 Y77.019 E406.1455
G1 X163.817 Y35.722 E408.2058
G0 F4800 E407.2058
G0 X151.014 Y43.242 F10800
G0 F4800 E408.2058
G1 X151.014 Y68.179 E409.4499 F3600
G1 X150.626 Y67.784 E409.4776
G1 X150.626 Y43.638 E410.6822
G1 X150.238 Y44.034 E410.7099
G1 X150.238 Y67.388 E411.8750
G0 F4800 E410.8750
G0 X164.205 Y68.311 F10800
G0 F4800 E411.8750
G1 X164.205 Y43.110 E413.1323 F3600
G1 X164.593 Y43.506 E413.1599
G1 X164.593 Y67.915 E414.3777
G1 X164.981 Y67.520 E414.4053
G1 X164.981 Y43.902 E415.5836
G1 X165.369 Y44.298 E415.6113
G1 X165.369 Y67.124 E416.7501
G0 F4800 E415.7501
G0 X165.757 Y63.429 F10800
G0 F4800 E416.7501
G1 X165.757 Y47.860 E417.5268 F3600
G1 X166.145 Y47.860 E417.5462
G1 X166.145 Y63.429 E418.3229
G1 X166.533 Y63.429 E418.3422
G1 X166.533 Y47.860 E419.1190
G1 X166.921 Y47.860 E419.1383
G1 X166.921 Y63.429 E419.9151
G1 X167.309 Y63.429 E419.9344
G1 X167.309 Y47.860 E420.7111
G1 X167.697 Y47.860 E420.7305
G1 X167.697 Y63.429 E421.5072
G1 X168.085 Y63.429 E421.5266
G1 X168.085 Y47.860 E422.3033
G1 X168.473 Y47.860 E422.3227
G1 X168.473 Y63.429 E423.0994
G1 X168.861 Y63.429 E423.1187
G1 X168.861 Y47.860 E423.8955
G1 X169.249 Y47.860 E423.9148
G1 X169.249 Y63.429 E424.6916
G1 X169.637 Y63.429 E424.7109
G1 X169.637 Y47.860 E425.4876
G1 X170.025 Y47.860 E425.5070
G1 X170.025 Y63.429 E426.2837
G1 X170.413 Y63.429 E426.3031
G1 X170.413 Y47.860 E427.0798
G1 X170.801 Y47.860 E427.0991
G1 X170.801 Y63.429 E427.8759
G1 X171.189 Y63.429 E427.8952
G1 X171.189 Y47.860 E428.6720
G1 X171.577 Y47.860 E428.6913
G1 X171.577 Y63.429 E429.4680
G1 X171.965 Y63.429 E429.4874
G1 X171.965 Y47.860 E430.2641
G1 X172.353 Y47.860 E430.2835
G1 X172.353 Y63.429 E431.0602
G1 X172.741 Y63.429 E431.0796
G1 X172.741 Y47.860 E431.8563
G1 X173.129 Y47.860 E431.8756
G1 X173.129 Y63.429 E432.6524
G1 X173.517 Y63.429 E432.6717
G1 X173.517 Y47.860 E433.4485
G1 X173.905 Y47.860 E433.4678
G1 X173.905 Y63.429 E434.2445
G1 X174.293 Y63.429 E434.2639
G1 X174.293 Y47.860 E435.0406
G1 X174.680 Y47.860 E435.0600
G1 X174.680 Y63.429 E435.8367
G1 X175.068 Y63.429 E435.8560
G1 X175.068 Y47.860 E436.6328
G1 X175.456 Y47.860 E436.6521
G1 X175.456 Y63.429 E437.4289
G1 X175.844 Y63.429 E437.4482
G1 X175.844 Y47.860 E438.2249
G1 X176.232 Y47.860 E438.2443
G1 X176.232 Y63.429 E439.0210
G1 X176.620 Y63.429 E439.0404
G1 X176.620 Y47.860 E439.8171
G1 X177.008 Y47.860 E439.8365
G1 X177.008 Y63.429 E440.6132
G1 X177.396 Y63.429 E440.6325
G1 X177.396 Y47.860 E441.4093
G1 X177.784 Y48.256 E441.4369
G1 X177.784 Y63.034 E442.1742
G1 X178.172 Y62.638 E442.2018
G1 X178.172 Y48.652 E442.8996
G1 X178.560 Y49.048 E442.9272
G1 X178.560 Y62.242 E443.5855
G1 X178.948 Y61.846 E443.6131
G1 X178.948 Y49.444 E444.2319
G1 X179.336 Y49.839 E444.2595
G1 X179.336 Y61.450 E444.8388
G1 X179.724 Y59.471 E444.9394
G1 X179.724 Y53.006 E445.2620


; ------------------------------------
; Layer #0
; ------------------------------------
G21 ; mm
G90 ; abs
G92 E0 ; reset extr
M106 S255
;segType:Support
G0 F4800 E-1.0000
G0 F300 Z1.850
G0 X175.500 Y53.100 F10800
G0 F4800 E0.0000
G1 X160.800 Y53.100 E0.2078 F900
G1 X160.800 Y53.800 E0.2177
G1 X175.500 Y53.800 E0.4255
G0 F4800 E-0.5745
G0 X175.823 Y55.273 F10800
G0 X175.823 Y57.015
G0 X161.500 Y64.300
G0 F4800 E0.4255
G1 X160.800 Y64.300 E0.4354 F900
G1 X161.500 Y65.000 E0.4494
G1 X160.800 Y65.000 E0.4593
G0 F4800 E-0.5407
G0 X160.800 Y63.600 F10800
G0 F4800 E0.4593
G1 X161.500 Y63.600 E0.4692 F900
G1 X161.500 Y62.900 E0.4791
G1 X160.800 Y62.900 E0.4889
G1 X161.500 Y62.200 E0.5029
G1 X160.800 Y62.200 E0.5128
G1 X160.800 Y61.500 E0.5227
G1 X161.500 Y61.500 E0.5326
G1 X160.800 Y60.800 E0.5466
G1 X161.500 Y60.800 E0.5565
G1 X161.500 Y60.100 E0.5664
G1 X160.800 Y60.100 E0.5763
G1 X160.800 Y59.400 E0.5862
G1 X175.500 Y59.400 E0.7940
G1 X175.500 Y58.700 E0.8039
G1 X160.800 Y58.700 E1.0117
G0 F4800 E0.0117
G0 X158.955 Y65.628 F10800
G0 X157.210 Y65.628
G0 X155.900 Y60.800
G0 F4800 E1.0117
G1 X153.800 Y60.800 E1.0414 F900
G0 F4800 E0.0414
G0 X69.792 Y52.265 F10800
G0 X67.246 Y52.006
G0 F4800 E1.0414
;segType:HShell
G1 X66.966 Y52.293 E1.0480 F600
G1 X66.966 Y52.853
G1 X67.252 Y52.561 E1.0548
G1 X67.258 Y53.116
G1 X66.966 Y53.413 E1.0618
G1 X66.966 Y53.974
G1 X67.263 Y53.670 E1.0688
G1 X67.269 Y54.225
G1 X66.966 Y54.534 E1.0760
G1 X66.966 Y55.094
G1 X67.274 Y54.780 E1.0833
G1 X67.280 Y55.334
G1 X66.966 Y55.655 E1.0908
G1 X66.966 Y56.215
G1 X67.286 Y55.889 E1.0984
G1 X67.291 Y56.443
G1 X66.966 Y56.775 E1.1061
G1 X66.966 Y57.336
G1 X67.297 Y56.998 E1.1140
G1 X67.302 Y57.553
G1 X66.966 Y57.896 E1.1220
G1 X66.966 Y58.457
G1 X67.307 Y58.108 E1.1301
G1 X67.307 Y58.668
G1 X66.966 Y59.017 E1.1382
G1 X66.966 Y59.577
G1 X67.307 Y59.229 E1.1463
G1 X67.307 Y59.789
G1 X66.966 Y60.138 E1.1544
G1 X66.966 Y60.698
G1 X67.318 Y60.339 E1.1628
G1 X67.860 Y60.346
G1 X67.533 Y60.680 E1.1706
G1 X68.081 Y60.680
G1 X68.402 Y60.352 E1.1782
G1 X68.944 Y60.359
G1 X68.630 Y60.680 E1.1856
;segType:Perimeter
G0 X68.175 Y60.693 F10800
G1 X67.907 Y61.352 E1.1975 F359
G1 X67.907 Y62.998 E1.2248
G1 X67.836 Y67.349 E1.2972
G1 X67.836 Y69.835 E1.3385
G1 X66.366 Y69.835 E1.3630
G1 X66.366 Y51.194 E1.6730
G1 X67.838 Y51.194 E1.6975
G1 X67.907 Y58.030 E1.8112
G1 X67.907 Y59.734 E1.8395
G1 X70.060 Y59.760 E1.8753
G1 X84.705 Y59.760 E2.1189
G1 X84.705 Y61.223 E2.1432
G1 X71.005 Y61.293 E2.3710
G1 X67.966 Y61.293 E2.4216
G1 X67.320 Y61.566
;segType:Loop
G0 X67.507 Y62.382 F10800
G1 X67.507 Y62.994 E2.4317 F600
G1 X67.436 Y67.345 E2.5041
G1 X67.436 Y69.427 E2.5387
G1 X66.766 Y69.427 E2.5499
G1 X66.766 Y51.602 E2.8463
G1 X67.442 Y51.602 E2.8575
G1 X67.507 Y58.032 E2.9645
G1 X67.507 Y60.137 E2.9995
G1 X70.057 Y60.168 E3.0419
G1 X84.305 Y60.168 E3.2788
G1 X84.305 Y60.816 E3.2896
G1 X71.004 Y60.884 E3.5108
G1 X67.507 Y60.884 E3.5689
G1 X67.507 Y62.184 E3.5905
G0 X67.431 Y66.139 F10800
G0 X66.966 Y69.103
;segType:HShell
G1 X67.236 Y68.827 E3.5970 F600
G1 X67.236 Y68.267
G1 X66.966 Y68.543 E3.6034
G1 X66.966 Y67.982
G1 X67.236 Y67.707 E3.6098
G1 X67.239 Y67.143
G1 X66.966 Y67.422 E3.6163
G1 X66.966 Y66.862
G1 X67.249 Y66.573 E3.6230
G1 X67.258 Y66.003
G1 X66.966 Y66.301 E3.6300
G1 X66.966 Y65.741
G1 X67.267 Y65.433 E3.6371
G1 X67.277 Y64.863
G1 X66.966 Y65.181 E3.6445
G1 X66.966 Y64.620
G1 X67.286 Y64.294 E3.6521
G1 X67.295 Y63.724
G1 X66.966 Y64.060 E3.6599
G1 X66.966 Y63.500
G1 X67.305 Y63.154 E3.6680
G1 X67.307 Y62.591
G1 X66.966 Y62.939 E3.6761
G1 X66.966 Y62.379
G1 X67.307 Y62.031 E3.6842
G1 X67.307 Y61.470
G1 X66.966 Y61.819 E3.6923
G1 X66.966 Y61.258
G1 X67.307 Y60.910 E3.7004
G0 X69.179 Y60.680 F10800
G1 X69.486 Y60.366 E3.7077 F600
G1 X70.028 Y60.372
G1 X69.727 Y60.680 E3.7149
G1 X70.276 Y60.680
G1 X70.577 Y60.373 E3.7220
G1 X71.125 Y60.373
G1 X70.825 Y60.680 E3.7292
G1 X71.375 Y60.678
G1 X71.674 Y60.373 E3.7363
G1 X72.223 Y60.373
G1 X71.927 Y60.675 E3.7433
G1 X72.478 Y60.672
G1 X72.771 Y60.373 E3.7503
G1 X73.320 Y60.373
G1 X73.030 Y60.669 E3.7572
G1 X73.581 Y60.667
G1 X73.869 Y60.373 E3.7640
G1 X74.417 Y60.373
G1 X74.132 Y60.664 E3.7708
G1 X74.684 Y60.661
G1 X74.966 Y60.373 E3.7775
G1 X75.515 Y60.373
G1 X75.235 Y60.658 E3.7841
G1 X75.787 Y60.655
G1 X76.063 Y60.373 E3.7907
G1 X76.612 Y60.373
G1 X76.338 Y60.653 E3.7972
G1 X76.890 Y60.650
G1 X77.161 Y60.373 E3.8036
G1 X77.709 Y60.373
G1 X77.441 Y60.647 E3.8100
G1 X77.992 Y60.644
G1 X78.258 Y60.373 E3.8163
G1 X78.807 Y60.373
G1 X78.544 Y60.641 E3.8226
G1 X79.095 Y60.639
G1 X79.356 Y60.373 E3.8288
G1 X79.904 Y60.373
G1 X79.647 Y60.636 E3.8349
G1 X80.198 Y60.633
G1 X80.453 Y60.373 E3.8409
G1 X81.002 Y60.373
G1 X80.750 Y60.630 E3.8469
G1 X81.301 Y60.627
G1 X81.550 Y60.373 E3.8529
G1 X82.099 Y60.373
G1 X81.853 Y60.624 E3.8587
G1 X82.404 Y60.622
G1 X82.648 Y60.373 E3.8645
G1 X83.196 Y60.373
G1 X82.955 Y60.619 E3.8702
G1 X83.507 Y60.616
G1 X83.745 Y60.373 E3.8759
;segType:Support
G0 F4800 E2.8759
G0 X64.900 Y51.700 F10800
G0 F4800 E3.8759
G1 X62.800 Y51.700 E3.9056 F900
G1 X62.800 Y52.400 E3.9155
G1 X64.900 Y52.400 E3.9452
G1 X64.900 Y53.100 E3.9550
G1 X62.800 Y53.100 E3.9847
G1 X62.800 Y53.800 E3.9946
G1 X64.900 Y53.800 E4.0243
G1 X64.900 Y54.500 E4.0342
G1 X62.800 Y54.500 E4.0639
G0 F4800 E3.0639
G0 X62.800 Y56.600 F10800
G0 F4800 E4.0639
G1 X64.900 Y56.600 E4.0936 F900
G0 F4800 E3.0936
G0 X64.900 Y58.700 F10800
G0 F4800 E4.0936
G1 X62.800 Y58.700 E4.1233 F900
G0 F4800 E3.1233
G0 X62.800 Y60.100 F10800
G0 F4800 E4.1233
G1 X64.900 Y60.100 E4.1529 F900
G1 X64.900 Y59.400 E4.1628
G1 X62.800 Y59.400 E4.1925
G0 F4800 E3.1925
G0 X62.800 Y58.000 F10800
G0 F4800 E4.1925
G1 X64.900 Y58.000 E4.2222 F900
G1 X64.900 Y57.300 E4.2321
G1 X62.800 Y57.300 E4.2618
G0 F4800 E3.2618
G0 X62.800 Y55.900 F10800
G0 F4800 E4.2618
G1 X64.900 Y55.900 E4.2915 F900
G0 F4800 E3.2915
G0 X62.800 Y55.200 F10800
G0 F4800 E4.2915
G1 X64.900 Y55.200 E4.3212 F900
G0 F4800 E3.3212
G0 X66.229 Y51.054 F10800
G0 X70.500 Y50.300
G0 F4800 E4.3212
G1 X62.800 Y50.300 E4.4300 F900
G1 X62.800 Y51.000 E4.4399
G1 X65.566 Y51.000 E4.4790
G0 F4800 E3.4790
G0 X64.200 Y46.800 F10800
G0 F4800 E4.4790
G1 X69.100 Y46.800 E4.5483 F900
G1 X69.100 Y46.100 E4.5582
G1 X64.200 Y46.100 E4.6274
G1 X64.200 Y45.400 E4.6373
G1 X69.100 Y45.400 E4.7066
G1 X69.100 Y44.700 E4.7165
G1 X64.200 Y44.700 E4.7857
G1 X64.200 Y44.000 E4.7956
G1 X69.100 Y44.000 E4.8649
G1 X69.100 Y43.300 E4.8748
G1 X64.200 Y43.300 E4.9441
G1 X64.200 Y42.600 E4.9539
G1 X69.100 Y42.600 E5.0232
G1 X69.100 Y41.900 E5.0331
G1 X64.200 Y41.900 E5.1024
G0 F4800 E4.1024
G0 X69.100 Y47.500 F10800
G0 F4800 E5.1024
G1 X64.200 Y47.500 E5.1716 F900
G1 X64.200 Y48.200 E5.1815
G1 X69.100 Y48.200 E5.2508
G1 X69.100 Y48.900 E5.2607
G1 X64.200 Y48.900 E5.3299
G1 X64.200 Y49.600 E5.3398
G1 X69.100 Y49.600 E5.4091
G0 F4800 E4.4091
G0 X68.636 Y51.000 F10800
G0 F4800 E5.4091
G1 X70.500 Y51.000 E5.4355 F900
G1 X70.500 Y51.700 E5.4453
G1 X69.800 Y51.700 E5.4552
G1 X69.800 Y52.400 E5.4651
G1 X70.500 Y52.400 E5.4750
G1 X70.500 Y53.100 E5.4849
G1 X69.800 Y53.100 E5.4948
G1 X69.800 Y53.800 E5.5047
G1 X70.500 Y53.800 E5.5146
G1 X70.500 Y54.500 E5.5245
G1 X69.800 Y54.500 E5.5344
G1 X69.800 Y55.200 E5.5443
G1 X70.500 Y55.200 E5.5542
G1 X70.500 Y55.900 E5.5641
G1 X69.800 Y55.900 E5.5740
G1 X69.800 Y56.600 E5.5839
G1 X70.500 Y56.600 E5.5938
G1 X69.800 Y57.300 E5.6078
G1 X84.500 Y57.300 E5.8156
G1 X84.500 Y58.000 E5.8255
G1 X69.800 Y58.000 E6.0332
G0 F4800 E5.0332
G0 X67.975 Y51.053 F10800
G0 X66.229 Y51.053
G0 X64.900 Y60.800
G0 F4800 E6.0332
G1 X62.800 Y60.800 E6.0629 F900
G1 X62.800 Y61.500 E6.0728
G1 X64.900 Y61.500 E6.1025
G1 X64.900 Y62.200 E6.1124
G1 X62.800 Y62.200 E6.1421
G1 X62.800 Y62.900 E6.1520
G1 X64.900 Y62.900 E6.1817
G1 X64.900 Y63.600 E6.1916
G1 X62.800 Y63.600 E6.2212
G1 X62.800 Y64.300 E6.2311
G1 X64.900 Y64.300 E6.2608
G1 X64.900 Y65.000 E6.2707
G1 X62.800 Y65.000 E6.3004
G0 F4800 E5.3004
G0 X62.800 Y67.100 F10800
G0 F4800 E6.3004
G1 X64.900 Y67.100 E6.3301 F900
G1 X64.900 Y67.800 E6.3400
G1 X62.800 Y67.800 E6.3697
G0 F4800 E5.3697
G0 X65.566 Y69.900 F10800
G0 F4800 E6.3697
G1 X62.800 Y69.900 E6.4088 F900
G1 X62.800 Y70.600 E6.4187
G1 X65.566 Y70.600 E6.4578
G0 F4800 E5.4578
G0 X64.900 Y69.200 F10800
G0 F4800 E6.4578
G1 X62.800 Y69.200 E6.4874 F900
G1 X62.800 Y68.500 E6.4973
G1 X64.900 Y68.500 E6.5270
G0 F4800 E5.5270
G0 X64.900 Y66.400 F10800
G0 F4800 E6.5270
G1 X62.800 Y66.400 E6.5567 F900
G1 X62.800 Y65.700 E6.5666
G1 X64.900 Y65.700 E6.5963
G0 F4800 E5.5963
G0 X66.229 Y69.975 F10800
G0 X67.973 Y69.975
G0 X69.800 Y63.600
G0 F4800 E6.5963
G1 X84.500 Y63.600 E6.8041 F900
G1 X84.500 Y62.900 E6.8140
G1 X69.800 Y62.900 E7.0218
G0 F4800 E6.0218
G0 X76.100 Y65.000 F10800
G0 F4800 E7.0218
G1 X69.800 Y65.000 E7.1108 F900
G1 X69.800 Y64.300 E7.1207
G1 X76.100 Y64.300 E7.2098
G0 F4800 E6.2098
G0 X70.500 Y65.700 F10800
G0 F4800 E7.2098
G1 X69.800 Y65.700 E7.2197 F900
G1 X69.800 Y66.400 E7.2296
G1 X70.500 Y66.400 E7.2395
G1 X70.500 Y67.100 E7.2493
G1 X69.800 Y67.100 E7.2592
G1 X70.500 Y67.800 E7.2732
G1 X69.800 Y67.800 E7.2831
G1 X70.500 Y68.500 E7.2971
G1 X69.800 Y68.500 E7.3070
G1 X69.800 Y69.200 E7.3169
G1 X70.500 Y69.200 E7.3268
G1 X70.500 Y69.900 E7.3367
G1 X68.636 Y69.900 E7.3630
G1 X68.636 Y70.600 E7.3729
G1 X70.500 Y70.600 E7.3993
G0 F4800 E6.3993
G0 X69.100 Y71.300 F10800
G0 F4800 E7.3993
G1 X64.200 Y71.300 E7.4686 F900
G1 X64.200 Y72.000 E7.4784
G1 X69.100 Y72.000 E7.5477
G1 X69.100 Y72.700 E7.5576
G1 X64.200 Y72.700 E7.6269
G1 X64.200 Y73.400 E7.6368
G1 X69.100 Y73.400 E7.7060
G1 X69.100 Y74.100 E7.7159
G1 X64.200 Y74.100 E7.7852
G1 X64.200 Y74.800 E7.7951
G1 X69.100 Y74.800 E7.8643
G1 X69.100 Y75.500 E7.8742
G1 X64.200 Y75.500 E7.9435
G1 X64.200 Y76.200 E7.9534
G1 X69.100 Y76.200 E8.0227
G1 X69.100 Y76.900 E8.0326
G1 X64.200 Y76.900 E8.1018
G1 X64.200 Y77.600 E8.1117
G1 X69.100 Y77.600 E8.1810
G1 X69.100 Y78.300 E8.1909
G1 X64.200 Y78.300 E8.2601
G0 F4800 E7.2601
G0 X69.100 Y79.000 F10800
G0 F4800 E8.2601
G1 X64.200 Y79.000 E8.3294 F900
G0 F4800 E7.3294
G0 X69.800 Y116.100 F10800
G0 F4800 E8.3294
G1 X74.700 Y116.100 E8.3987 F900
G1 X74.700 Y116.800 E8.4086
G1 X69.800 Y116.800 E8.4778
G1 X69.800 Y117.500 E8.4877
G1 X74.700 Y117.500 E8.5570
G1 X74.700 Y118.200 E8.5669
G1 X69.800 Y118.200 E8.6361
G0 F4800 E7.6361
G0 X69.800 Y119.600 F10800
G0 F4800 E8.6361
G1 X74.700 Y119.600 E8.7054 F900
G1 X74.700 Y118.900 E8.7153
G1 X69.800 Y118.900 E8.7846
G0 F4800 E7.7846
G0 X69.800 Y120.300 F10800
G0 F4800 E8.7846
G1 X74.700 Y120.300 E8.8538 F900
G1 X74.700 Y121.000 E8.8637
G1 X69.800 Y121.000 E8.9330
G1 X69.800 Y121.700 E8.9429
G1 X74.700 Y121.700 E9.0122
G1 X74.700 Y122.400 E9.0220
G1 X69.800 Y122.400 E9.0913
G1 X69.800 Y123.100 E9.1012
G1 X74.700 Y123.100 E9.1705
G1 X74.700 Y123.800 E9.1804
G1 X69.800 Y123.800 E9.2496
G1 X69.800 Y124.500 E9.2595
G1 X74.700 Y124.500 E9.3288
G1 X74.700 Y125.200 E9.3387
G1 X69.800 Y125.200 E9.4080
G0 F4800 E8.4080
G0 X68.400 Y125.900 F10800
G0 F4800 E9.4080
G1 X70.645 Y125.900 E9.4397 F900
G1 X70.645 Y126.600 E9.4496
G1 X68.400 Y126.600 E9.4813
G1 X68.400 Y127.300 E9.4912
G1 X70.500 Y127.300 E9.5209
G1 X70.500 Y128.000 E9.5308
G1 X68.400 Y128.000 E9.5605
G1 X68.400 Y128.700 E9.5704
G1 X70.500 Y128.700 E9.6001
G1 X70.500 Y129.400 E9.6100
G1 X68.400 Y129.400 E9.6396
G1 X68.400 Y130.100 E9.6495
G1 X70.500 Y130.100 E9.6792
G1 X70.500 Y130.800 E9.6891
G1 X68.400 Y130.800 E9.7188
G1 X68.400 Y131.500 E9.7287
G1 X70.500 Y131.500 E9.7584
G1 X70.500 Y132.200 E9.7683
G1 X68.400 Y132.200 E9.7980
G1 X68.400 Y132.900 E9.8079
G1 X70.500 Y132.900 E9.8375
G0 F4800 E8.8375
G0 X68.400 Y133.600 F10800
G0 F4800 E9.8375
G1 X70.500 Y133.600 E9.8672 F900
G0 F4800 E8.8672
G0 X68.400 Y134.300 F10800
G0 F4800 E9.8672
G1 X70.500 Y134.300 E9.8969 F900
G1 X70.500 Y135.000 E9.9068
G1 X68.400 Y135.000 E9.9365
G1 X68.400 Y135.700 E9.9464
G1 X70.500 Y135.700 E9.9761
G1 X70.500 Y136.400 E9.9860
G1 X68.400 Y136.400 E10.0156
G1 X68.400 Y137.100 E10.0255
G1 X70.500 Y137.100 E10.0552
G1 X70.500 Y137.800 E10.0651
G1 X68.400 Y137.800 E10.0948
G1 X68.400 Y138.500 E10.1047
G1 X70.500 Y138.500 E10.1344
G0 F4800 E9.1344
G0 X71.308 Y145.272 F10800
G0 X73.053 Y145.272
G0 X74.000 Y137.800
G0 F4800 E10.1344
G1 X74.700 Y137.800 E10.1443 F900
G1 X74.000 Y138.500 E10.1583
G1 X90.100 Y138.500 E10.3859
G1 X90.100 Y139.200 E10.3957
G1 X74.000 Y139.200 E10.6233
G0 F4800 E9.6233
G0 X73.053 Y145.272 F10800
G0 X71.308 Y145.272
G0 X70.500 Y139.200
G0 F4800 E10.6233
G1 X68.400 Y139.200 E10.6530 F900
G1 X68.400 Y139.900 E10.6629
G1 X70.500 Y139.900 E10.6926
G1 X70.500 Y140.600 E10.7025
G1 X68.400 Y140.600 E10.7322
G0 F4800 E9.7322
G0 X70.500 Y141.300 F10800
G0 F4800 E10.7322
G1 X68.400 Y141.300 E10.7619 F900
G1 X68.400 Y142.000 E10.7718
G1 X70.500 Y142.000 E10.8014
G0 F4800 E9.8014
G0 X70.500 Y143.400 F10800
G0 F4800 E10.8014
G1 X68.400 Y143.400 E10.8311 F900
G1 X68.400 Y144.100 E10.8410
G1 X70.500 Y144.100 E10.8707
G0 F4800 E9.8707
G0 X70.500 Y142.700 F10800
G0 F4800 E10.8707
G1 X68.400 Y142.700 E10.9004 F900
G0 F4800 E9.9004
G0 X68.400 Y144.800 F10800
G0 F4800 E10.9004
G1 X70.500 Y144.800 E10.9301 F900
G1 X70.645 Y145.500 E10.9402
G1 X69.800 Y145.500 E10.9521
G1 X69.800 Y146.200 E10.9620
G1 X74.700 Y146.200 E11.0313
G1 X74.700 Y146.900 E11.0412
G1 X69.800 Y146.900 E11.1104
G1 X69.800 Y147.600 E11.1203
G1 X74.700 Y147.600 E11.1896
G1 X74.700 Y148.300 E11.1995
G1 X69.800 Y148.300 E11.2688
G0 F4800 E10.2688
G0 X69.800 Y149.700 F10800
G0 F4800 E11.2688
G1 X74.700 Y149.700 E11.3380 F900
G0 F4800 E10.3380
G0 X74.700 Y151.100 F10800
G0 F4800 E11.3380
G1 X69.800 Y151.100 E11.4073 F900
G0 F4800 E10.4073
G0 X69.800 Y153.900 F10800
G0 F4800 E11.4073
G1 X74.700 Y153.900 E11.4766 F900
G1 X74.700 Y154.600 E11.4865
G1 X69.800 Y154.600 E11.5557
G0 F4800 E10.5557
G0 X69.800 Y153.200 F10800
G0 F4800 E11.5557
G1 X74.700 Y153.200 E11.6250 F900
G1 X74.700 Y152.500 E11.6349
G1 X69.800 Y152.500 E11.7041
G1 X69.800 Y151.800 E11.7140
G1 X74.700 Y151.800 E11.7833
G0 F4800 E10.7833
G0 X74.700 Y150.400 F10800
G0 F4800 E11.7833
G1 X69.800 Y150.400 E11.8526 F900
G0 F4800 E10.8526
G0 X69.800 Y149.000 F10800
G0 F4800 E11.8526
G1 X74.700 Y149.000 E11.9218 F900
G0 F4800 E10.9218
G0 X73.716 Y145.500 F10800
G0 F4800 E11.9218
G1 X74.700 Y145.500 E11.9357 F900
G0 F4800 E10.9357
G0 X76.100 Y144.800 F10800
G0 F4800 E11.9357
G1 X74.000 Y144.800 E11.9654 F900
G1 X74.000 Y144.100 E11.9753
G1 X76.100 Y144.100 E12.0050
G1 X76.100 Y143.400 E12.0149
G1 X74.000 Y143.400 E12.0446
G1 X74.000 Y142.700 E12.0545
G1 X76.100 Y142.700 E12.0842
G0 F4800 E11.0842
G0 X76.100 Y140.600 F10800
G0 F4800 E12.0842
G1 X74.000 Y140.600 E12.1139 F900
G1 X74.000 Y139.900 E12.1237
G1 X76.100 Y139.900 E12.1534
G0 F4800 E11.1534
G0 X74.000 Y141.300 F10800
G0 F4800 E12.1534
G1 X76.100 Y141.300 E12.1831 F900
G1 X76.100 Y142.000 E12.1930
G1 X74.000 Y142.000 E12.2227
;segType:HShell
G0 F4800 E11.2227
G0 X72.315 Y144.329 F10800
G0 F4800 E12.2227
G1 X72.129 Y144.519 E12.2271 F600
G1 X72.045 Y144.045
G1 X72.315 Y143.769 E12.2335
G1 X72.315 Y143.209
G1 X72.045 Y143.485 E12.2400
G1 X72.045 Y142.924
G1 X72.315 Y142.648 E12.2464
G1 X72.325 Y142.079
G1 X72.045 Y142.364 E12.2530
G1 X72.045 Y141.804
G1 X72.334 Y141.509 E12.2599
G1 X72.343 Y140.939
G1 X72.045 Y141.243 E12.2669
G1 X72.045 Y140.683
G1 X72.352 Y140.369 E12.2742
G1 X72.362 Y139.799
G1 X72.045 Y140.122 E12.2818
G1 X72.045 Y139.562
G1 X72.371 Y139.230 E12.2895
G1 X72.380 Y138.660
G1 X72.045 Y139.002 E12.2975
G1 X72.045 Y138.441
G1 X72.386 Y138.093 E12.3056
G1 X72.386 Y137.533
G1 X72.045 Y137.881 E12.3137
G1 X72.045 Y137.321
G1 X72.386 Y136.973 E12.3218
G1 X72.386 Y136.412
G1 X72.045 Y136.760 E12.3299
G1 X72.045 Y136.200
G1 X72.595 Y135.639 E12.3429
G1 X73.361 Y135.977
G1 X73.679 Y135.652 E12.3505
G1 X73.137 Y135.645
G1 X72.812 Y135.977 E12.3582
;segType:Perimeter
G0 X73.254 Y135.991 F10800
G1 X72.986 Y136.649 E12.3701 F359
G1 X72.986 Y138.295 E12.3974
G1 X72.915 Y142.646 E12.4698
G1 X72.915 Y145.132 E12.5111
G1 X71.445 Y145.132 E12.5356
G1 X71.445 Y126.491 E12.8456
G1 X72.918 Y126.491 E12.8701
G1 X72.986 Y133.327 E12.9838
G1 X72.986 Y135.031 E13.0121
G1 X75.139 Y135.057 E13.0479
G1 X89.784 Y135.057 E13.2914
G1 X89.784 Y136.520 E13.3158
G1 X76.084 Y136.590 E13.5436
G1 X73.045 Y136.590 E13.5941
G1 X72.400 Y136.863
;segType:Loop
G0 X72.586 Y137.680 F10800
G1 X72.586 Y138.292 E13.6043 F600
G1 X72.516 Y142.642 E13.6767
G1 X72.516 Y144.724 E13.7113
G1 X71.845 Y144.724 E13.7224
G1 X71.845 Y126.899 E14.0188
G1 X72.522 Y126.899 E14.0301
G1 X72.586 Y133.329 E14.1370
G1 X72.586 Y135.434 E14.1720
G1 X75.137 Y135.466 E14.2144
G1 X89.384 Y135.466 E14.4514
G1 X89.384 Y136.113 E14.4622
G1 X76.083 Y136.182 E14.6833
G1 X72.586 Y136.182 E14.7415
G1 X72.586 Y137.481 E14.7631
G0 X72.790 Y138.443 F10800
G0 X72.849 Y136.450
G0 X73.910 Y135.977
;segType:HShell
G1 X74.222 Y135.659 E14.7705 F600
G1 X74.764 Y135.665
G1 X74.458 Y135.977 E14.7778
G1 X75.007 Y135.977
G1 X75.308 Y135.670 E14.7849
G1 X75.857 Y135.670
G1 X75.556 Y135.977 E14.7921
G1 X76.105 Y135.977
G1 X76.405 Y135.670 E14.7992
G1 X76.954 Y135.670
G1 X76.656 Y135.974 E14.8063
G1 X77.207 Y135.971
G1 X77.503 Y135.670 E14.8133
G1 X78.051 Y135.670
G1 X77.759 Y135.969 E14.8203
G1 X78.310 Y135.966
G1 X78.600 Y135.670 E14.8272
G1 X79.149 Y135.670
G1 X78.862 Y135.963 E14.8340
G1 X79.413 Y135.960
G1 X79.697 Y135.670 E14.8407
G1 X80.246 Y135.670
G1 X79.965 Y135.957 E14.8474
G1 X80.516 Y135.955
G1 X80.795 Y135.670 E14.8540
G1 X81.343 Y135.670
G1 X81.068 Y135.952 E14.8606
G1 X81.619 Y135.949
G1 X81.892 Y135.670 E14.8671
G1 X82.441 Y135.670
G1 X82.171 Y135.946 E14.8735
G1 X82.722 Y135.943
G1 X82.990 Y135.670 E14.8799
G1 X83.538 Y135.670
G1 X83.273 Y135.940 E14.8862
G1 X83.825 Y135.938
G1 X84.087 Y135.670 E14.8924
G1 X84.636 Y135.670
G1 X84.376 Y135.935 E14.8986
G1 X84.928 Y135.932
G1 X85.184 Y135.670 E14.9047
G1 X85.733 Y135.670
G1 X85.479 Y135.929 E14.9107
G1 X86.031 Y135.926
G1 X86.282 Y135.670 E14.9166
G1 X86.830 Y135.670
G1 X86.582 Y135.923 E14.9225
G1 X87.134 Y135.921
G1 X87.379 Y135.670 E14.9284
G1 X87.928 Y135.670
G1 X87.685 Y135.918 E14.9341
G1 X88.237 Y135.915
G1 X88.476 Y135.670 E14.9399
G1 X89.025 Y135.670
G1 X88.788 Y135.912 E14.9455
G0 X72.848 Y135.170 F10800
G0 X72.173 Y127.104
G1 X72.045 Y127.235 E14.9485 F600
G1 X72.045 Y127.795
G1 X72.328 Y127.507 E14.9552
G1 X72.333 Y128.061
G1 X72.045 Y128.355 E14.9621
G1 X72.045 Y128.916
G1 X72.339 Y128.616 E14.9691
G1 X72.345 Y129.170
G1 X72.045 Y129.476 E14.9762
G1 X72.045 Y130.036
G1 X72.350 Y129.725 E14.9834
G1 X72.356 Y130.280
G1 X72.045 Y130.597 E14.9908
G1 X72.045 Y131.157
G1 X72.361 Y130.834 E14.9983
G1 X72.367 Y131.389
G1 X72.045 Y131.717 E15.0059
G1 X72.045 Y132.278
G1 X72.372 Y131.944 E15.0137
G1 X72.378 Y132.498
G1 X72.045 Y132.838 E15.0216
G1 X72.045 Y133.398
G1 X72.384 Y133.053 E15.0297
G1 X72.386 Y133.611
G1 X72.045 Y133.959 E15.0378
G1 X72.045 Y134.519
G1 X72.386 Y134.171 E15.0459
G1 X72.386 Y134.731
G1 X72.045 Y135.079 E15.0540
G1 X72.045 Y135.640
G1 X72.386 Y135.292 E15.0621
;segType:Support
G0 F4800 E14.0621
G0 X74.000 Y133.600 F10800
G0 F4800 E15.0621
G1 X90.100 Y133.600 E15.2897 F900
G1 X90.100 Y132.900 E15.2995
G1 X74.000 Y132.900 E15.5271
G0 F4800 E14.5271
G0 X74.000 Y131.500 F10800
G0 F4800 E15.5271
G1 X90.100 Y131.500 E15.7547 F900
G0 F4800 E14.7547
G0 X76.100 Y130.800 F10800
G0 F4800 E15.7547
G1 X74.000 Y130.800 E15.7844 F900
G1 X74.000 Y130.100 E15.7943
G1 X76.100 Y130.100 E15.8240
G0 F4800 E14.8240
G0 X76.100 Y128.000 F10800
G0 F4800 E15.8240
G1 X74.000 Y128.000 E15.8537 F900
G0 F4800 E14.8537
G0 X73.719 Y126.600 F10800
G0 F4800 E15.8537
G1 X76.100 Y126.600 E15.8873 F900
G1 X76.100 Y125.900 E15.8972
G1 X73.712 Y125.900 E15.9310
G0 F4800 E14.9310
G0 X74.000 Y127.300 F10800
G0 F4800 E15.9310
G1 X76.100 Y127.300 E15.9607 F900
G0 F4800 E14.9607
G0 X74.000 Y128.700 F10800
G0 F4800 E15.9607
G1 X76.100 Y128.700 E15.9903 F900
G1 X76.100 Y129.400 E16.0002
G1 X74.000 Y129.400 E16.0299
G0 F4800 E15.0299
G0 X74.000 Y132.200 F10800
G0 F4800 E16.0299
G1 X90.100 Y132.200 E16.2575 F900
G0 F4800 E15.2575
G0 X152.400 Y131.500 F10800
G0 F4800 E16.2575
G1 X154.482 Y131.500 E16.2869 F900
G0 F4800 E15.2869
G0 X154.482 Y134.300 F10800
G0 F4800 E16.2869
G1 X152.400 Y134.300 E16.3164 F900
G1 X152.400 Y135.000 E16.3263
G1 X154.482 Y135.000 E16.3557
G0 F4800 E15.3557
G0 X155.145 Y129.049 F10800
G0 X156.891 Y129.048
G0 X158.000 Y135.000
G0 F4800 E16.3557
G1 X174.100 Y135.000 E16.5833 F900
G1 X174.100 Y135.700 E16.5932
G1 X158.000 Y135.700 E16.8207
G1 X158.000 Y136.400 E16.8306
G1 X174.100 Y136.400 E17.0582
G0 F4800 E16.0582
G0 X174.100 Y134.300 F10800
G0 F4800 E17.0582
G1 X158.000 Y134.300 E17.2858 F900
G1 X158.000 Y133.600 E17.2957
G1 X160.100 Y133.600 E17.3254
G1 X160.100 Y132.900 E17.3353
G1 X158.000 Y132.900 E17.3650
G1 X158.000 Y132.200 E17.3749
G1 X160.100 Y132.200 E17.4045
G0 F4800 E16.4045
G0 X158.000 Y131.500 F10800
G0 F4800 E17.4045
G1 X160.100 Y131.500 E17.4342 F900
G1 X160.100 Y130.800 E17.4441
G1 X158.000 Y130.800 E17.4738
;segType:HShell
G0 F4800 E16.4738
G0 X156.161 Y129.867 F10800
G0 F4800 E17.4738
G1 X155.882 Y130.152 E17.4804 F600
G1 X155.882 Y130.712
G1 X156.167 Y130.421 E17.4872
G1 X156.172 Y130.976
G1 X155.882 Y131.272 E17.4941
G1 X155.882 Y131.833
G1 X156.178 Y131.530 E17.5011
G1 X156.183 Y132.085
G1 X155.882 Y132.393 E17.5083
G1 X155.882 Y132.953
G1 X156.189 Y132.640 E17.5156
G1 X156.195 Y133.194
G1 X155.882 Y133.514 E17.5230
G1 X155.882 Y134.074
G1 X156.200 Y133.749 E17.5306
G1 X156.206 Y134.304
G1 X155.882 Y134.634 E17.5383
G1 X155.882 Y135.195
G1 X156.211 Y134.858 E17.5461
G1 X156.217 Y135.413
G1 X155.882 Y135.755 E17.5541
G1 X155.882 Y136.315
G1 X156.223 Y135.968 E17.5622
G1 X156.223 Y136.527
G1 X155.882 Y136.876 E17.5703
G1 X155.882 Y137.436
G1 X156.223 Y137.088 E17.5784
G1 X156.223 Y137.648
G1 X155.882 Y137.996 E17.5865
G1 X155.882 Y138.557
G1 X156.223 Y138.208 E17.5946
G1 X156.644 Y138.339
G1 X156.315 Y138.675 E17.6024
G1 X156.863 Y138.675
G1 X157.186 Y138.346 E17.6101
G1 X157.728 Y138.353
G1 X157.412 Y138.675 E17.6176
;segType:Perimeter
G0 X157.091 Y138.688 F10800
G1 X156.823 Y139.347 E17.6294 F359
G1 X156.823 Y140.994 E17.6568
G1 X156.752 Y145.344 E17.7291
G1 X156.752 Y147.830 E17.7705
G1 X155.282 Y147.830 E17.7949
G1 X155.282 Y129.189 E18.1049
G1 X156.754 Y129.189 E18.1294
G1 X156.823 Y136.025 E18.2431
G1 X156.823 Y137.729 E18.2715
G1 X158.976 Y137.755 E18.3073
G1 X173.620 Y137.755 E18.5508
G1 X173.620 Y139.218 E18.5751
G1 X159.921 Y139.288 E18.8030
G1 X156.881 Y139.288 E18.8535
G1 X156.236 Y139.561
;segType:Loop
G0 X156.423 Y140.377 F10800
G1 X156.423 Y140.990 E18.8637 F600
G1 X156.352 Y145.341 E18.9360
G1 X156.352 Y147.422 E18.9707
G1 X155.682 Y147.422 E18.9818
