; GCode generated by CraftWare

G28 X0 Y0
G28 Z0

M190 S60 ;set bed temp (wait)
M109 S215 ;set head temp (wait)

; ------------------------------------
; Raft Layer #0
; ------------------------------------
G21 ; mm
G90 ; abs
G92 E0 ; reset extr
M106 S0
;segType:Raft
G0 F4800 E-1.0000
G0 F300 Z0.300
G0 X0.000 Y0.000 F10800
G0 F4800 E0.0000
G1 X51.090 Y31.064 E2.9831 F600
G1 X51.090 Y20.055 E3.5323
G1 X55.026 Y20.055 E3.7287
G1 X55.026 Y31.195 E4.2844
G1 X58.962 Y31.326 E4.4809
G1 X58.962 Y20.186 E5.0367
G1 X62.897 Y20.317 E5.2331
G1 X62.897 Y31.719 E5.8020
G1 X66.833 Y32.112 E5.9993
G1 X66.833 Y20.710 E6.5681
G1 X70.769 Y21.104 E6.7655
G1 X70.769 Y32.505 E7.3343
G1 X74.704 Y33.161 E7.5334
G1 X74.704 Y21.497 E8.1153
G1 X78.640 Y22.152 E8.3144
G1 X78.640 Y33.947 E8.9028
G1 X82.576 Y34.602 E9.1019
G1 X82.576 Y22.938 E9.6838
G1 X86.511 Y23.725 E9.8840
G1 X86.511 Y35.651 E10.4790
G1 X90.447 Y36.699 E10.6822
G1 X90.447 Y24.642 E11.2838
G1 X94.383 Y25.691 E11.4870
G1 X94.383 Y37.879 E12.0950
G1 X98.318 Y39.189 E12.3020
G1 X98.318 Y26.870 E12.9166
G1 X102.254 Y28.050 E13.1216
G1 X102.254 Y40.500 E13.7427
G1 X106.189 Y42.073 E13.9542
G1 X106.189 Y29.360 E14.5884
G1 X110.125 Y30.933 E14.7999
G1 X110.125 Y43.776 E15.4406
G1 X114.061 Y45.480 E15.6546
G1 X114.061 Y32.637 E16.2954
G1 X117.996 Y34.340 E16.5093
G1 X117.996 Y47.446 E17.1632
G1 X121.932 Y49.543 E17.3857
G1 X121.932 Y36.306 E18.0460
G1 X125.868 Y38.141 E18.2627
G1 X125.868 Y51.640 E18.9361
G1 X129.803 Y54.130 E19.1685
G1 X129.803 Y40.500 E19.8485
G1 X133.739 Y42.859 E20.0774
G1 X133.739 Y56.620 E20.7640
G1 X137.675 Y59.372 E21.0036
G1 X137.675 Y45.218 E21.7097
G1 X141.610 Y47.970 E21.9493
G1 X141.610 Y62.387 E22.6685
G1 X145.546 Y65.401 E22.9159
G1 X145.546 Y50.722 E23.6482
G1 X149.482 Y53.868 E23.8995
G1 X149.482 Y68.808 E24.6449
G1 X153.417 Y72.216 E24.9046
G1 X153.417 Y57.013 E25.6631
G1 X157.353 Y60.552 E25.9271
G1 X157.353 Y76.148 E26.7052
G1 X161.289 Y80.604 E27.0018
G1 X161.289 Y64.221 E27.8191
G1 X165.224 Y68.153 E28.0967
G1 X165.224 Y85.191 E28.9467
G1 X169.160 Y90.302 E29.2685
G1 X169.160 Y72.347 E30.1643
G1 X173.096 Y76.672 E30.4560
G1 X173.096 Y95.806 E31.4106
G1 X177.031 Y102.097 E31.7808
G1 X177.031 Y81.521 E32.8074
G1 X180.967 Y86.763 E33.1344
G1 X180.967 Y109.043 E34.2460
G1 X184.903 Y116.775 E34.6788
G1 X184.903 Y92.530 E35.8885
G1 X188.838 Y98.952 E36.2642
G1 X188.838 Y125.949 E37.6112
G1 X200.645 Y123.852 E38.2094
G1 X200.645 Y182.173 E41.1190
G1 X204.581 Y183.090 E41.3207
G1 X204.581 Y136.434 E43.6484
G1 X192.774 Y137.613 E44.2403
G1 X192.774 Y106.029 E45.8161
G1 X196.710 Y114.154 E46.2665
G1 X196.710 Y154.520 E48.2804
G1 X208.517 Y155.306 E48.8708
G1 X208.517 Y182.173 E50.2111
G0 F4800 E49.2111
G0 X47.155 Y28.705 F10800
G0 F4800 E50.2111
G1 X47.155 Y22.283 E50.5315 F600



; ------------------------------------
; Raft Layer #1
; ------------------------------------
G21 ; mm
G90 ; abs
G92 E0 ; reset extr
M106 S0
;segType:Raft
G0 F4800 E-1.0000
G0 F300 Z0.600
G0 X47.827 Y21.483 F10800
G0 F4800 E0.0000
G1 X74.825 Y21.483 E1.3469 F3600
G0 F4800 E0.3469
G0 X82.295 Y22.795 F10800
G0 F4800 E1.3469
G1 X46.910 Y22.795 E3.1123 F3600
G1 X46.910 Y24.107 E3.1778
G1 X88.455 Y24.107 E5.2505
G1 X93.697 Y25.419 E5.5201
G1 X46.910 Y25.419 E7.8543
G1 X46.910 Y26.731 E7.9198
G1 X98.153 Y26.731 E10.4763
G1 X102.216 Y28.043 E10.6893
G1 X46.910 Y28.043 E13.4485
G1 X47.827 Y29.355 E13.5284
G1 X106.148 Y29.355 E16.4380
G1 X109.424 Y30.667 E16.6141
G1 X49.138 Y30.667 E19.6218
G0 F4800 E18.6218
G0 X49.138 Y20.172 F10800
G0 F4800 E19.6218
G1 X60.278 Y20.172 E20.1776 F3600
G0 F4800 E19.1776
G0 X66.306 Y31.979 F10800
G0 F4800 E20.1776
G1 X112.569 Y31.979 E22.4856 F3600
G1 X115.846 Y33.290 E22.6617
G1 X75.480 Y33.290 E24.6756
G0 F4800 E23.6756
G0 X82.557 Y34.602 F10800
G0 F4800 E24.6756
G1 X118.598 Y34.602 E26.4737 F3600
G1 X121.219 Y35.914 E26.6199
G1 X87.537 Y35.914 E28.3003
G1 X92.518 Y37.226 E28.5572
G1 X123.971 Y37.226 E30.1265
G1 X126.593 Y38.538 E30.2727
G1 X96.580 Y38.538 E31.7700
G1 X100.250 Y39.850 E31.9644
G1 X128.820 Y39.850 E33.3898
G1 X131.048 Y41.162 E33.5188
G1 X104.051 Y41.162 E34.8657
G1 X107.196 Y42.474 E35.0358
G1 X133.276 Y42.474 E36.3369
G1 X135.504 Y43.786 E36.4659
G1 X110.210 Y43.786 E37.7278
G1 X113.225 Y45.097 E37.8918
G1 X137.601 Y45.097 E39.1080
G1 X139.436 Y46.409 E39.2205
G1 X115.977 Y46.409 E40.3909
G1 X118.467 Y47.721 E40.5313
G1 X141.271 Y47.721 E41.6690
G1 X143.237 Y49.033 E41.7869
G1 X120.957 Y49.033 E42.8985
G1 X123.447 Y50.345 E43.0389
G1 X145.072 Y50.345 E44.1177
G1 X146.775 Y51.657 E44.2250
G1 X125.806 Y51.657 E45.2712
G1 X127.903 Y52.969 E45.3946
G1 X148.348 Y52.969 E46.4146
G1 X150.052 Y54.281 E46.5219
G1 X130.000 Y54.281 E47.5222
G1 X132.097 Y55.593 E47.6457
G1 X151.624 Y55.593 E48.6199
G1 X153.328 Y56.904 E48.7272
G1 X134.194 Y56.904 E49.6818
G1 X136.029 Y58.216 E49.7943
G1 X154.770 Y58.216 E50.7293
G1 X156.211 Y59.528 E50.8266
G1 X137.863 Y59.528 E51.7419
G1 X139.567 Y60.840 E51.8492
G1 X157.653 Y60.840 E52.7515
G1 X159.095 Y62.152 E52.8488
G1 X141.402 Y62.152 E53.7315
G1 X143.237 Y63.464 E53.8440
G1 X160.536 Y63.464 E54.7071
G1 X161.847 Y64.776 E54.7996
G1 X144.809 Y64.776 E55.6496
G1 X146.382 Y66.088 E55.7518
G1 X163.289 Y66.088 E56.5952
G1 X164.599 Y67.399 E56.6877
G1 X147.955 Y67.399 E57.5181
G1 X149.396 Y68.711 E57.6154
G1 X165.779 Y68.711 E58.4327
G1 X166.958 Y70.023 E58.5207
G1 X150.969 Y70.023 E59.3184
G1 X152.411 Y71.335 E59.4156
G1 X168.269 Y71.335 E60.2068
G1 X169.448 Y72.647 E60.2948
G1 X153.852 Y72.647 E61.0729
G1 X155.163 Y73.959 E61.1654
G1 X170.628 Y73.959 E61.9369
G1 X171.807 Y75.271 E62.0250
G1 X156.474 Y75.271 E62.7900
G1 X157.784 Y76.583 E62.8825
G1 X172.987 Y76.583 E63.6409
G1 X174.035 Y77.895 E63.7247
G1 X158.964 Y77.895 E64.4766
G1 X160.143 Y79.206 E64.5647
G1 X175.084 Y79.206 E65.3100
G1 X176.132 Y80.518 E65.3938
G1 X161.192 Y80.518 E66.1392
G1 X162.371 Y81.830 E66.2272
G1 X177.181 Y81.830 E66.9661
G1 X178.229 Y83.142 E67.0499
G1 X163.420 Y83.142 E67.7887
G1 X164.599 Y84.454 E67.8767
G1 X179.278 Y84.454 E68.6090
G1 X180.195 Y85.766 E68.6889
G1 X165.648 Y85.766 E69.4147
G1 X166.696 Y87.078 E69.4984
G1 X181.112 Y87.078 E70.2177
G1 X182.030 Y88.390 E70.2975
G1 X167.613 Y88.390 E71.0168
G1 X168.662 Y89.702 E71.1006
G1 X182.947 Y89.702 E71.8133
G1 X183.865 Y91.013 E71.8931
G1 X169.579 Y91.013 E72.6058
G1 X170.628 Y92.325 E72.6896
G1 X184.782 Y92.325 E73.3957
G1 X185.699 Y93.637 E73.4756
G1 X171.545 Y93.637 E74.1818
G1 X172.463 Y94.949 E74.2616
G1 X186.486 Y94.949 E74.9612
G1 X187.141 Y96.261 E75.0344
G1 X173.380 Y96.261 E75.7209
G1 X174.166 Y97.573 E75.7973
G1 X187.927 Y97.573 E76.4838
G1 X188.714 Y98.885 E76.5601
G1 X174.953 Y98.885 E77.2466
G1 X175.870 Y100.197 E77.3265
G1 X189.500 Y100.197 E78.0065
G1 X190.417 Y101.508 E78.0864
G1 X176.656 Y101.508 E78.7729
G1 X177.574 Y102.820 E78.8528
G1 X191.204 Y102.820 E79.5328
G1 X191.859 Y104.132 E79.6059
G1 X178.360 Y104.132 E80.2794
G1 X179.146 Y105.444 E80.3557
G1 X192.514 Y105.444 E81.0226
G1 X193.170 Y106.756 E81.0958
G1 X179.802 Y106.756 E81.7627
G1 X180.457 Y108.068 E81.8359
G1 X193.694 Y108.068 E82.4962
G1 X194.349 Y109.380 E82.5694
G1 X181.112 Y109.380 E83.2298
G1 X181.899 Y110.692 E83.3061
G1 X195.004 Y110.692 E83.9599
G1 X195.660 Y112.004 E84.0331
G1 X182.554 Y112.004 E84.6870
G1 X183.209 Y113.315 E84.7601
G1 X196.315 Y113.315 E85.4140
G1 X196.839 Y114.627 E85.4844
G1 X183.865 Y114.627 E86.1317
G1 X184.520 Y115.939 E86.2049
G1 X197.363 Y115.939 E86.8457
G1 X197.888 Y117.251 E86.9162
G1 X185.044 Y117.251 E87.5569
G1 X185.699 Y118.563 E87.6301
G1 X198.543 Y118.563 E88.2709
G1 X199.067 Y119.875 E88.3413
G1 X186.224 Y119.875 E88.9821
G1 X186.748 Y121.187 E89.0526
G1 X199.591 Y121.187 E89.6934
G1 X200.116 Y122.499 E89.7638
G1 X187.403 Y122.499 E90.3981
G1 X187.927 Y123.811 E90.4685
G1 X200.640 Y123.811 E91.1028
G1 X201.033 Y125.122 E91.1711
G1 X188.452 Y125.122 E91.7988
G1 X188.976 Y126.434 E91.8693
G1 X201.426 Y126.434 E92.4904
G1 X201.819 Y127.746 E92.5588
G1 X189.500 Y127.746 E93.1734
G1 X189.893 Y129.058 E93.2417
G1 X202.344 Y129.058 E93.8629
G1 X202.737 Y130.370 E93.9312
G1 X190.417 Y130.370 E94.5458
G1 X190.811 Y131.682 E94.6141
G1 X203.130 Y131.682 E95.2288
G1 X203.654 Y132.994 E95.2992
G1 X191.204 Y132.994 E95.9204
G1 X191.728 Y134.306 E95.9909
G1 X204.047 Y134.306 E96.6055
G1 X204.310 Y135.617 E96.6722
G1 X192.121 Y135.617 E97.2803
G1 X192.514 Y136.929 E97.3486
G1 X204.703 Y136.929 E97.9567
G1 X204.965 Y138.241 E98.0235
G1 X192.908 Y138.241 E98.6250
G1 X193.301 Y139.553 E98.6933
G1 X205.358 Y139.553 E99.2949
G1 X205.620 Y140.865 E99.3616
G1 X193.563 Y140.865 E99.9631
G1 X193.956 Y142.177 E100.0315
G1 X206.013 Y142.177 E100.6330
G1 X206.275 Y143.489 E100.6998
G1 X194.349 Y143.489 E101.2948
G1 X194.611 Y144.801 E101.3615
G1 X206.669 Y144.801 E101.9630
G1 X206.800 Y146.113 E102.0288
G1 X195.004 Y146.113 E102.6173
G1 X195.398 Y147.424 E102.6856
G1 X207.062 Y147.424 E103.2675
G1 X207.324 Y148.736 E103.3343
G1 X195.529 Y148.736 E103.9227
G1 X195.791 Y150.048 E103.9895
G1 X207.586 Y150.048 E104.5779
G1 X207.717 Y151.360 E104.6437
G1 X196.053 Y151.360 E105.2256
G1 X196.315 Y152.672 E105.2924
G1 X207.979 Y152.672 E105.8743
G1 X208.241 Y153.984 E105.9410
G1 X196.577 Y153.984 E106.5230
G1 X196.839 Y155.296 E106.5897
G1 X208.503 Y155.296 E107.1716
G1 X208.634 Y156.608 E107.2374
G1 X197.101 Y156.608 E107.8128
G1 X197.232 Y157.920 E107.8786
G1 X208.765 Y157.920 E108.4540
G1 X208.897 Y159.231 E108.5197
G1 X197.495 Y159.231 E109.0886
G1 X197.626 Y160.543 E109.1543
G1 X209.028 Y160.543 E109.7232
G1 X209.159 Y161.855 E109.7890
G1 X197.757 Y161.855 E110.3578
G1 X197.888 Y163.167 E110.4236
G1 X209.290 Y163.167 E110.9924
G1 X209.421 Y164.479 E111.0582
G1 X198.019 Y164.479 E111.6271
G1 X198.150 Y165.791 E111.6928
G1 X209.552 Y165.791 E112.2617
G1 X209.683 Y169.726 E112.4581
G1 X198.674 Y169.726 E113.0074
G1 X198.674 Y171.038 E113.0728
G1 X209.814 Y171.038 E113.6286
G1 X209.814 Y172.350 E113.6940
G1 X198.674 Y172.350 E114.2498
G1 X198.805 Y176.286 E114.4463
G1 X209.945 Y176.286 E115.0020
G1 X209.945 Y174.974 E115.0675
G1 X198.805 Y174.974 E115.6233
G1 X198.805 Y173.662 E115.6887
G1 X209.814 Y173.662 E116.2380
G1 X209.945 Y177.598 E116.4344
G1 X198.936 Y177.598 E116.9836
G1 X198.936 Y178.910 E117.0491
G1 X209.945 Y178.910 E117.5983
G1 X209.945 Y180.222 E117.6638
G1 X198.936 Y180.222 E118.2130
G1 X199.985 Y181.533 E118.2968
G1 X209.028 Y181.533 E118.7480
G1 X207.717 Y182.845 E118.8405
G1 X201.295 Y182.845 E119.1609
G0 F4800 E118.1609
G0 X198.412 Y168.415 F10800
G0 F4800 E119.1609
G1 X209.683 Y168.415 E119.7232 F3600
G1 X209.683 Y167.103 E119.7886
G1 X198.281 Y167.103 E120.3575



; ------------------------------------
; Raft Layer #2
; ------------------------------------
G21 ; mm
G90 ; abs
G92 E0 ; reset extr
M106 S0
;segType:Raft
G0 F4800 E-1.0000
G0 F300 Z0.900
G0 X198.283 Y166.184 F10800
G0 F4800 E0.0000
G1 X198.283 Y117.955 E2.4062 F3600
G1 X197.889 Y117.037 E2.4560
G1 X197.889 Y162.645 E4.7314
G0 F4800 E3.7314
G0 X197.496 Y159.107 F10800
G0 F4800 E4.7314
G1 X197.496 Y116.120 E6.8760 F3600
G1 X197.102 Y115.203 E6.9258
G1 X197.102 Y156.617 E8.9919
G0 F4800 E7.9919
G0 X196.709 Y154.520 F10800
G0 F4800 E8.9919
G1 X196.709 Y114.154 E11.0058 F3600
G1 X196.315 Y113.237 E11.0556
G1 X196.315 Y152.423 E13.0106
G0 F4800 E12.0106
G0 X195.921 Y150.326 F10800
G0 F4800 E13.0106
G1 X195.921 Y112.450 E14.9002 F3600
G1 X195.528 Y111.664 E14.9441
G1 X195.528 Y148.229 E16.7683
G1 X195.134 Y146.394 E16.8619
G1 X195.134 Y110.878 E18.6339
G1 X194.741 Y110.091 E18.6777
G1 X194.741 Y144.953 E20.4170
G1 X194.347 Y143.511 E20.4915
G1 X194.347 Y109.305 E22.1981
G1 X193.954 Y108.519 E22.2419
G1 X193.954 Y142.069 E23.9158
G1 X193.560 Y140.497 E23.9967
G1 X193.560 Y107.601 E25.6378
G1 X193.166 Y106.815 E25.6817
G1 X193.166 Y139.055 E27.2902
G1 X192.773 Y137.613 E27.3647
G1 X192.773 Y106.029 E28.9405
G1 X192.379 Y105.242 E28.9844
G1 X192.379 Y136.172 E30.5274
G1 X191.986 Y134.992 E30.5895
G1 X191.986 Y104.456 E32.1129
G1 X191.592 Y103.670 E32.1568
G1 X191.592 Y133.813 E33.6607
G1 X191.199 Y132.764 E33.7165
G1 X191.199 Y102.883 E35.2073
G1 X190.805 Y102.228 E35.2454
G1 X190.805 Y131.585 E36.7101
G1 X190.411 Y130.405 E36.7721
G1 X190.411 Y101.573 E38.2106
G1 X190.018 Y100.917 E38.2487
G1 X190.018 Y129.357 E39.6675
G1 X189.624 Y128.177 E39.7296
G1 X189.624 Y100.262 E41.1223
G1 X189.231 Y99.607 E41.1604
G1 X189.231 Y126.998 E42.5270
G1 X188.837 Y125.949 E42.5828
G1 X188.837 Y98.952 E43.9298
G1 X188.444 Y98.296 E43.9679
G1 X188.444 Y125.032 E45.3017
G1 X188.050 Y124.115 E45.3515
G1 X188.050 Y97.641 E46.6723
G1 X187.656 Y96.986 E46.7104
G1 X187.656 Y123.197 E48.0181
G1 X187.263 Y122.280 E48.0679
G1 X187.263 Y96.330 E49.3626
G1 X186.869 Y95.544 E49.4064
G1 X186.869 Y121.362 E50.6945
G1 X186.476 Y120.445 E50.7443
G1 X186.476 Y94.889 E52.0193
G1 X186.082 Y94.233 E52.0575
G1 X186.082 Y119.528 E53.3194
G1 X185.689 Y118.610 E53.3692
G1 X185.689 Y93.578 E54.6180
G1 X185.295 Y93.054 E54.6507
G1 X185.295 Y117.693 E55.8800
G1 X184.901 Y116.775 E55.9298
G1 X184.901 Y92.530 E57.1394
G1 X184.508 Y91.874 E57.1775
G1 X184.508 Y115.858 E58.3741
G1 X184.114 Y114.941 E58.4239
G1 X184.114 Y91.350 E59.6008
G1 X183.721 Y90.826 E59.6335
G1 X183.721 Y114.285 E60.8039
G1 X183.327 Y113.499 E60.8478
G1 X183.327 Y90.171 E62.0116
G1 X182.934 Y89.646 E62.0443
G1 X182.934 Y112.713 E63.1951
G1 X182.540 Y112.057 E63.2332
G1 X182.540 Y89.122 E64.3774
G1 X182.146 Y88.467 E64.4156
G1 X182.146 Y111.271 E65.5533
G1 X181.753 Y110.485 E65.5971
G1 X181.753 Y87.943 E66.7218
G1 X181.359 Y87.419 E66.7545
G1 X181.359 Y109.829 E67.8726
G1 X180.966 Y109.043 E67.9164
G1 X180.966 Y86.763 E69.0280
G1 X180.572 Y86.239 E69.0607
G1 X180.572 Y108.257 E70.1591
G1 X180.179 Y107.470 E70.2030
G1 X180.179 Y85.715 E71.2884
G1 X179.785 Y85.059 E71.3265
G1 X179.785 Y106.815 E72.4119
G1 X179.391 Y106.029 E72.4558
G1 X179.391 Y84.535 E73.5281
G1 X178.998 Y84.011 E73.5608
G1 X178.998 Y105.242 E74.6200
G1 X178.604 Y104.587 E74.6582
G1 X178.604 Y83.487 E75.7109
G1 X178.211 Y83.094 E75.7386
G1 X178.211 Y103.932 E76.7783
G1 X177.817 Y103.276 E76.8164
G1 X177.817 Y82.569 E77.8495
G1 X177.424 Y82.045 E77.8822
G1 X177.424 Y102.752 E78.9153
G1 X177.030 Y102.097 E78.9534
G1 X177.030 Y81.521 E79.9799
G1 X176.636 Y81.128 E80.0077
G1 X176.636 Y101.442 E81.0212
G1 X176.243 Y100.786 E81.0593
G1 X176.243 Y80.604 E82.0662
G1 X175.849 Y80.079 E82.0989
G1 X175.849 Y100.131 E83.0993
G1 X175.456 Y99.607 E83.1320
G1 X175.456 Y79.686 E84.1259
G1 X175.062 Y79.162 E84.1586
G1 X175.062 Y98.952 E85.1459
G1 X174.669 Y98.296 E85.1840
G1 X174.669 Y78.638 E86.1648
G1 X174.275 Y78.113 E86.1975
G1 X174.275 Y97.641 E87.1718
G1 X173.881 Y97.117 E87.2045
G1 X173.881 Y77.720 E88.1722
G1 X173.488 Y77.196 E88.2049
G1 X173.488 Y96.461 E89.1660
G1 X173.094 Y95.806 E89.2042
G1 X173.094 Y76.672 E90.1588
G1 X172.701 Y76.279 E90.1865
G1 X172.701 Y95.151 E91.1281
G1 X172.307 Y94.627 E91.1608
G1 X172.307 Y75.754 E92.1023
G1 X171.914 Y75.361 E92.1301
G1 X171.914 Y94.102 E93.0651
G1 X171.520 Y93.578 E93.0978
G1 X171.520 Y74.837 E94.0328
G1 X171.127 Y74.444 E94.0606
G1 X171.127 Y93.054 E94.9890
G1 X170.733 Y92.530 E95.0217
G1 X170.733 Y74.051 E95.9437
G1 X170.339 Y73.657 E95.9714
G1 X170.339 Y92.006 E96.8868
G1 X169.946 Y91.481 E96.9195
G1 X169.946 Y73.133 E97.8349
G1 X169.552 Y72.740 E97.8627
G1 X169.552 Y90.957 E98.7715
G1 X169.159 Y90.302 E98.8096
G1 X169.159 Y72.347 E99.7054
G1 X168.765 Y71.954 E99.7332
G1 X168.765 Y89.778 E100.6224
G1 X168.372 Y89.253 E100.6551
G1 X168.372 Y71.561 E101.5378
G1 X167.978 Y71.036 E101.5705
G1 X167.978 Y88.729 E102.4532
G1 X167.584 Y88.205 E102.4859
G1 X167.584 Y70.643 E103.3621
G1 X167.191 Y70.250 E103.3898
G1 X167.191 Y87.681 E104.2594
G1 X166.797 Y87.156 E104.2921
G1 X166.797 Y69.857 E105.1552
G1 X166.404 Y69.333 E105.1879
G1 X166.404 Y86.632 E106.0510
G1 X166.010 Y86.108 E106.0837
G1 X166.010 Y68.939 E106.9402
G1 X165.617 Y68.546 E106.9680
G1 X165.617 Y85.584 E107.8180
G1 X165.223 Y85.191 E107.8458
G1 X165.223 Y68.153 E108.6958
G1 X164.830 Y67.629 E108.7285
G1 X164.830 Y84.666 E109.5785
G1 X164.436 Y84.273 E109.6062
G1 X164.436 Y67.236 E110.4562
G1 X164.042 Y66.843 E110.4840
G1 X164.042 Y83.749 E111.3274
G1 X163.649 Y83.356 E111.3552
G1 X163.649 Y66.449 E112.1986
G1 X163.255 Y66.056 E112.2264
G1 X163.255 Y82.832 E113.0633
G1 X162.862 Y82.438 E113.0911
G1 X162.862 Y65.663 E113.9280
G1 X162.468 Y65.270 E113.9558
G1 X162.468 Y81.914 E114.7861
G1 X162.075 Y81.521 E114.8139
G1 X162.075 Y65.008 E115.6377
G1 X161.681 Y64.615 E115.6655
G1 X161.681 Y80.997 E116.4828
G1 X161.287 Y80.604 E116.5106
G1 X161.287 Y64.221 E117.3279
G1 X160.894 Y63.828 E117.3556
G1 X160.894 Y80.079 E118.1664
G1 X160.500 Y79.686 E118.1941
G1 X160.500 Y63.435 E119.0049
G1 X160.107 Y63.173 E119.0285
G1 X160.107 Y79.162 E119.8262
G1 X159.713 Y78.769 E119.8539
G1 X159.713 Y62.780 E120.6516
G1 X159.320 Y62.387 E120.6794
G1 X159.320 Y78.376 E121.4771
G1 X158.926 Y77.851 E121.5098
G1 X158.926 Y61.993 E122.3009
G1 X158.532 Y61.600 E122.3287
G1 X158.532 Y77.458 E123.1199
G1 X158.139 Y76.934 E123.1526
G1 X158.139 Y61.338 E123.9306
G1 X157.745 Y60.945 E123.9584
G1 X157.745 Y76.541 E124.7365
G1 X157.352 Y76.148 E124.7642
G1 X157.352 Y60.552 E125.5423
G1 X156.958 Y60.159 E125.5701
G1 X156.958 Y75.754 E126.3481
G1 X156.565 Y75.361 E126.3759
G1 X156.565 Y59.896 E127.1474
G1 X156.171 Y59.503 E127.1752
G1 X156.171 Y74.968 E127.9467
G1 X155.778 Y74.575 E127.9745
G1 X155.778 Y59.110 E128.7460
G1 X155.384 Y58.717 E128.7738
G1 X155.384 Y74.182 E129.5453
G1 X154.990 Y73.789 E129.5731
G1 X154.990 Y58.324 E130.3446
G1 X154.597 Y58.062 E130.3682
G1 X154.597 Y73.395 E131.1332
G1 X154.203 Y73.002 E131.1610
G1 X154.203 Y57.668 E131.9260
G1 X153.810 Y57.406 E131.9496
G1 X153.810 Y72.609 E132.7080
G1 X153.416 Y72.216 E132.7358
G1 X153.416 Y57.013 E133.4943
G1 X153.023 Y56.751 E133.5178
G1 X153.023 Y71.823 E134.2698
G1 X152.629 Y71.430 E134.2975
G1 X152.629 Y56.358 E135.0494
G1 X152.235 Y56.096 E135.0730
G1 X152.235 Y71.167 E135.8250
G1 X151.842 Y70.774 E135.8527
G1 X151.842 Y55.834 E136.5981
G1 X151.448 Y55.441 E136.6259
G1 X151.448 Y70.512 E137.3778
G1 X151.055 Y70.119 E137.4055
G1 X151.055 Y55.178 E138.1509
G1 X150.661 Y54.785 E138.1787
G1 X150.661 Y69.857 E138.9306
G1 X150.268 Y69.464 E138.9584
G1 X150.268 Y54.523 E139.7038
G1 X149.874 Y54.130 E139.7315
G1 X149.874 Y69.070 E140.4769
G1 X149.481 Y68.808 E140.5005
G1 X149.481 Y53.868 E141.2459
G1 X149.087 Y53.606 E141.2695
G1 X149.087 Y68.415 E142.0083
G1 X148.693 Y68.153 E142.0319
G1 X148.693 Y53.213 E142.7773
G1 X148.300 Y52.950 E142.8009
G1 X148.300 Y67.760 E143.5397
G1 X147.906 Y67.367 E143.5675
G1 X147.906 Y52.557 E144.3063
G1 X147.513 Y52.295 E144.3299
G1 X147.513 Y67.105 E145.0688
G1 X147.119 Y66.711 E145.0965
G1 X147.119 Y52.033 E145.8288
G1 X146.726 Y51.640 E145.8566
G1 X146.726 Y66.449 E146.5954
G1 X146.332 Y66.056 E146.6232
G1 X146.332 Y51.378 E147.3555
G1 X145.938 Y50.985 E147.3833
G1 X145.938 Y65.794 E148.1221
G1 X145.545 Y65.401 E148.1499
G1 X145.545 Y50.722 E148.8822
G1 X145.151 Y50.460 E148.9058
G1 X145.151 Y65.008 E149.6316
G1 X144.758 Y64.746 E149.6551
G1 X144.758 Y50.198 E150.3809
G1 X144.364 Y49.936 E150.4045
G1 X144.364 Y64.352 E151.1237
G1 X143.971 Y64.090 E151.1473
G1 X143.971 Y49.543 E151.8731
G1 X143.577 Y49.281 E151.8967
G1 X143.577 Y63.828 E152.6225
G1 X143.184 Y63.435 E152.6502
G1 X143.184 Y49.019 E153.3695
G1 X142.790 Y48.757 E153.3930
G1 X142.790 Y63.173 E154.1123
G1 X142.396 Y62.911 E154.1359
G1 X142.396 Y48.494 E154.8551
G1 X142.003 Y48.232 E154.8787
G1 X142.003 Y62.649 E155.5979
G1 X141.609 Y62.387 E155.6215
G1 X141.609 Y47.970 E156.3408
G1 X141.216 Y47.708 E156.3644
G1 X141.216 Y61.993 E157.0770
G1 X140.822 Y61.731 E157.1006
G1 X140.822 Y47.446 E157.8133
G1 X140.429 Y47.184 E157.8369
G1 X140.429 Y61.469 E158.5496
G1 X140.035 Y61.207 E158.5732
G1 X140.035 Y46.922 E159.2859
G1 X139.641 Y46.660 E159.3095
G1 X139.641 Y60.945 E160.0222
G1 X139.248 Y60.552 E160.0499
G1 X139.248 Y46.267 E160.7626
G1 X138.854 Y46.004 E160.7862
G1 X138.854 Y60.290 E161.4989
G1 X138.461 Y60.028 E161.5225
G1 X138.461 Y45.742 E162.2352
G1 X138.067 Y45.480 E162.2588
G1 X138.067 Y59.765 E162.9715
G1 X137.674 Y59.372 E162.9992
G1 X137.674 Y45.218 E163.7054
G1 X137.280 Y44.956 E163.7290
G1 X137.280 Y59.110 E164.4351
G1 X136.886 Y58.848 E164.4587
G1 X136.886 Y44.694 E165.1649
G1 X136.493 Y44.432 E165.1885
G1 X136.493 Y58.586 E165.8946
G1 X136.099 Y58.324 E165.9182
G1 X136.099 Y44.170 E166.6244
G1 X135.706 Y43.907 E166.6480
G1 X135.706 Y57.931 E167.3476
G1 X135.312 Y57.668 E167.3712
G1 X135.312 Y43.776 E168.0643
G1 X134.919 Y43.514 E168.0879
G1 X134.919 Y57.406 E168.7810
G1 X134.525 Y57.144 E168.8045
G1 X134.525 Y43.252 E169.4976
G1 X134.132 Y42.990 E169.5212
G1 X134.132 Y56.882 E170.2143
G1 X133.738 Y56.620 E170.2379
G1 X133.738 Y42.859 E170.9244
G1 X133.344 Y42.597 E170.9480
G1 X133.344 Y56.358 E171.6346
G1 X132.951 Y56.227 E171.6552
G1 X132.951 Y42.335 E172.3483
G1 X132.557 Y42.073 E172.3719
G1 X132.557 Y55.965 E173.0650
G1 X132.164 Y55.703 E173.0886
G1 X132.164 Y41.811 E173.7817
G1 X131.770 Y41.680 E173.8024
G1 X131.770 Y55.441 E174.4889
G1 X131.377 Y55.178 E174.5125
G1 X131.377 Y41.417 E175.1990
G1 X130.983 Y41.155 E175.2226
G1 X130.983 Y54.916 E175.9092
G1 X130.589 Y54.654 E175.9328
G1 X130.589 Y40.893 E176.6193
G1 X130.196 Y40.631 E176.6429
G1 X130.196 Y54.392 E177.3294
G1 X129.802 Y54.130 E177.3530
G1 X129.802 Y40.369 E178.0396
G1 X129.409 Y40.107 E178.0631
G1 X129.409 Y53.868 E178.7497
G1 X129.015 Y53.606 E178.7733
G1 X129.015 Y39.976 E179.4533
G1 X128.622 Y39.714 E179.4769
G1 X128.622 Y53.344 E180.1569
G1 X128.228 Y53.081 E180.1805
G1 X128.228 Y39.452 E180.8605
G1 X127.835 Y39.189 E180.8841
G1 X127.835 Y52.819 E181.5641
G1 X127.441 Y52.688 E181.5848
G1 X127.441 Y39.058 E182.2648
G1 X127.047 Y38.796 E182.2884
G1 X127.047 Y52.426 E182.9684
G1 X126.654 Y52.164 E182.9920
G1 X126.654 Y38.534 E183.6720
G1 X126.260 Y38.403 E183.6927
G1 X126.260 Y51.902 E184.3661
G1 X125.867 Y51.640 E184.3897
G1 X125.867 Y38.141 E185.0632
G1 X125.473 Y38.010 E185.0839
G1 X125.473 Y51.378 E185.7508
G1 X125.080 Y51.116 E185.7744
G1 X125.080 Y37.748 E186.4413
G1 X124.686 Y37.617 E186.4620
G1 X124.686 Y50.985 E187.1289
G1 X124.292 Y50.722 E187.1525
G1 X124.292 Y37.355 E187.8195
G1 X123.899 Y37.224 E187.8402
G1 X123.899 Y50.591 E188.5071
G1 X123.505 Y50.329 E188.5307
G1 X123.505 Y36.961 E189.1976
G1 X123.112 Y36.830 E189.2183
G1 X123.112 Y50.067 E189.8787
G1 X122.718 Y49.936 E189.8994
G1 X122.718 Y36.568 E190.5663
G1 X122.325 Y36.437 E190.5870
G1 X122.325 Y49.674 E191.2474
G1 X121.931 Y49.543 E191.2681
G1 X121.931 Y36.306 E191.9285
G1 X121.537 Y36.044 E191.9520
G1 X121.537 Y49.281 E192.6124
G1 X121.144 Y49.150 E192.6331
G1 X121.144 Y35.913 E193.2935
G1 X120.750 Y35.651 E193.3171
G1 X120.750 Y48.888 E193.9775
G1 X120.357 Y48.626 E194.0011
G1 X120.357 Y35.520 E194.6549
G1 X119.963 Y35.258 E194.6785
G1 X119.963 Y48.494 E195.3389
G1 X119.570 Y48.232 E195.3625
G1 X119.570 Y35.127 E196.0163
G1 X119.176 Y34.865 E196.0399
G1 X119.176 Y48.101 E196.7003
G1 X118.783 Y47.839 E196.7239
G1 X118.783 Y34.733 E197.3778
G1 X118.389 Y34.471 E197.4014
G1 X118.389 Y47.577 E198.0552
G1 X117.995 Y47.446 E198.0759
G1 X117.995 Y34.340 E198.7298
G1 X117.602 Y34.078 E198.7533
G1 X117.602 Y47.184 E199.4072
G1 X117.208 Y47.053 E199.4279
G1 X117.208 Y33.947 E200.0817
G1 X116.815 Y33.685 E200.1053
G1 X116.815 Y46.791 E200.7592
G1 X116.421 Y46.660 E200.7799
G1 X116.421 Y33.554 E201.4337
G1 X116.028 Y33.423 E201.4544
G1 X116.028 Y46.398 E202.1017
G1 X115.634 Y46.135 E202.1253
G1 X115.634 Y33.292 E202.7661
G1 X115.240 Y33.030 E202.7897
G1 X115.240 Y46.004 E203.4370
G1 X114.847 Y45.742 E203.4606
G1 X114.847 Y32.899 E204.1014
G1 X114.453 Y32.768 E204.1221
G1 X114.453 Y45.611 E204.7628
G1 X114.060 Y45.480 E204.7835
G1 X114.060 Y32.637 E205.4243
G1 X113.666 Y32.374 E205.4479
G1 X113.666 Y45.218 E206.0887
G1 X113.273 Y45.087 E206.1094
G1 X113.273 Y32.243 E206.7501
G1 X112.879 Y32.112 E206.7708
G1 X112.879 Y44.956 E207.4116
G1 X112.486 Y44.825 E207.4323
G1 X112.486 Y31.981 E208.0731
G1 X112.092 Y31.719 E208.0967
G1 X112.092 Y44.563 E208.7374
G1 X111.698 Y44.432 E208.7581
G1 X111.698 Y31.588 E209.3989
G1 X111.305 Y31.457 E209.4196
G1 X111.305 Y44.301 E210.0604
G1 X110.911 Y44.039 E210.0840
G1 X110.911 Y31.326 E210.7182
G1 X110.518 Y31.195 E210.7389
G1 X110.518 Y43.907 E211.3731
G1 X110.124 Y43.776 E211.3938
G1 X110.124 Y30.933 E212.0346
G1 X109.731 Y30.802 E212.0553
G1 X109.731 Y43.514 E212.6895
G1 X109.337 Y43.383 E212.7102
G1 X109.337 Y30.671 E213.3444
G1 X108.943 Y30.540 E213.3651
G1 X108.943 Y43.252 E213.9994
G1 X108.550 Y43.121 E214.0201
G1 X108.550 Y30.278 E214.6608
G1 X108.156 Y30.146 E214.6815
G1 X108.156 Y42.859 E215.3158
G1 X107.763 Y42.728 E215.3365
G1 X107.763 Y30.015 E215.9707
G1 X107.369 Y29.884 E215.9914
G1 X107.369 Y42.597 E216.6256
G1 X106.976 Y42.335 E216.6492
G1 X106.976 Y29.622 E217.2834
G1 X106.582 Y29.491 E217.3041
G1 X106.582 Y42.204 E217.9384
G1 X106.188 Y42.073 E217.9590
G1 X106.188 Y29.360 E218.5933
G1 X105.795 Y29.229 E218.6140
G1 X105.795 Y41.811 E219.2417
G1 X105.401 Y41.680 E219.2624
G1 X105.401 Y29.098 E219.8901
G1 X105.008 Y28.967 E219.9107
G1 X105.008 Y41.548 E220.5384
G1 X104.614 Y41.417 E220.5591
G1 X104.614 Y28.836 E221.1868
G1 X104.221 Y28.705 E221.2075
G1 X104.221 Y41.286 E221.8352
G1 X103.827 Y41.155 E221.8559
G1 X103.827 Y28.574 E222.4836
G1 X103.434 Y28.443 E222.5043
G1 X103.434 Y41.024 E223.1320
G1 X103.040 Y40.893 E223.1527
G1 X103.040 Y28.312 E223.7804
G1 X102.646 Y28.181 E223.8011
G1 X102.646 Y40.631 E224.4223
G1 X102.253 Y40.500 E224.4429
G1 X102.253 Y28.050 E225.0641
G1 X101.859 Y27.918 E225.0848
G1 X101.859 Y40.369 E225.7059
G1 X101.466 Y40.238 E225.7266
G1 X101.466 Y27.787 E226.3478
G1 X101.072 Y27.656 E226.3685
G1 X101.072 Y40.107 E226.9896
G1 X100.679 Y39.976 E227.0103
G1 X100.679 Y27.525 E227.6315
G1 X100.285 Y27.394 E227.6522
G1 X100.285 Y39.845 E228.2733
G1 X99.891 Y39.714 E228.2940
G1 X99.891 Y27.263 E228.9152
G1 X99.498 Y27.132 E228.9359
G1 X99.498 Y39.583 E229.5570
G1 X99.104 Y39.452 E229.5777
G1 X99.104 Y27.132 E230.1923
G1 X98.711 Y27.001 E230.2130
G1 X98.711 Y39.320 E230.8276
G1 X98.317 Y39.189 E230.8483
G1 X98.317 Y26.870 E231.4630
G1 X97.924 Y26.739 E231.4837
G1 X97.924 Y39.058 E232.0983
G1 X97.530 Y38.927 E232.1190
G1 X97.530 Y26.608 E232.7336
G1 X97.137 Y26.477 E232.7543
G1 X97.137 Y38.796 E233.3689
G1 X96.743 Y38.665 E233.3896
G1 X96.743 Y26.346 E234.0042
G1 X96.349 Y26.215 E234.0249
G1 X96.349 Y38.534 E234.6395
G1 X95.956 Y38.403 E234.6602
G1 X95.956 Y26.084 E235.2749
G1 X95.562 Y25.953 E235.2955
G1 X95.562 Y38.272 E235.9102
G1 X95.169 Y38.141 E235.9309
G1 X95.169 Y25.822 E236.5455
G1 X94.775 Y25.691 E236.5662
G1 X94.775 Y38.010 E237.1808
G1 X94.382 Y37.879 E237.2015
G1 X94.382 Y25.691 E237.8096
G1 X93.988 Y25.559 E237.8303
G1 X93.988 Y37.617 E238.4318
G1 X93.594 Y37.617 E238.4514
G1 X93.594 Y25.428 E239.0595
G1 X93.201 Y25.297 E239.0802
G1 X93.201 Y37.486 E239.6883
G1 X92.807 Y37.355 E239.7090
G1 X92.807 Y25.297 E240.3105
G1 X92.414 Y25.166 E240.3312
G1 X92.414 Y37.224 E240.9328
G1 X92.020 Y37.093 E240.9535
G1 X92.020 Y25.035 E241.5550
G1 X91.627 Y24.904 E241.5757
G1 X91.627 Y37.093 E242.1838
G1 X91.233 Y36.961 E242.2045
G1 X91.233 Y24.904 E242.8060
G1 X90.839 Y24.773 E242.8267
G1 X90.839 Y36.830 E243.4283
G1 X90.446 Y36.699 E243.4489
G1 X90.446 Y24.642 E244.0505
G1 X90.052 Y24.511 E244.0712
G1 X90.052 Y36.568 E244.6727
G1 X89.659 Y36.568 E244.6923
G1 X89.659 Y24.511 E245.2939
G1 X89.265 Y24.380 E245.3146
G1 X89.265 Y36.437 E245.9161
G1 X88.872 Y36.306 E245.9368
G1 X88.872 Y24.249 E246.5383
G1 X88.478 Y24.118 E246.5590
G1 X88.478 Y36.175 E247.1605
G1 X88.085 Y36.044 E247.1812
G1 X88.085 Y24.118 E247.7762
G1 X87.691 Y23.987 E247.7969
G1 X87.691 Y36.044 E248.3985
G1 X87.297 Y35.913 E248.4191
G1 X87.297 Y23.856 E249.0207
G1 X86.904 Y23.856 E249.0403
G1 X86.904 Y35.782 E249.6353
G1 X86.510 Y35.651 E249.6560
G1 X86.510 Y23.725 E250.2510
G1 X86.117 Y23.594 E250.2717
G1 X86.117 Y35.520 E250.8667
G1 X85.723 Y35.520 E250.8863
G1 X85.723 Y23.463 E251.4879
G1 X85.330 Y23.463 E251.5075
G1 X85.330 Y35.389 E252.1025
G1 X84.936 Y35.258 E252.1232
G1 X84.936 Y23.331 E252.7182
G1 X84.542 Y23.200 E252.7389
G1 X84.542 Y35.127 E253.3339
G1 X84.149 Y34.996 E253.3546
G1 X84.149 Y23.200 E253.9430
G1 X83.755 Y23.069 E253.9637
G1 X83.755 Y34.996 E254.5587
G1 X83.362 Y34.865 E254.5794
G1 X83.362 Y23.069 E255.1679
G1 X82.968 Y22.938 E255.1886
G1 X82.968 Y34.733 E255.7770
G1 X82.575 Y34.602 E255.7977
G1 X82.575 Y22.938 E256.3796
G1 X82.181 Y22.807 E256.4003
G1 X82.181 Y34.602 E256.9888
G1 X81.788 Y34.471 E257.0095
G1 X81.788 Y22.807 E257.5914
G1 X81.394 Y22.676 E257.6121
G1 X81.394 Y34.471 E258.2005
G1 X81.000 Y34.340 E258.2212
G1 X81.000 Y22.676 E258.8031
G1 X80.607 Y22.545 E258.8238
G1 X80.607 Y34.340 E259.4123
G1 X80.213 Y34.209 E259.4330
G1 X80.213 Y22.545 E260.0149
G1 X79.820 Y22.414 E260.0356
G1 X79.820 Y34.209 E260.6241
G1 X79.426 Y34.078 E260.6448
G1 X79.426 Y22.414 E261.2267
G1 X79.033 Y22.283 E261.2474
G1 X79.033 Y33.947 E261.8293
G1 X78.639 Y33.947 E261.8489
G1 X78.639 Y22.152 E262.4374
G1 X78.245 Y22.152 E262.4570
G1 X78.245 Y33.816 E263.0389
G1 X77.852 Y33.816 E263.0585
G1 X77.852 Y22.021 E263.6470
G1 X77.458 Y22.021 E263.6666
G1 X77.458 Y33.685 E264.2486
G1 X77.065 Y33.685 E264.2682
G1 X77.065 Y21.890 E264.8567
G1 X76.671 Y21.890 E264.8763
G1 X76.671 Y33.554 E265.4582
G1 X76.278 Y33.423 E265.4789
G1 X76.278 Y21.759 E266.0609
G1 X75.884 Y21.759 E266.0805
G1 X75.884 Y33.423 E266.6624
G1 X75.491 Y33.292 E266.6831
G1 X75.491 Y21.628 E267.2651
G1 X75.097 Y21.628 E267.2847
G1 X75.097 Y33.292 E267.8666
G1 X74.703 Y33.161 E267.8873
G1 X74.703 Y21.497 E268.4693
G1 X74.310 Y21.497 E268.4889
G1 X74.310 Y33.161 E269.0708
G1 X73.916 Y33.030 E269.0915
G1 X73.916 Y21.366 E269.6734
G1 X73.523 Y21.366 E269.6931
G1 X73.523 Y33.030 E270.2750
G1 X73.129 Y32.899 E270.2957
G1 X73.129 Y21.366 E270.8711
G1 X72.736 Y21.366 E270.8907
G1 X72.736 Y32.768 E271.4595
G1 X72.342 Y32.768 E271.4792
G1 X72.342 Y21.235 E272.0545
G1 X71.948 Y21.235 E272.0742
G1 X71.948 Y32.637 E272.6430
G1 X71.555 Y32.637 E272.6626
G1 X71.555 Y21.235 E273.2315
G1 X71.161 Y21.104 E273.2522
G1 X71.161 Y32.637 E273.8276
G1 X70.768 Y32.505 E273.8482
G1 X70.768 Y21.104 E274.4171
G1 X70.374 Y21.104 E274.4367
G1 X70.374 Y32.505 E275.0056
G1 X69.981 Y32.505 E275.0252
G1 X69.981 Y20.972 E275.6006
G1 X69.587 Y20.972 E275.6202
G1 X69.587 Y32.374 E276.1890
G1 X69.193 Y32.374 E276.2087
G1 X69.193 Y20.972 E276.7775
G1 X68.800 Y20.841 E276.7982
G1 X68.800 Y32.374 E277.3736
G1 X68.406 Y32.243 E277.3943
G1 X68.406 Y20.841 E277.9631
G1 X68.013 Y20.841 E277.9827
G1 X68.013 Y32.243 E278.5516
G1 X67.619 Y32.243 E278.5712
G1 X67.619 Y20.841 E279.1401
G1 X67.226 Y20.710 E279.1607
G1 X67.226 Y32.112 E279.7296
G1 X66.832 Y32.112 E279.7492
G1 X66.832 Y20.710 E280.3181
G1 X66.438 Y20.710 E280.3377
G1 X66.438 Y32.112 E280.9065
G1 X66.045 Y31.981 E280.9272
G1 X66.045 Y20.579 E281.4961
G1 X65.651 Y20.579 E281.5157
G1 X65.651 Y31.981 E282.0845
G1 X65.258 Y31.981 E282.1042
G1 X65.258 Y20.579 E282.6730
G1 X64.864 Y20.448 E282.6937
G1 X64.864 Y31.850 E283.2626
G1 X64.471 Y31.850 E283.2822
G1 X64.471 Y20.448 E283.8510
G1 X64.077 Y20.448 E283.8706
G1 X64.077 Y31.850 E284.4395
G1 X63.684 Y31.719 E284.4602
G1 X63.684 Y20.317 E285.0290
G1 X63.290 Y20.317 E285.0487
G1 X63.290 Y31.719 E285.6175
G1 X62.896 Y31.719 E285.6371
G1 X62.896 Y20.317 E286.2060
G1 X62.503 Y20.317 E286.2256
G1 X62.503 Y31.588 E286.7879
G1 X62.109 Y31.588 E286.8075
G1 X62.109 Y20.317 E287.3699
G1 X61.716 Y20.317 E287.3895
G1 X61.716 Y31.588 E287.9518
G1 X61.322 Y31.457 E287.9725
G1 X61.322 Y20.317 E288.5282
G1 X60.929 Y20.317 E288.5479
G1 X60.929 Y31.457 E289.1036
G1 X60.535 Y31.457 E289.1232
G1 X60.535 Y20.317 E289.6790
G1 X60.141 Y20.186 E289.6997
G1 X60.141 Y31.326 E290.2554
G1 X59.748 Y31.326 E290.2751
G1 X59.748 Y20.186 E290.8308
G1 X59.354 Y20.186 E290.8504
G1 X59.354 Y31.326 E291.4062
G1 X58.961 Y31.326 E291.4258
G1 X58.961 Y20.186 E291.9816
G1 X58.567 Y20.186 E292.0012
G1 X58.567 Y31.326 E292.5570
G1 X58.174 Y31.326 E292.5766
G1 X58.174 Y20.186 E293.1323
G1 X57.780 Y20.186 E293.1520
G1 X57.780 Y31.326 E293.7077
G1 X57.386 Y31.326 E293.7273
G1 X57.386 Y20.186 E294.2831
G1 X56.993 Y20.186 E294.3027
G1 X56.993 Y31.195 E294.8519
G1 X56.599 Y31.195 E294.8716
G1 X56.599 Y20.186 E295.4208
G1 X56.206 Y20.055 E295.4415
G1 X56.206 Y31.195 E295.9972
G1 X55.812 Y31.195 E296.0169
G1 X55.812 Y20.055 E296.5726
G1 X55.419 Y20.055 E296.5922
G1 X55.419 Y31.195 E297.1480
G1 X55.025 Y31.195 E297.1676
G1 X55.025 Y20.055 E297.7234
G1 X54.632 Y20.055 E297.7430
G1 X54.632 Y31.195 E298.2987
G1 X54.238 Y31.195 E298.3184
G1 X54.238 Y20.055 E298.8741
G1 X53.844 Y20.055 E298.8938
G1 X53.844 Y31.195 E299.4495
G1 X53.451 Y31.195 E299.4691
G1 X53.451 Y20.055 E300.0249
G1 X53.057 Y20.055 E300.0445
G1 X53.057 Y31.064 E300.5937
G1 X52.664 Y31.064 E300.6134
G1 X52.664 Y20.055 E301.1626
G1 X52.270 Y20.055 E301.1822
G1 X52.270 Y31.064 E301.7314
G1 X51.877 Y31.064 E301.7511
G1 X51.877 Y20.055 E302.3003
G1 X51.483 Y20.055 E302.3199
G1 X51.483 Y31.064 E302.8691
G1 X51.089 Y31.064 E302.8887
G1 X51.089 Y20.055 E303.4380
G1 X50.696 Y20.055 E303.4576
G1 X50.696 Y31.064 E304.0068
G1 X50.302 Y31.064 E304.0264
G1 X50.302 Y20.055 E304.5757
G1 X49.909 Y20.055 E304.5953
G1 X49.909 Y31.064 E305.1445
G1 X49.515 Y31.064 E305.1641
G1 X49.515 Y20.055 E305.7134
G1 X49.122 Y20.317 E305.7370
G1 X49.122 Y30.671 E306.2535
G1 X48.728 Y30.278 E306.2812
G1 X48.728 Y20.710 E306.7585
G1 X48.334 Y21.104 E306.7863
G1 X48.334 Y29.884 E307.2243
G1 X47.941 Y29.491 E307.2521
G1 X47.941 Y21.497 E307.6509
G1 X47.547 Y21.890 E307.6787
G1 X47.547 Y29.098 E308.0383
G1 X47.154 Y28.705 E308.0660
G1 X47.154 Y22.283 E308.3864
G0 F4800 E307.3864
G0 X199.464 Y120.838 F10800
G0 F4800 E308.3864
G1 X199.464 Y180.993 E311.3876 F3600
G1 X199.070 Y180.600 E311.4153
G1 X199.070 Y119.921 E314.4426
G1 X198.676 Y119.003 E314.4924
G1 X198.676 Y169.722 E317.0228
G0 F4800 E316.0228
G0 X209.696 Y166.577 F10800
G0 F4800 E317.0228
G1 X209.696 Y180.993 E317.7420 F3600
G0 F4800 E316.7420
G0 X199.857 Y181.387 F10800
G0 F4800 E317.7420
G1 X199.857 Y121.887 E320.7105 F3600
G1 X200.251 Y122.804 E320.7603
G1 X200.251 Y181.780 E323.7026
G1 X200.644 Y182.173 E323.7304
G1 X200.644 Y123.852 E326.6400
G1 X201.038 Y125.032 E326.7020
G1 X201.038 Y182.566 E329.5724
G1 X201.431 Y182.959 E329.6002
G1 X201.431 Y126.211 E332.4313
G1 X201.825 Y127.522 E332.4996
G1 X201.825 Y183.090 E335.2719
G1 X202.219 Y183.090 E335.2915
G1 X202.219 Y128.702 E338.0050
G1 X202.612 Y129.881 E338.0670
G1 X202.612 Y183.090 E340.7217
G1 X203.006 Y183.090 E340.7413
G1 X203.006 Y131.061 E343.3370
G1 X203.399 Y132.240 E343.3991
G1 X203.399 Y183.090 E345.9360
G1 X203.793 Y183.090 E345.9556
G1 X203.793 Y133.420 E348.4337
G1 X204.186 Y134.861 E348.5083
G1 X204.186 Y183.090 E350.9144
G1 X204.580 Y183.090 E350.9341
G1 X204.580 Y136.434 E353.2618
G1 X204.974 Y138.007 E353.3426
G1 X204.974 Y183.090 E355.5919
G1 X205.367 Y183.090 E355.6115
G1 X205.367 Y139.579 E357.7823
G1 X205.761 Y141.152 E357.8631
G1 X205.761 Y183.090 E359.9555
G1 X206.154 Y183.090 E359.9751
G1 X206.154 Y142.594 E361.9955
G1 X206.548 Y144.166 E362.0763
G1 X206.548 Y183.090 E364.0183
G1 X206.941 Y183.090 E364.0379
G1 X206.941 Y146.394 E365.8687
G0 F4800 E364.8687
G0 X207.335 Y148.622 F10800
G0 F4800 E365.8687
G1 X207.335 Y183.090 E367.5883 F3600
G1 X207.729 Y182.959 E367.6090
G1 X207.729 Y150.850 E369.2109
G0 F4800 E368.2109
G0 X208.122 Y153.078 F10800
G0 F4800 E369.2109
G1 X208.122 Y182.566 E370.6820 F3600
G1 X208.516 Y182.173 E370.7098
G1 X208.516 Y155.306 E372.0502
G0 F4800 E371.0502
G0 X208.909 Y158.714 F10800
G0 F4800 E372.0502
G1 X208.909 Y181.780 E373.2009 F3600
G1 X209.303 Y181.387 E373.2287
G1 X209.303 Y162.645 E374.1637



; ------------------------------------
; Raft Layer #3
; ------------------------------------
G21 ; mm
G90 ; abs
G92 E0 ; reset extr
M106 S0
;segType:Raft
G0 F4800 E-1.0000
G0 F300 Z1.200
G0 X207.717 Y182.845 F10800
G0 F4800 E0.0000
G1 X201.295 Y182.845 E0.3204 F3600
G1 X200.902 Y182.452 E0.3481
G1 X208.110 Y182.452 E0.7078
G1 X208.503 Y182.058 E0.7355
G1 X200.509 Y182.058 E1.1344
G1 X200.116 Y181.665 E1.1621
G1 X208.897 Y181.665 E1.6002
G1 X209.290 Y181.271 E1.6279
G1 X199.722 Y181.271 E2.1053
G1 X199.329 Y180.878 E2.1330
G1 X209.683 Y180.878 E2.6495
G1 X209.945 Y180.484 E2.6731
G1 X198.936 Y180.484 E3.2224
G1 X198.936 Y180.090 E3.2420
G1 X209.945 Y180.090 E3.7912
G1 X209.945 Y179.697 E3.8109
G1 X198.936 Y179.697 E4.3601
G1 X198.936 Y179.303 E4.3797
G1 X209.945 Y179.303 E4.9290
G1 X209.945 Y178.910 E4.9486
G1 X198.936 Y178.910 E5.4978
G1 X198.936 Y178.516 E5.5175
G1 X209.945 Y178.516 E6.0667
G1 X209.945 Y178.123 E6.0863
G1 X198.936 Y178.123 E6.6356
G1 X198.936 Y177.729 E6.6552
G1 X209.945 Y177.729 E7.2044
G1 X209.945 Y177.335 E7.2241
G1 X198.936 Y177.335 E7.7733
G1 X198.805 Y176.942 E7.7940
G1 X209.945 Y176.942 E8.3498
G1 X209.945 Y176.548 E8.3694
G1 X198.805 Y176.548 E8.9252
G1 X198.805 Y176.155 E8.9448
G1 X209.945 Y176.155 E9.5006
G1 X209.945 Y175.761 E9.5202
G1 X198.805 Y175.761 E10.0760
G1 X198.805 Y175.368 E10.0956
G1 X209.945 Y175.368 E10.6514
G1 X209.945 Y174.974 E10.6710
G1 X198.805 Y174.974 E11.2268
G1 X198.805 Y174.580 E11.2464
G1 X209.945 Y174.580 E11.8022
G1 X209.814 Y174.187 E11.8229
G1 X198.805 Y174.187 E12.3721
G1 X198.805 Y173.793 E12.3918
G1 X209.814 Y173.793 E12.9410
G1 X209.814 Y173.400 E12.9606
G1 X198.805 Y173.400 E13.5099
G1 X198.674 Y173.006 E13.5306
G1 X209.814 Y173.006 E14.0863
G1 X209.814 Y172.613 E14.1060
G1 X198.674 Y172.613 E14.6617
G1 X198.674 Y172.219 E14.6814
G1 X209.814 Y172.219 E15.2372
G1 X209.814 Y171.825 E15.2568
G1 X198.674 Y171.825 E15.8126
G1 X198.674 Y171.432 E15.8322
G1 X209.814 Y171.432 E16.3880
G1 X209.814 Y171.038 E16.4076
G1 X198.674 Y171.038 E16.9634
G1 X198.674 Y170.645 E16.9830
G1 X209.814 Y170.645 E17.5388
G1 X209.683 Y170.251 E17.5595
G1 X198.674 Y170.251 E18.1087
G1 X198.674 Y169.858 E18.1283
G1 X209.683 Y169.858 E18.6776
G1 X209.683 Y169.464 E18.6972
G1 X198.543 Y169.464 E19.2530
G1 X198.543 Y169.071 E19.2726
G1 X209.683 Y169.071 E19.8284
G1 X209.683 Y168.677 E19.8480
G1 X198.543 Y168.677 E20.4038
G1 X198.412 Y168.283 E20.4245
G1 X209.683 Y168.283 E20.9868
G1 X209.683 Y167.890 E21.0064
G1 X198.412 Y167.890 E21.5687
G1 X198.412 Y167.496 E21.5884
G1 X209.683 Y167.496 E22.1507
G1 X209.683 Y167.103 E22.1703
G1 X198.281 Y167.103 E22.7392
G1 X198.281 Y166.709 E22.7588
G1 X209.683 Y166.709 E23.3277
G1 X209.552 Y166.316 E23.3483
G1 X198.281 Y166.316 E23.9107
G1 X198.150 Y165.922 E23.9313
G1 X209.552 Y165.922 E24.5002
G1 X209.552 Y165.528 E24.5198
G1 X198.150 Y165.528 E25.0887
G1 X198.150 Y165.135 E25.1083
G1 X209.421 Y165.135 E25.6706
G1 X209.421 Y164.741 E25.6903
G1 X198.019 Y164.741 E26.2591
G1 X198.019 Y164.348 E26.2787
G1 X209.421 Y164.348 E26.8476
G1 X209.421 Y163.954 E26.8672
G1 X198.019 Y163.954 E27.4361
G1 X197.888 Y163.561 E27.4568
G1 X209.290 Y163.561 E28.0256
G1 X209.290 Y163.167 E28.0453
G1 X197.888 Y163.167 E28.6141
G1 X197.888 Y162.773 E28.6337
G1 X209.290 Y162.773 E29.2026
G1 X209.159 Y162.380 E29.2233
G1 X197.757 Y162.380 E29.7921
G1 X197.757 Y161.986 E29.8118
G1 X209.159 Y161.986 E30.3806
G1 X209.159 Y161.593 E30.4002
G1 X197.757 Y161.593 E30.9691
G1 X197.626 Y161.199 E30.9898
G1 X209.028 Y161.199 E31.5586
G1 X209.028 Y160.806 E31.5783
G1 X197.626 Y160.806 E32.1471
G1 X197.626 Y160.412 E32.1668
G1 X209.028 Y160.412 E32.7356
G1 X209.028 Y160.019 E32.7552
G1 X197.495 Y160.019 E33.3306
G1 X197.495 Y159.625 E33.3503
G1 X208.897 Y159.625 E33.9191
G1 X208.897 Y159.231 E33.9387
G1 X197.495 Y159.231 E34.5076
G1 X197.363 Y158.838 E34.5283
G1 X208.897 Y158.838 E35.1037
G1 X208.765 Y158.444 E35.1244
G1 X197.363 Y158.444 E35.6932
G1 X197.363 Y158.051 E35.7128
G1 X208.765 Y158.051 E36.2817
G1 X208.765 Y157.657 E36.3013
G1 X197.232 Y157.657 E36.8767
G1 X197.101 Y157.264 E36.8974
G1 X208.634 Y157.264 E37.4728
G1 X208.634 Y156.870 E37.4924
G1 X197.101 Y156.870 E38.0678
G1 X196.970 Y156.476 E38.0885
G1 X208.634 Y156.476 E38.6704
G1 X208.634 Y156.083 E38.6901
G1 X196.970 Y156.083 E39.2720
G1 X196.839 Y155.689 E39.2927
G1 X208.503 Y155.689 E39.8746
G1 X208.503 Y155.296 E39.8942
G1 X196.839 Y155.296 E40.4762
G1 X196.708 Y154.902 E40.4969
G1 X208.372 Y154.902 E41.0788
G1 X208.241 Y154.509 E41.0995
G1 X196.708 Y154.509 E41.6749
G1 X196.577 Y154.115 E41.6956
G1 X208.241 Y154.115 E42.2775
G1 X208.110 Y153.721 E42.2982
G1 X196.446 Y153.721 E42.8801
G1 X196.446 Y153.328 E42.8997
G1 X208.110 Y153.328 E43.4817
G1 X207.979 Y152.934 E43.5024
G1 X196.315 Y152.934 E44.0843
G1 X196.315 Y152.541 E44.1039
G1 X207.979 Y152.541 E44.6858
G1 X207.848 Y152.147 E44.7065
G1 X196.184 Y152.147 E45.2885
G1 X196.184 Y151.754 E45.3081
G1 X207.848 Y151.754 E45.8900
G1 X207.717 Y151.360 E45.9107
G1 X196.053 Y151.360 E46.4926
G1 X196.053 Y150.967 E46.5123
G1 X207.717 Y150.967 E47.0942
G1 X207.586 Y150.573 E47.1149
G1 X195.922 Y150.573 E47.6968
G1 X195.791 Y150.179 E47.7175
G1 X207.586 Y150.179 E48.3060
G1 X207.455 Y149.786 E48.3267
G1 X195.791 Y149.786 E48.9086
G1 X195.660 Y149.392 E48.9293
G1 X207.455 Y149.392 E49.5178
G1 X207.324 Y148.999 E49.5384
G1 X195.660 Y148.999 E50.1204
G1 X195.529 Y148.605 E50.1411
G1 X207.324 Y148.605 E50.7295
G1 X207.193 Y148.212 E50.7502
G1 X195.529 Y148.212 E51.3322
G1 X195.398 Y147.818 E51.3528
G1 X207.193 Y147.818 E51.9413
G1 X207.062 Y147.424 E51.9620
G1 X195.398 Y147.424 E52.5439
G1 X195.267 Y147.031 E52.5646
G1 X207.062 Y147.031 E53.1531
G1 X206.931 Y146.637 E53.1738
G1 X195.135 Y146.637 E53.7622
G1 X195.004 Y146.244 E53.7829
G1 X206.800 Y146.244 E54.3714
G1 X206.800 Y145.850 E54.3910
G1 X194.873 Y145.850 E54.9860
G1 X194.873 Y145.457 E55.0057
G1 X206.669 Y145.457 E55.5941
G1 X206.669 Y145.063 E55.6138
G1 X194.742 Y145.063 E56.2088
G1 X194.611 Y144.670 E56.2295
G1 X206.537 Y144.670 E56.8245
G1 X206.537 Y144.276 E56.8441
G1 X194.480 Y144.276 E57.4456
G1 X194.349 Y143.882 E57.4663
G1 X206.406 Y143.882 E58.0679
G1 X206.275 Y143.489 E58.0886
G1 X194.349 Y143.489 E58.6836
G1 X194.218 Y143.095 E58.7043
G1 X206.275 Y143.095 E59.3058
G1 X206.144 Y142.702 E59.3265
G1 X194.087 Y142.702 E59.9280
G1 X193.956 Y142.308 E59.9487
G1 X206.013 Y142.308 E60.5503
G1 X205.882 Y141.915 E60.5710
G1 X193.825 Y141.915 E61.1725
G1 X193.825 Y141.521 E61.1921
G1 X205.751 Y141.521 E61.7871
G1 X205.751 Y141.127 E61.8068
G1 X193.694 Y141.127 E62.4083
G1 X193.563 Y140.734 E62.4290
G1 X205.620 Y140.734 E63.0306
G1 X205.489 Y140.340 E63.0512
G1 X193.432 Y140.340 E63.6528
G1 X193.301 Y139.947 E63.6735
G1 X205.358 Y139.947 E64.2750
G1 X205.358 Y139.553 E64.2947
G1 X193.301 Y139.553 E64.8962
G1 X193.170 Y139.160 E64.9169
G1 X205.227 Y139.160 E65.5184
G1 X205.096 Y138.766 E65.5391
G1 X193.039 Y138.766 E66.1407
G1 X192.908 Y138.372 E66.1614
G1 X204.965 Y138.372 E66.7629
G1 X204.965 Y137.979 E66.7825
G1 X192.776 Y137.979 E67.3906
G1 X192.776 Y137.585 E67.4103
G1 X204.834 Y137.585 E68.0118
G1 X204.703 Y137.192 E68.0325
G1 X192.645 Y137.192 E68.6340
G1 X192.514 Y136.798 E68.6547
G1 X204.572 Y136.798 E69.2563
G1 X204.572 Y136.405 E69.2759
G1 X192.383 Y136.405 E69.8840
G1 X192.252 Y136.011 E69.9047
G1 X204.441 Y136.011 E70.5128
G1 X204.310 Y135.618 E70.5335
G1 X192.121 Y135.618 E71.1415
G1 X191.990 Y135.224 E71.1622
G1 X204.178 Y135.224 E71.7703
G1 X204.178 Y134.830 E71.7899
G1 X191.859 Y134.830 E72.4046
G1 X191.728 Y134.437 E72.4253
G1 X204.047 Y134.437 E73.0399
G1 X203.916 Y134.043 E73.0606
G1 X191.597 Y134.043 E73.6752
G1 X191.466 Y133.650 E73.6959
G1 X203.785 Y133.650 E74.3105
G1 X203.654 Y133.256 E74.3312
G1 X191.335 Y133.256 E74.9458
G1 X191.204 Y132.863 E74.9665
G1 X203.523 Y132.863 E75.5811
G1 X203.392 Y132.469 E75.6018
G1 X191.073 Y132.469 E76.2164
G1 X190.942 Y132.075 E76.2371
G1 X203.261 Y132.075 E76.8517
G1 X203.130 Y131.682 E76.8724
G1 X190.811 Y131.682 E77.4871
G1 X190.680 Y131.288 E77.5078
G1 X202.999 Y131.288 E78.1224
G1 X202.868 Y130.895 E78.1431
G1 X190.548 Y130.895 E78.7577
G1 X190.417 Y130.501 E78.7784
G1 X202.737 Y130.501 E79.3930
G1 X202.606 Y130.108 E79.4137
G1 X190.286 Y130.108 E80.0283
G1 X190.155 Y129.714 E80.0490
G1 X202.475 Y129.714 E80.6636
G1 X202.344 Y129.320 E80.6843
G1 X190.024 Y129.320 E81.2989
G1 X189.893 Y128.927 E81.3196
G1 X202.213 Y128.927 E81.9342
G1 X202.082 Y128.533 E81.9549
G1 X189.762 Y128.533 E82.5696
G1 X189.631 Y128.140 E82.5903
G1 X201.950 Y128.140 E83.2049
G1 X201.819 Y127.746 E83.2256
G1 X189.500 Y127.746 E83.8402
G1 X189.369 Y127.353 E83.8609
G1 X201.688 Y127.353 E84.4755
G1 X201.557 Y126.959 E84.4962
G1 X189.238 Y126.959 E85.1108
G1 X188.976 Y126.566 E85.1344
G1 X201.426 Y126.566 E85.7555
G1 X201.426 Y126.172 E85.7752
G1 X188.845 Y126.172 E86.4029
G1 X188.714 Y125.778 E86.4236
G1 X201.295 Y125.778 E87.0513
G1 X201.164 Y125.385 E87.0720
G1 X188.583 Y125.385 E87.6997
G1 X188.452 Y124.991 E87.7203
G1 X201.033 Y124.991 E88.3480
G1 X200.902 Y124.598 E88.3687
G1 X188.321 Y124.598 E88.9964
G1 X188.058 Y124.204 E89.0200
G1 X200.771 Y124.204 E89.6543
G1 X200.640 Y123.811 E89.6749
G1 X187.927 Y123.811 E90.3092
G1 X187.796 Y123.417 E90.3299
G1 X200.509 Y123.417 E90.9641
G1 X200.378 Y123.023 E90.9848
G1 X187.534 Y123.023 E91.6256
G1 X187.403 Y122.630 E91.6463
G1 X200.116 Y122.630 E92.2805
G1 X199.985 Y122.236 E92.3012
G1 X187.272 Y122.236 E92.9354
G1 X187.141 Y121.843 E92.9561
G1 X199.854 Y121.843 E93.5904
G1 X199.722 Y121.449 E93.6111
G1 X186.879 Y121.449 E94.2518
G1 X186.748 Y121.056 E94.2725
G1 X199.460 Y121.056 E94.9067
G1 X199.329 Y120.662 E94.9274
G1 X186.617 Y120.662 E95.5617
G1 X186.355 Y120.269 E95.5853
G1 X199.198 Y120.269 E96.2260
G1 X199.067 Y119.875 E96.2467
G1 X186.224 Y119.875 E96.8875
G1 X186.093 Y119.481 E96.9082
G1 X198.805 Y119.481 E97.5424
G1 X198.674 Y119.088 E97.5631
G1 X185.830 Y119.088 E98.2039
G1 X185.699 Y118.694 E98.2246
G1 X198.543 Y118.694 E98.8654
G1 X198.412 Y118.301 E98.8861
G1 X185.568 Y118.301 E99.5268
G1 X185.437 Y117.907 E99.5475
G1 X198.281 Y117.907 E100.1883
G1 X198.019 Y117.514 E100.2119
G1 X185.175 Y117.514 E100.8527
G1 X185.044 Y117.120 E100.8734
G1 X197.888 Y117.120 E101.5141
G1 X197.757 Y116.726 E101.5348
G1 X184.913 Y116.726 E102.1756
G1 X184.651 Y116.333 E102.1992
G1 X197.626 Y116.333 E102.8465
G1 X197.363 Y115.939 E102.8701
G1 X184.520 Y115.939 E103.5109
G1 X184.389 Y115.546 E103.5316
G1 X197.232 Y115.546 E104.1723
G1 X197.101 Y115.152 E104.1930
G1 X184.127 Y115.152 E104.8403
G1 X183.996 Y114.759 E104.8610
G1 X196.970 Y114.759 E105.5083
G1 X196.708 Y114.365 E105.5319
G1 X183.733 Y114.365 E106.1792
G1 X183.602 Y113.972 E106.1999
G1 X196.577 Y113.972 E106.8472
G1 X196.446 Y113.578 E106.8679
G1 X183.340 Y113.578 E107.5218
G1 X183.209 Y113.184 E107.5425
G1 X196.315 Y113.184 E108.1963
G1 X196.053 Y112.791 E108.2199
G1 X182.947 Y112.791 E108.8738
G1 X182.816 Y112.397 E108.8945
G1 X195.922 Y112.397 E109.5483
G1 X195.660 Y112.004 E109.5719
G1 X182.554 Y112.004 E110.2258
G1 X182.292 Y111.610 E110.2493
G1 X195.529 Y111.610 E110.9097
G1 X195.267 Y111.217 E110.9333
G1 X182.161 Y111.217 E111.5872
G1 X181.899 Y110.823 E111.6108
G1 X195.135 Y110.823 E112.2711
G1 X194.873 Y110.429 E112.2947
G1 X181.768 Y110.429 E112.9486
G1 X181.506 Y110.036 E112.9722
G1 X194.742 Y110.036 E113.6326
G1 X194.480 Y109.642 E113.6561
G1 X181.243 Y109.642 E114.3165
G1 X181.112 Y109.249 E114.3372
G1 X194.349 Y109.249 E114.9976
G1 X194.087 Y108.855 E115.0212
G1 X180.850 Y108.855 E115.6816
G1 X180.719 Y108.462 E115.7023
G1 X193.956 Y108.462 E116.3627
G1 X193.694 Y108.068 E116.3863
G1 X180.457 Y108.068 E117.0466
G1 X180.326 Y107.674 E117.0673
G1 X193.563 Y107.674 E117.7277
G1 X193.432 Y107.281 E117.7484
G1 X180.064 Y107.281 E118.4154
G1 X179.802 Y106.887 E118.4389
G1 X193.170 Y106.887 E119.1059
G1 X193.039 Y106.494 E119.1266
G1 X179.671 Y106.494 E119.7935
G1 X179.409 Y106.100 E119.8171
G1 X192.776 Y106.100 E120.4840
G1 X192.645 Y105.707 E120.5047
G1 X179.278 Y105.707 E121.1716
G1 X179.015 Y105.313 E121.1952
G1 X192.383 Y105.313 E121.8621
G1 X192.252 Y104.920 E121.8828
G1 X178.884 Y104.920 E122.5498
G1 X178.622 Y104.526 E122.5733
G1 X191.990 Y104.526 E123.2403
G1 X191.859 Y104.132 E123.2610
G1 X178.360 Y104.132 E123.9344
G1 X178.098 Y103.739 E123.9580
G1 X191.597 Y103.739 E124.6315
G1 X191.466 Y103.345 E124.6522
G1 X177.836 Y103.345 E125.3322
G1 X177.574 Y102.952 E125.3558
G1 X191.204 Y102.952 E126.0358
G1 X190.942 Y102.558 E126.0594
G1 X177.312 Y102.558 E126.7394
G1 X177.181 Y102.165 E126.7601
G1 X190.811 Y102.165 E127.4401
G1 X190.548 Y101.771 E127.4637
G1 X176.919 Y101.771 E128.1437
G1 X176.656 Y101.377 E128.1672
G1 X190.286 Y101.377 E128.8473
G1 X190.024 Y100.984 E128.8708
G1 X176.394 Y100.984 E129.5508
G1 X176.132 Y100.590 E129.5744
G1 X189.893 Y100.590 E130.2610
G1 X189.631 Y100.197 E130.2846
G1 X175.870 Y100.197 E130.9711
G1 X175.608 Y99.803 E130.9947
G1 X189.238 Y99.803 E131.6747
G1 X189.107 Y99.410 E131.6954
G1 X175.346 Y99.410 E132.3819
G1 X175.084 Y99.016 E132.4055
G1 X188.845 Y99.016 E133.0921
G1 X188.583 Y98.623 E133.1157
G1 X174.822 Y98.623 E133.8022
G1 X174.559 Y98.229 E133.8258
G1 X188.321 Y98.229 E134.5123
G1 X188.189 Y97.835 E134.5330
G1 X174.297 Y97.835 E135.2261
G1 X174.035 Y97.442 E135.2497
G1 X187.927 Y97.442 E135.9428
G1 X187.665 Y97.048 E135.9664
G1 X173.773 Y97.048 E136.6594
G1 X173.642 Y96.655 E136.6801
G1 X187.403 Y96.655 E137.3667
G1 X187.141 Y96.261 E137.3903
G1 X173.380 Y96.261 E138.0768
G1 X173.118 Y95.868 E138.1004
G1 X187.010 Y95.868 E138.7935
G1 X186.748 Y95.474 E138.8171
G1 X172.856 Y95.474 E139.5102
G1 X172.594 Y95.080 E139.5337
G1 X186.486 Y95.080 E140.2268
G1 X186.224 Y94.687 E140.2504
G1 X172.332 Y94.687 E140.9435
G1 X172.069 Y94.293 E140.9671
G1 X186.093 Y94.293 E141.6667
G1 X185.830 Y93.900 E141.6903
G1 X171.676 Y93.900 E142.3965
G1 X171.414 Y93.506 E142.4201
G1 X185.568 Y93.506 E143.1262
G1 X185.306 Y93.113 E143.1498
G1 X171.152 Y93.113 E143.8560
G1 X170.890 Y92.719 E143.8796
G1 X185.044 Y92.719 E144.5857
G1 X184.782 Y92.325 E144.6093
G1 X170.628 Y92.325 E145.3155
G1 X170.235 Y91.932 E145.3432
G1 X184.520 Y91.932 E146.0559
G1 X184.127 Y91.538 E146.0837
G1 X169.972 Y91.538 E146.7898
G1 X169.710 Y91.145 E146.8134
G1 X183.865 Y91.145 E147.5196
G1 X183.602 Y90.751 E147.5432
G1 X169.448 Y90.751 E148.2493
G1 X169.186 Y90.358 E148.2729
G1 X183.340 Y90.358 E148.9791
G1 X183.078 Y89.964 E149.0027
G1 X168.793 Y89.964 E149.7154
G1 X168.531 Y89.571 E149.7390
G1 X182.816 Y89.571 E150.4517
G1 X182.554 Y89.177 E150.4752
G1 X168.269 Y89.177 E151.1879
G1 X168.007 Y88.783 E151.2115
G1 X182.292 Y88.783 E151.9242
G1 X182.030 Y88.390 E151.9478
G1 X167.613 Y88.390 E152.6670
G1 X167.351 Y87.996 E152.6906
G1 X181.768 Y87.996 E153.4099
G1 X181.506 Y87.603 E153.4335
G1 X167.089 Y87.603 E154.1527
G1 X166.827 Y87.209 E154.1763
G1 X181.243 Y87.209 E154.8955
G1 X180.981 Y86.816 E154.9191
G1 X166.565 Y86.816 E155.6384
G1 X166.172 Y86.422 E155.6661
G1 X180.588 Y86.422 E156.3854
G1 X180.326 Y86.028 E156.4089
G1 X165.910 Y86.028 E157.1282
G1 X165.648 Y85.635 E157.1518
G1 X180.064 Y85.635 E157.8710
G1 X179.802 Y85.241 E157.8946
G1 X165.254 Y85.241 E158.6204
G1 X164.861 Y84.848 E158.6481
G1 X179.540 Y84.848 E159.3804
G1 X179.278 Y84.454 E159.4040
G1 X164.599 Y84.454 E160.1363
G1 X164.206 Y84.061 E160.1641
G1 X179.015 Y84.061 E160.9029
G1 X178.622 Y83.667 E160.9307
G1 X163.944 Y83.667 E161.6630
G1 X163.551 Y83.274 E161.6908
G1 X178.360 Y83.274 E162.4296
G1 X178.098 Y82.880 E162.4532
G1 X163.289 Y82.880 E163.1921
G1 X162.895 Y82.486 E163.2198
G1 X177.705 Y82.486 E163.9587
G1 X177.443 Y82.093 E163.9822
G1 X162.502 Y82.093 E164.7276
G1 X162.240 Y81.699 E164.7512
G1 X177.050 Y81.699 E165.4901
G1 X176.787 Y81.306 E165.5137
G1 X161.847 Y81.306 E166.2591
G1 X161.585 Y80.912 E166.2826
G1 X176.394 Y80.912 E167.0215
G1 X176.132 Y80.519 E167.0451
G1 X161.192 Y80.519 E167.7905
G1 X160.930 Y80.125 E167.8141
G1 X175.870 Y80.125 E168.5595
G1 X175.477 Y79.731 E168.5872
G1 X160.536 Y79.731 E169.3326
G1 X160.143 Y79.338 E169.3604
G1 X175.215 Y79.338 E170.1123
G1 X174.822 Y78.944 E170.1400
G1 X159.881 Y78.944 E170.8854
G1 X159.488 Y78.551 E170.9132
G1 X174.559 Y78.551 E171.6651
G1 X174.297 Y78.157 E171.6887
G1 X159.226 Y78.157 E172.4406
G1 X158.833 Y77.764 E172.4684
G1 X173.904 Y77.764 E173.2203
G1 X173.642 Y77.370 E173.2439
G1 X158.439 Y77.370 E174.0024
G1 X158.177 Y76.977 E174.0259
G1 X173.249 Y76.977 E174.7779
G1 X172.987 Y76.583 E174.8015
G1 X157.784 Y76.583 E175.5599
G1 X157.391 Y76.189 E175.5877
G1 X172.594 Y76.189 E176.3462
G1 X172.332 Y75.796 E176.3697
G1 X156.998 Y75.796 E177.1347
G1 X156.605 Y75.402 E177.1625
G1 X171.938 Y75.402 E177.9275
G1 X171.676 Y75.009 E177.9511
G1 X156.211 Y75.009 E178.7226
G1 X155.818 Y74.615 E178.7504
G1 X171.283 Y74.615 E179.5219
G1 X170.890 Y74.222 E179.5497
G1 X155.425 Y74.222 E180.3212
G1 X155.032 Y73.828 E180.3490
G1 X170.497 Y73.828 E181.1205
G1 X170.104 Y73.434 E181.1483
G1 X154.639 Y73.434 E181.9198
G1 X154.246 Y73.041 E181.9476
G1 X169.841 Y73.041 E182.7257
G1 X169.448 Y72.647 E182.7534
G1 X153.852 Y72.647 E183.5315
G1 X153.459 Y72.254 E183.5593
G1 X169.055 Y72.254 E184.3373
G1 X168.662 Y71.860 E184.3651
G1 X153.066 Y71.860 E185.1432
G1 X152.673 Y71.467 E185.1709
G1 X168.269 Y71.467 E185.9490
G1 X168.007 Y71.073 E185.9726
G1 X152.149 Y71.073 E186.7637
G1 X151.756 Y70.679 E186.7915
G1 X167.613 Y70.679 E187.5826
G1 X167.220 Y70.286 E187.6104
G1 X151.231 Y70.286 E188.4081
G1 X150.838 Y69.892 E188.4359
G1 X166.827 Y69.892 E189.2336
G1 X166.565 Y69.499 E189.2571
G1 X150.314 Y69.499 E190.0679
G1 X149.921 Y69.105 E190.0957
G1 X166.172 Y69.105 E190.9065
G1 X165.779 Y68.712 E190.9342
G1 X149.396 Y68.712 E191.7515
G1 X149.003 Y68.318 E191.7793
G1 X165.385 Y68.318 E192.5966
G1 X164.992 Y67.925 E192.6243
G1 X148.479 Y67.925 E193.4482
G1 X148.086 Y67.531 E193.4759
G1 X164.730 Y67.531 E194.3063
G1 X164.337 Y67.137 E194.3341
G1 X147.562 Y67.137 E195.1710
G1 X147.169 Y66.744 E195.1988
G1 X163.944 Y66.744 E196.0357
G1 X163.551 Y66.350 E196.0635
G1 X146.644 Y66.350 E196.9069
G1 X146.251 Y65.957 E196.9347
G1 X163.158 Y65.957 E197.7781
G1 X162.764 Y65.563 E197.8059
G1 X145.727 Y65.563 E198.6559
G1 X145.334 Y65.170 E198.6836
G1 X162.371 Y65.170 E199.5337
G1 X161.847 Y64.776 E199.5664
G1 X144.809 Y64.776 E200.4164
G1 X144.416 Y64.382 E200.4441
G1 X161.454 Y64.382 E201.2941
G1 X161.061 Y63.989 E201.3219
G1 X143.892 Y63.989 E202.1784
G1 X143.368 Y63.595 E202.2111
G1 X160.667 Y63.595 E203.0742
G1 X160.143 Y63.202 E203.1069
G1 X142.844 Y63.202 E203.9700
G1 X142.319 Y62.808 E204.0027
G1 X159.750 Y62.808 E204.8723
G1 X159.357 Y62.415 E204.9000
G1 X141.795 Y62.415 E205.7762
G1 X141.271 Y62.021 E205.8089
G1 X158.964 Y62.021 E206.6916
G1 X158.571 Y61.628 E206.7194
G1 X140.747 Y61.628 E207.6086
G1 X140.222 Y61.234 E207.6413
G1 X158.046 Y61.234 E208.5305
G1 X157.653 Y60.840 E208.5583
G1 X139.567 Y60.840 E209.4606
G1 X139.043 Y60.447 E209.4933
G1 X157.260 Y60.447 E210.4021
G1 X156.867 Y60.053 E210.4299
G1 X138.519 Y60.053 E211.3453
G1 X137.994 Y59.660 E211.3780
G1 X156.343 Y59.660 E212.2934
G1 X155.949 Y59.266 E212.3211
G1 X137.470 Y59.266 E213.2431
G1 X136.946 Y58.873 E213.2758
G1 X155.556 Y58.873 E214.2042
G1 X155.163 Y58.479 E214.2320
G1 X136.422 Y58.479 E215.1670
G1 X135.898 Y58.085 E215.1997
G1 X154.639 Y58.085 E216.1347
G1 X154.246 Y57.692 E216.1624
G1 X135.373 Y57.692 E217.1040
G1 X134.849 Y57.298 E217.1367
G1 X153.721 Y57.298 E218.0782
G1 X153.328 Y56.905 E218.1060
G1 X134.194 Y56.905 E219.0606
G1 X133.539 Y56.511 E219.0987
G1 X152.804 Y56.511 E220.0599
G1 X152.280 Y56.118 E220.0926
G1 X132.883 Y56.118 E221.0603
G1 X132.359 Y55.724 E221.0930
G1 X151.756 Y55.724 E222.0607
G1 X151.362 Y55.330 E222.0884
G1 X131.704 Y55.330 E223.0692
G1 X131.048 Y54.937 E223.1073
G1 X150.838 Y54.937 E224.0946
G1 X150.314 Y54.543 E224.1273
G1 X130.393 Y54.543 E225.1212
G1 X129.869 Y54.150 E225.1539
G1 X149.921 Y54.150 E226.1543
G1 X149.396 Y53.756 E226.1870
G1 X129.214 Y53.756 E227.1939
G1 X128.558 Y53.363 E227.2320
G1 X148.872 Y53.363 E228.2455
G1 X148.348 Y52.969 E228.2782
G1 X127.903 Y52.969 E229.2982
G1 X127.248 Y52.576 E229.3363
G1 X147.955 Y52.576 E230.3694
G1 X147.431 Y52.182 E230.4021
G1 X126.724 Y52.182 E231.4352
G1 X126.068 Y51.788 E231.4733
G1 X146.906 Y51.788 E232.5129
G1 X146.382 Y51.395 E232.5456
G1 X125.413 Y51.395 E233.5918
G1 X124.758 Y51.001 E233.6299
G1 X145.989 Y51.001 E234.6891
G1 X145.465 Y50.608 E234.7218
G1 X123.971 Y50.608 E235.7942
G1 X123.185 Y50.214 E235.8380
G1 X144.941 Y50.214 E236.9234
G1 X144.285 Y49.821 E236.9615
G1 X122.530 Y49.821 E238.0469
G1 X121.743 Y49.427 E238.0908
G1 X143.761 Y49.427 E239.1893
G1 X143.237 Y49.033 E239.2220
G1 X120.957 Y49.033 E240.3335
G1 X120.302 Y48.640 E240.3716
G1 X142.582 Y48.640 E241.4832
G1 X142.057 Y48.246 E241.5159
G1 X119.515 Y48.246 E242.6405
G1 X118.729 Y47.853 E242.6844
G1 X141.533 Y47.853 E243.8221
G1 X140.878 Y47.459 E243.8602
G1 X118.074 Y47.459 E244.9979
G1 X117.287 Y47.066 E245.0418
G1 X140.354 Y47.066 E246.1925
G1 X139.829 Y46.672 E246.2252
G1 X116.501 Y46.672 E247.3891
G1 X115.846 Y46.278 E247.4272
G1 X139.305 Y46.278 E248.5976
G1 X138.650 Y45.885 E248.6357
G1 X115.059 Y45.885 E249.8126
G1 X114.142 Y45.491 E249.8625
G1 X138.126 Y45.491 E251.0590
G1 X137.601 Y45.098 E251.0917
G1 X113.225 Y45.098 E252.3079
G1 X112.307 Y44.704 E252.3577
G1 X136.946 Y44.704 E253.5869
G1 X136.422 Y44.311 E253.6196
G1 X111.390 Y44.311 E254.8685
G1 X110.472 Y43.917 E254.9183
G1 X135.767 Y43.917 E256.1802
G1 X135.111 Y43.523 E256.2183
G1 X109.686 Y43.523 E257.4868
G1 X108.769 Y43.130 E257.5366
G1 X134.456 Y43.130 E258.8182
G1 X133.670 Y42.736 E258.8620
G1 X107.851 Y42.736 E260.1501
G1 X106.934 Y42.343 E260.1999
G1 X133.014 Y42.343 E261.5011
G1 X132.359 Y41.949 E261.5392
G1 X106.017 Y41.949 E262.8535
G1 X105.099 Y41.555 E262.9033
G1 X131.704 Y41.555 E264.2306
G1 X131.048 Y41.162 E264.2687
G1 X104.051 Y41.162 E265.6156
G1 X102.871 Y40.768 E265.6777
G1 X130.393 Y40.768 E267.0508
G1 X129.738 Y40.375 E267.0889
G1 X101.823 Y40.375 E268.4816
G1 X100.643 Y39.981 E268.5437
G1 X129.083 Y39.981 E269.9625
G1 X128.427 Y39.588 E270.0007
G1 X99.595 Y39.588 E271.4391
G1 X98.415 Y39.194 E271.5012
G1 X127.772 Y39.194 E272.9658
G1 X127.117 Y38.800 E273.0039
G1 X97.236 Y38.800 E274.4947
G1 X96.187 Y38.407 E274.5506
G1 X126.330 Y38.407 E276.0545
G1 X125.544 Y38.013 E276.0983
G1 X95.008 Y38.013 E277.6218
G1 X93.959 Y37.620 E277.6777
G1 X124.758 Y37.620 E279.2142
G1 X123.971 Y37.226 E279.2581
G1 X92.518 Y37.226 E280.8273
G1 X90.945 Y36.833 E280.9082
G1 X123.185 Y36.833 E282.5167
G1 X122.399 Y36.439 E282.5606
G1 X89.503 Y36.439 E284.2017
G1 X88.062 Y36.045 E284.2763
G1 X121.481 Y36.045 E285.9436
G1 X120.695 Y35.652 E285.9874
G1 X86.620 Y35.652 E287.6875
G1 X85.047 Y35.258 E287.7683
G1 X119.909 Y35.258 E289.5076
G1 X119.122 Y34.865 E289.5514
G1 X83.606 Y34.865 E291.3233
G1 X81.771 Y34.471 E291.4170
G1 X118.336 Y34.471 E293.2412
G1 X117.550 Y34.078 E293.2851
G1 X79.674 Y34.078 E295.1747
G0 F4800 E294.1747
G0 X77.577 Y33.684 F10800
G0 F4800 E295.1747
G1 X116.763 Y33.684 E297.1297 F3600
G1 X115.846 Y33.290 E297.1795
G1 X75.480 Y33.290 E299.1934
G0 F4800 E298.1934
G0 X73.383 Y32.897 F10800
G0 F4800 E299.1934
G1 X114.797 Y32.897 E301.2596 F3600
G1 X113.880 Y32.503 E301.3094
G1 X71.024 Y32.503 E303.4475
G0 F4800 E302.4475
G0 X67.486 Y32.110 F10800
G0 F4800 E303.4475
G1 X112.963 Y32.110 E305.7163 F3600
G1 X112.045 Y31.716 E305.7661
G1 X63.947 Y31.716 E308.1658
G0 F4800 E307.1658
G0 X60.409 Y31.323 F10800
G0 F4800 E308.1658
G1 X110.997 Y31.323 E310.6896 F3600
G1 X110.079 Y30.929 E310.7394
G1 X49.400 Y30.929 E313.7667
G1 X49.007 Y30.535 E313.7945
G1 X109.162 Y30.535 E316.7956
G0 F4800 E315.7956
G0 X106.148 Y29.355 F10800
G0 F4800 E316.7956
G1 X47.827 Y29.355 E319.7052 F3600
G1 X48.220 Y29.748 E319.7330
G1 X107.196 Y29.748 E322.6753
G1 X108.113 Y30.142 E322.7251
G1 X48.613 Y30.142 E325.6936
G0 F4800 E324.6936
G0 X49.007 Y20.303 F10800
G0 F4800 E325.6936
G1 X63.685 Y20.303 E326.4259 F3600
G0 F4800 E325.4259
G0 X67.486 Y20.696 F10800
G0 F4800 E326.4259
G1 X48.613 Y20.696 E327.3674 F3600
G1 X48.220 Y21.090 E327.3952
G1 X71.286 Y21.090 E328.5459
G0 F4800 E327.5459
G0 X74.825 Y21.483 F10800
G0 F4800 E328.5459
G1 X47.827 Y21.483 E329.8928 F3600
G1 X47.434 Y21.877 E329.9206
G1 X77.053 Y21.877 E331.3983
G0 F4800 E330.3983
G0 X79.281 Y22.270 F10800
G0 F4800 E331.3983
G1 X47.041 Y22.270 E333.0067 F3600
G1 X46.910 Y22.664 E333.0274
G1 X81.509 Y22.664 E334.7536
G0 F4800 E333.7536
G0 X83.868 Y23.058 F10800
G0 F4800 E334.7536
G1 X46.910 Y23.058 E336.5974 F3600
G1 X46.910 Y23.451 E336.6170
G1 X85.703 Y23.451 E338.5524
G1 X87.275 Y23.845 E338.6333
G1 X46.910 Y23.845 E340.6472
G1 X46.910 Y24.238 E340.6668
G1 X88.979 Y24.238 E342.7656
G1 X90.552 Y24.632 E342.8465
G1 X46.910 Y24.632 E345.0238
G1 X46.910 Y25.025 E345.0434
G1 X92.124 Y25.025 E347.2992
G1 X93.697 Y25.419 E347.3801
G1 X46.910 Y25.419 E349.7143
G1 X46.910 Y25.813 E349.7339
G1 X95.270 Y25.813 E352.1466
G1 X96.580 Y26.206 E352.2149
G1 X46.910 Y26.206 E354.6930
G1 X46.910 Y26.600 E354.7126
G1 X97.760 Y26.600 E357.2495
G1 X98.939 Y26.993 E357.3116
G1 X46.910 Y26.993 E359.9073
G1 X46.910 Y27.387 E359.9270
G1 X100.250 Y27.387 E362.5881
G1 X101.430 Y27.780 E362.6502
G1 X46.910 Y27.780 E365.3702
G1 X46.910 Y28.174 E365.3898
G1 X102.609 Y28.174 E368.1686
G1 X103.789 Y28.568 E368.2307
G1 X47.041 Y28.568 E371.0618
G1 X47.434 Y28.961 E371.0896
G1 X104.968 Y28.961 E373.9599



; ------------------------------------
; Raft Layer #4
; ------------------------------------
G21 ; mm
G90 ; abs
G92 E0 ; reset extr
M106 S255
;segType:Raft
G0 F4800 E-1.0000
G0 F300 Z1.500
G0 X47.154 Y22.283 F10800
G0 F4800 E0.0000
G1 X47.154 Y28.705 E0.3204 F3600
G1 X47.547 Y29.098 E0.3481
G1 X47.547 Y21.890 E0.7078
G1 X47.941 Y21.497 E0.7355
G1 X47.941 Y29.491 E1.1344
G1 X48.334 Y29.884 E1.1621
G1 X48.334 Y21.104 E1.6002
G1 X48.728 Y20.710 E1.6279
G1 X48.728 Y30.278 E2.1053
G1 X49.122 Y30.671 E2.1330
G1 X49.122 Y20.317 E2.6495
G1 X49.515 Y20.055 E2.6731
G1 X49.515 Y31.064 E3.2224
G1 X49.909 Y31.064 E3.2420
G1 X49.909 Y20.055 E3.7912
G1 X50.302 Y20.055 E3.8109
G1 X50.302 Y31.064 E4.3601
G1 X50.696 Y31.064 E4.3797
G1 X50.696 Y20.055 E4.9290
G1 X51.089 Y20.055 E4.9486
G1 X51.089 Y31.064 E5.4978
G1 X51.483 Y31.064 E5.5175
G1 X51.483 Y20.055 E6.0667
G1 X51.877 Y20.055 E6.0863
G1 X51.877 Y31.064 E6.6356
G1 X52.270 Y31.064 E6.6552
G1 X52.270 Y20.055 E7.2044
G1 X52.664 Y20.055 E7.2241
G1 X52.664 Y31.064 E7.7733
G1 X53.057 Y31.064 E7.7929
G1 X53.057 Y20.055 E8.3422
G1 X53.451 Y20.055 E8.3618
G1 X53.451 Y31.195 E8.9176
G1 X53.844 Y31.195 E8.9372
G1 X53.844 Y20.055 E9.4930
G1 X54.238 Y20.055 E9.5126
G1 X54.238 Y31.195 E10.0684
G1 X54.632 Y31.195 E10.0880
G1 X54.632 Y20.055 E10.6438
G1 X55.025 Y20.055 E10.6634
G1 X55.025 Y31.195 E11.2192
G1 X55.419 Y31.195 E11.2388
G1 X55.419 Y20.055 E11.7946
G1 X55.812 Y20.055 E11.8143
G1 X55.812 Y31.195 E12.3700
G1 X56.206 Y31.195 E12.3897
G1 X56.206 Y20.055 E12.9454
G1 X56.599 Y20.186 E12.9661
G1 X56.599 Y31.195 E13.5154
G1 X56.993 Y31.195 E13.5350
G1 X56.993 Y20.186 E14.0842
G1 X57.386 Y20.186 E14.1039
G1 X57.386 Y31.326 E14.6596
G1 X57.780 Y31.326 E14.6793
G1 X57.780 Y20.186 E15.2350
G1 X58.174 Y20.186 E15.2547
G1 X58.174 Y31.326 E15.8104
G1 X58.567 Y31.326 E15.8301
G1 X58.567 Y20.186 E16.3858
G1 X58.961 Y20.186 E16.4055
G1 X58.961 Y31.326 E16.9613
G1 X59.354 Y31.326 E16.9809
G1 X59.354 Y20.186 E17.5367
G1 X59.748 Y20.186 E17.5563
G1 X59.748 Y31.326 E18.1121
G1 X60.141 Y31.326 E18.1317
G1 X60.141 Y20.186 E18.6875
G1 X60.535 Y20.317 E18.7082
G1 X60.535 Y31.457 E19.2639
G1 X60.929 Y31.457 E19.2836
G1 X60.929 Y20.317 E19.8393
G1 X61.322 Y20.317 E19.8590
G1 X61.322 Y31.457 E20.4147
G1 X61.716 Y31.588 E20.4354
G1 X61.716 Y20.317 E20.9977
G1 X62.109 Y20.317 E21.0174
G1 X62.109 Y31.588 E21.5797
G1 X62.503 Y31.588 E21.5993
G1 X62.503 Y20.317 E22.1616
G1 X62.896 Y20.317 E22.1813
G1 X62.896 Y31.719 E22.7501
G1 X63.290 Y31.719 E22.7698
G1 X63.290 Y20.317 E23.3386
G1 X63.684 Y20.317 E23.3582
G1 X63.684 Y31.719 E23.9271
G1 X64.077 Y31.850 E23.9478
G1 X64.077 Y20.448 E24.5166
G1 X64.471 Y20.448 E24.5363
G1 X64.471 Y31.850 E25.1051
G1 X64.864 Y31.850 E25.1247
G1 X64.864 Y20.448 E25.6936
G1 X65.258 Y20.579 E25.7143
G1 X65.258 Y31.981 E26.2831
G1 X65.651 Y31.981 E26.3028
G1 X65.651 Y20.579 E26.8716
G1 X66.045 Y20.579 E26.8913
G1 X66.045 Y31.981 E27.4601
G1 X66.438 Y32.112 E27.4808
G1 X66.438 Y20.710 E28.0496
G1 X66.832 Y20.710 E28.0693
G1 X66.832 Y32.112 E28.6381
G1 X67.226 Y32.112 E28.6578
G1 X67.226 Y20.710 E29.2266
G1 X67.619 Y20.841 E29.2473
G1 X67.619 Y32.243 E29.8162
G1 X68.013 Y32.243 E29.8358
G1 X68.013 Y20.841 E30.4046
G1 X68.406 Y20.841 E30.4243
G1 X68.406 Y32.243 E30.9931
G1 X68.800 Y32.374 E31.0138
G1 X68.800 Y20.841 E31.5892
G1 X69.193 Y20.972 E31.6099
G1 X69.193 Y32.374 E32.1787
G1 X69.587 Y32.374 E32.1984
G1 X69.587 Y20.972 E32.7672
G1 X69.981 Y20.972 E32.7869
G1 X69.981 Y32.505 E33.3622
G1 X70.374 Y32.505 E33.3819
G1 X70.374 Y21.104 E33.9507
G1 X70.768 Y21.104 E33.9704
G1 X70.768 Y32.505 E34.5392
G1 X71.161 Y32.637 E34.5599
G1 X71.161 Y21.104 E35.1353
G1 X71.555 Y21.235 E35.1560
G1 X71.555 Y32.637 E35.7248
G1 X71.948 Y32.637 E35.7445
G1 X71.948 Y21.235 E36.3133
G1 X72.342 Y21.235 E36.3329
G1 X72.342 Y32.768 E36.9083
G1 X72.736 Y32.768 E36.9280
G1 X72.736 Y21.366 E37.4968
G1 X73.129 Y21.366 E37.5164
G1 X73.129 Y32.899 E38.0918
G1 X73.523 Y33.030 E38.1125
G1 X73.523 Y21.366 E38.6945
G1 X73.916 Y21.366 E38.7141
G1 X73.916 Y33.030 E39.2960
G1 X74.310 Y33.161 E39.3167
G1 X74.310 Y21.497 E39.8986
G1 X74.703 Y21.497 E39.9183
G1 X74.703 Y33.161 E40.5002
G1 X75.097 Y33.292 E40.5209
G1 X75.097 Y21.628 E41.1028
G1 X75.491 Y21.628 E41.1224
G1 X75.491 Y33.292 E41.7044
G1 X75.884 Y33.423 E41.7251
G1 X75.884 Y21.759 E42.3070
G1 X76.278 Y21.759 E42.3266
G1 X76.278 Y33.423 E42.9085
G1 X76.671 Y33.554 E42.9292
G1 X76.671 Y21.890 E43.5112
G1 X77.065 Y21.890 E43.5308
G1 X77.065 Y33.685 E44.1193
G1 X77.458 Y33.685 E44.1389
G1 X77.458 Y22.021 E44.7208
G1 X77.852 Y22.021 E44.7405
G1 X77.852 Y33.816 E45.3289
G1 X78.245 Y33.816 E45.3486
G1 X78.245 Y22.152 E45.9305
G1 X78.639 Y22.152 E45.9501
G1 X78.639 Y33.947 E46.5386
G1 X79.033 Y33.947 E46.5582
G1 X79.033 Y22.283 E47.1401
G1 X79.426 Y22.414 E47.1608
G1 X79.426 Y34.078 E47.7427
G1 X79.820 Y34.209 E47.7634
G1 X79.820 Y22.414 E48.3519
G1 X80.213 Y22.545 E48.3726
G1 X80.213 Y34.209 E48.9545
G1 X80.607 Y34.340 E48.9752
G1 X80.607 Y22.545 E49.5637
G1 X81.000 Y22.676 E49.5844
G1 X81.000 Y34.340 E50.1663
G1 X81.394 Y34.471 E50.1870
G1 X81.394 Y22.676 E50.7755
G1 X81.788 Y22.807 E50.7962
G1 X81.788 Y34.471 E51.3781
G1 X82.181 Y34.602 E51.3988
G1 X82.181 Y22.807 E51.9872
G1 X82.575 Y22.938 E52.0079
G1 X82.575 Y34.602 E52.5899
G1 X82.968 Y34.733 E52.6106
G1 X82.968 Y22.938 E53.1990
G1 X83.362 Y23.069 E53.2197
G1 X83.362 Y34.865 E53.8082
G1 X83.755 Y34.996 E53.8289
G1 X83.755 Y23.069 E54.4239
G1 X84.149 Y23.200 E54.4446
G1 X84.149 Y34.996 E55.0330
G1 X84.542 Y35.127 E55.0537
G1 X84.542 Y23.200 E55.6487
G1 X84.936 Y23.331 E55.6694
G1 X84.936 Y35.258 E56.2644
G1 X85.330 Y35.389 E56.2851
G1 X85.330 Y23.463 E56.8801
G1 X85.723 Y23.463 E56.8997
G1 X85.723 Y35.520 E57.5013
G1 X86.117 Y35.520 E57.5209
G1 X86.117 Y23.594 E58.1159
G1 X86.510 Y23.725 E58.1366
G1 X86.510 Y35.651 E58.7316
G1 X86.904 Y35.782 E58.7523
G1 X86.904 Y23.856 E59.3473
G1 X87.297 Y23.856 E59.3670
G1 X87.297 Y35.913 E59.9685
G1 X87.691 Y36.044 E59.9892
G1 X87.691 Y23.987 E60.5907
G1 X88.085 Y24.118 E60.6114
G1 X88.085 Y36.044 E61.2064
G1 X88.478 Y36.175 E61.2271
G1 X88.478 Y24.118 E61.8287
G1 X88.872 Y24.249 E61.8493
G1 X88.872 Y36.306 E62.4509
G1 X89.265 Y36.437 E62.4716
G1 X89.265 Y24.380 E63.0731
G1 X89.659 Y24.511 E63.0938
G1 X89.659 Y36.568 E63.6954
G1 X90.052 Y36.568 E63.7150
G1 X90.052 Y24.511 E64.3165
G1 X90.446 Y24.642 E64.3372
G1 X90.446 Y36.699 E64.9388
G1 X90.839 Y36.830 E64.9595
G1 X90.839 Y24.773 E65.5610
G1 X91.233 Y24.904 E65.5817
G1 X91.233 Y36.961 E66.1832
G1 X91.627 Y37.093 E66.2039
G1 X91.627 Y24.904 E66.8120
G1 X92.020 Y25.035 E66.8327
G1 X92.020 Y37.093 E67.4343
G1 X92.414 Y37.224 E67.4550
G1 X92.414 Y25.166 E68.0565
G1 X92.807 Y25.297 E68.0772
G1 X92.807 Y37.355 E68.6787
G1 X93.201 Y37.486 E68.6994
G1 X93.201 Y25.297 E69.3075
G1 X93.594 Y25.428 E69.3282
G1 X93.594 Y37.617 E69.9363
G1 X93.988 Y37.617 E69.9559
G1 X93.988 Y25.559 E70.5575
G1 X94.382 Y25.691 E70.5782
G1 X94.382 Y37.879 E71.1862
G1 X94.775 Y38.010 E71.2069
G1 X94.775 Y25.691 E71.8215
G1 X95.169 Y25.822 E71.8422
G1 X95.169 Y38.141 E72.4569
G1 X95.562 Y38.272 E72.4775
G1 X95.562 Y25.953 E73.0922
G1 X95.956 Y26.084 E73.1129
G1 X95.956 Y38.403 E73.7275
G1 X96.349 Y38.534 E73.7482
G1 X96.349 Y26.215 E74.3628
G1 X96.743 Y26.346 E74.3835
G1 X96.743 Y38.665 E74.9981
G1 X97.137 Y38.796 E75.0188
G1 X97.137 Y26.477 E75.6334
G1 X97.530 Y26.608 E75.6541
G1 X97.530 Y38.927 E76.2687
G1 X97.924 Y39.058 E76.2894
G1 X97.924 Y26.739 E76.9041
G1 X98.317 Y26.870 E76.9248
G1 X98.317 Y39.189 E77.5394
G1 X98.711 Y39.320 E77.5601
G1 X98.711 Y27.001 E78.1747
G1 X99.104 Y27.132 E78.1954
G1 X99.104 Y39.452 E78.8100
G1 X99.498 Y39.583 E78.8307
G1 X99.498 Y27.132 E79.4519
G1 X99.891 Y27.263 E79.4726
G1 X99.891 Y39.714 E80.0937
G1 X100.285 Y39.845 E80.1144
G1 X100.285 Y27.394 E80.7356
G1 X100.679 Y27.525 E80.7563
G1 X100.679 Y39.976 E81.3774
G1 X101.072 Y40.107 E81.3981
G1 X101.072 Y27.656 E82.0193
G1 X101.466 Y27.787 E82.0400
G1 X101.466 Y40.238 E82.6611
G1 X101.859 Y40.369 E82.6818
G1 X101.859 Y27.918 E83.3030
G1 X102.253 Y28.050 E83.3237
G1 X102.253 Y40.500 E83.9448
G1 X102.646 Y40.631 E83.9655
G1 X102.646 Y28.181 E84.5867
G1 X103.040 Y28.312 E84.6074
G1 X103.040 Y40.893 E85.2351
G1 X103.434 Y41.024 E85.2558
G1 X103.434 Y28.443 E85.8835
G1 X103.827 Y28.574 E85.9042
G1 X103.827 Y41.155 E86.5319
G1 X104.221 Y41.286 E86.5526
G1 X104.221 Y28.705 E87.1802
G1 X104.614 Y28.836 E87.2009
G1 X104.614 Y41.417 E87.8286
G1 X105.008 Y41.548 E87.8493
G1 X105.008 Y28.967 E88.4770
G1 X105.401 Y29.098 E88.4977
G1 X105.401 Y41.680 E89.1254
G1 X105.795 Y41.811 E89.1461
G1 X105.795 Y29.229 E89.7738
G1 X106.188 Y29.360 E89.7945
G1 X106.188 Y42.073 E90.4287
G1 X106.582 Y42.204 E90.4494
G1 X106.582 Y29.491 E91.0837
G1 X106.976 Y29.622 E91.1044
G1 X106.976 Y42.335 E91.7386
G1 X107.369 Y42.597 E91.7622
G1 X107.369 Y29.884 E92.3964
G1 X107.763 Y30.015 E92.4171
G1 X107.763 Y42.728 E93.0513
G1 X108.156 Y42.859 E93.0720
G1 X108.156 Y30.146 E93.7063
G1 X108.550 Y30.278 E93.7270
G1 X108.550 Y43.121 E94.3677
G1 X108.943 Y43.252 E94.3884
G1 X108.943 Y30.540 E95.0227
G1 X109.337 Y30.671 E95.0434
G1 X109.337 Y43.383 E95.6776
G1 X109.731 Y43.514 E95.6983
G1 X109.731 Y30.802 E96.3325
G1 X110.124 Y30.933 E96.3532
G1 X110.124 Y43.776 E96.9940
G1 X110.518 Y43.907 E97.0147
G1 X110.518 Y31.195 E97.6489
G1 X110.911 Y31.326 E97.6696
G1 X110.911 Y44.039 E98.3039
G1 X111.305 Y44.301 E98.3274
G1 X111.305 Y31.457 E98.9682
G1 X111.698 Y31.588 E98.9889
G1 X111.698 Y44.432 E99.6297
G1 X112.092 Y44.563 E99.6504
G1 X112.092 Y31.719 E100.2911
G1 X112.486 Y31.981 E100.3147
G1 X112.486 Y44.825 E100.9555
G1 X112.879 Y44.956 E100.9762
G1 X112.879 Y32.112 E101.6170
G1 X113.273 Y32.243 E101.6377
G1 X113.273 Y45.087 E102.2784
G1 X113.666 Y45.218 E102.2991
G1 X113.666 Y32.374 E102.9399
G1 X114.060 Y32.637 E102.9635
G1 X114.060 Y45.480 E103.6043
G1 X114.453 Y45.611 E103.6250
G1 X114.453 Y32.768 E104.2657
G1 X114.847 Y32.899 E104.2864
G1 X114.847 Y45.742 E104.9272
G1 X115.240 Y46.004 E104.9508
G1 X115.240 Y33.030 E105.5981
G1 X115.634 Y33.292 E105.6217
G1 X115.634 Y46.135 E106.2625
G1 X116.028 Y46.398 E106.2860
G1 X116.028 Y33.423 E106.9334
G1 X116.421 Y33.554 E106.9541
G1 X116.421 Y46.660 E107.6079
G1 X116.815 Y46.791 E107.6286
G1 X116.815 Y33.685 E108.2824
G1 X117.208 Y33.947 E108.3060
G1 X117.208 Y47.053 E108.9599
G1 X117.602 Y47.184 E108.9806
G1 X117.602 Y34.078 E109.6344
G1 X117.995 Y34.340 E109.6580
G1 X117.995 Y47.446 E110.3119
G1 X118.389 Y47.577 E110.3326
G1 X118.389 Y34.471 E110.9864
G1 X118.783 Y34.733 E111.0100
G1 X118.783 Y47.839 E111.6638
G1 X119.176 Y48.101 E111.6874
G1 X119.176 Y34.865 E112.3478
G1 X119.570 Y35.127 E112.3714
G1 X119.570 Y48.232 E113.0253
G1 X119.963 Y48.494 E113.0488
G1 X119.963 Y35.258 E113.7092
G1 X120.357 Y35.520 E113.7328
G1 X120.357 Y48.626 E114.3867
G1 X120.750 Y48.888 E114.4103
G1 X120.750 Y35.651 E115.0706
G1 X121.144 Y35.913 E115.0942
G1 X121.144 Y49.150 E115.7546
G1 X121.537 Y49.281 E115.7753
G1 X121.537 Y36.044 E116.4357
G1 X121.931 Y36.306 E116.4593
G1 X121.931 Y49.543 E117.1197
G1 X122.325 Y49.674 E117.1404
G1 X122.325 Y36.437 E117.8008
G1 X122.718 Y36.568 E117.8215
G1 X122.718 Y49.936 E118.4884
G1 X123.112 Y50.067 E118.5091
G1 X123.112 Y36.830 E119.1695
G1 X123.505 Y36.961 E119.1902
G1 X123.505 Y50.329 E119.8571
G1 X123.899 Y50.591 E119.8807
G1 X123.899 Y37.224 E120.5476
G1 X124.292 Y37.355 E120.5683
G1 X124.292 Y50.722 E121.2352
G1 X124.686 Y50.985 E121.2588
G1 X124.686 Y37.617 E121.9257
G1 X125.080 Y37.748 E121.9464
G1 X125.080 Y51.116 E122.6134
G1 X125.473 Y51.378 E122.6370
G1 X125.473 Y38.010 E123.3039
G1 X125.867 Y38.141 E123.3246
G1 X125.867 Y51.640 E123.9980
G1 X126.260 Y51.902 E124.0216
G1 X126.260 Y38.403 E124.6951
G1 X126.654 Y38.534 E124.7158
G1 X126.654 Y52.164 E125.3958
G1 X127.047 Y52.426 E125.4194
G1 X127.047 Y38.796 E126.0994
G1 X127.441 Y39.058 E126.1230
G1 X127.441 Y52.688 E126.8030
G1 X127.835 Y52.819 E126.8237
G1 X127.835 Y39.189 E127.5037
G1 X128.228 Y39.452 E127.5273
G1 X128.228 Y53.081 E128.2073
G1 X128.622 Y53.344 E128.2309
G1 X128.622 Y39.714 E128.9109
G1 X129.015 Y39.976 E128.9345
G1 X129.015 Y53.606 E129.6145
G1 X129.409 Y53.868 E129.6381
G1 X129.409 Y40.107 E130.3246
G1 X129.802 Y40.369 E130.3482
G1 X129.802 Y54.130 E131.0347
G1 X130.196 Y54.392 E131.0583
G1 X130.196 Y40.631 E131.7448
G1 X130.589 Y40.893 E131.7684
G1 X130.589 Y54.654 E132.4550
G1 X130.983 Y54.916 E132.4786
G1 X130.983 Y41.155 E133.1651
G1 X131.377 Y41.417 E133.1887
G1 X131.377 Y55.178 E133.8752
G1 X131.770 Y55.441 E133.8988
G1 X131.770 Y41.680 E134.5854
G1 X132.164 Y41.811 E134.6061
G1 X132.164 Y55.703 E135.2991
G1 X132.557 Y55.965 E135.3227
G1 X132.557 Y42.073 E136.0158
G1 X132.951 Y42.335 E136.0394
G1 X132.951 Y56.227 E136.7325
G1 X133.344 Y56.358 E136.7532
G1 X133.344 Y42.597 E137.4397
G1 X133.738 Y42.859 E137.4633
G1 X133.738 Y56.620 E138.1498
G1 X134.132 Y56.882 E138.1734
G1 X134.132 Y42.990 E138.8665
G1 X134.525 Y43.252 E138.8901
G1 X134.525 Y57.144 E139.5832
G1 X134.919 Y57.406 E139.6068
G1 X134.919 Y43.514 E140.2999
G1 X135.312 Y43.776 E140.3235
G1 X135.312 Y57.668 E141.0165
G1 X135.706 Y57.931 E141.0401
G1 X135.706 Y43.907 E141.7398
G1 X136.099 Y44.170 E141.7633
G1 X136.099 Y58.324 E142.4695
G1 X136.493 Y58.586 E142.4931
G1 X136.493 Y44.432 E143.1993
G1 X136.886 Y44.694 E143.2228
G1 X136.886 Y58.848 E143.9290
G1 X137.280 Y59.110 E143.9526
G1 X137.280 Y44.956 E144.6588
G1 X137.674 Y45.218 E144.6823
G1 X137.674 Y59.372 E145.3885
G1 X138.067 Y59.765 E145.4163
G1 X138.067 Y45.480 E146.1290
G1 X138.461 Y45.742 E146.1525
G1 X138.461 Y60.028 E146.8652
G1 X138.854 Y60.290 E146.8888
G1 X138.854 Y46.004 E147.6015
G1 X139.248 Y46.267 E147.6251
G1 X139.248 Y60.552 E148.3378
G1 X139.641 Y60.945 E148.3656
G1 X139.641 Y46.660 E149.0783
G1 X140.035 Y46.922 E149.1018
G1 X140.035 Y61.207 E149.8145
G1 X140.429 Y61.469 E149.8381
G1 X140.429 Y47.184 E150.5508
G1 X140.822 Y47.446 E150.5744
G1 X140.822 Y61.731 E151.2871
G1 X141.216 Y61.993 E151.3107
G1 X141.216 Y47.708 E152.0234
G1 X141.609 Y47.970 E152.0470
G1 X141.609 Y62.387 E152.7662
G1 X142.003 Y62.649 E152.7898
G1 X142.003 Y48.232 E153.5090
G1 X142.396 Y48.494 E153.5326
G1 X142.396 Y62.911 E154.2519
G1 X142.790 Y63.173 E154.2755
G1 X142.790 Y48.757 E154.9947
G1 X143.184 Y49.019 E155.0183
G1 X143.184 Y63.435 E155.7375
G1 X143.577 Y63.828 E155.7653
G1 X143.577 Y49.281 E156.4910
G1 X143.971 Y49.543 E156.5146
G1 X143.971 Y64.090 E157.2404
G1 X144.364 Y64.352 E157.2640
G1 X144.364 Y49.936 E157.9832
G1 X144.758 Y50.198 E158.0068
G1 X144.758 Y64.746 E158.7326
G1 X145.151 Y65.008 E158.7562
G1 X145.151 Y50.460 E159.4820
G1 X145.545 Y50.722 E159.5055
G1 X145.545 Y65.401 E160.2379
G1 X145.938 Y65.794 E160.2656
G1 X145.938 Y50.985 E161.0045
G1 X146.332 Y51.378 E161.0322
G1 X146.332 Y66.056 E161.7645
G1 X146.726 Y66.449 E161.7923
G1 X146.726 Y51.640 E162.5311
G1 X147.119 Y52.033 E162.5589
G1 X147.119 Y66.711 E163.2912
G1 X147.513 Y67.105 E163.3190
G1 X147.513 Y52.295 E164.0578
G1 X147.906 Y52.557 E164.0814
G1 X147.906 Y67.367 E164.8202
G1 X148.300 Y67.760 E164.8480
G1 X148.300 Y52.950 E165.5868
G1 X148.693 Y53.213 E165.6104
G1 X148.693 Y68.153 E166.3558
G1 X149.087 Y68.415 E166.3794
G1 X149.087 Y53.606 E167.1183
G1 X149.481 Y53.868 E167.1419
G1 X149.481 Y68.808 E167.8872
G1 X149.874 Y69.070 E167.9108
G1 X149.874 Y54.130 E168.6562
G1 X150.268 Y54.523 E168.6840
G1 X150.268 Y69.464 E169.4294
G1 X150.661 Y69.857 E169.4571
G1 X150.661 Y54.785 E170.2091
G1 X151.055 Y55.178 E170.2368
G1 X151.055 Y70.119 E170.9822
G1 X151.448 Y70.512 E171.0100
G1 X151.448 Y55.441 E171.7619
G1 X151.842 Y55.834 E171.7896
G1 X151.842 Y70.774 E172.5350
G1 X152.235 Y71.167 E172.5628
G1 X152.235 Y56.096 E173.3147
G1 X152.629 Y56.358 E173.3383
G1 X152.629 Y71.430 E174.0902
G1 X153.023 Y71.823 E174.1180
G1 X153.023 Y56.751 E174.8699
G1 X153.416 Y57.013 E174.8935
G1 X153.416 Y72.216 E175.6520
G1 X153.810 Y72.609 E175.6797
G1 X153.810 Y57.406 E176.4382
G1 X154.203 Y57.668 E176.4618
G1 X154.203 Y73.002 E177.2268
G1 X154.597 Y73.395 E177.2545
G1 X154.597 Y58.062 E178.0195
G1 X154.990 Y58.324 E178.0431
G1 X154.990 Y73.789 E178.8147
G1 X155.384 Y74.182 E178.8424
G1 X155.384 Y58.717 E179.6140
G1 X155.778 Y59.110 E179.6417
G1 X155.778 Y74.575 E180.4133
G1 X156.171 Y74.968 E180.4410
G1 X156.171 Y59.503 E181.2126
G1 X156.565 Y59.896 E181.2403
G1 X156.565 Y75.361 E182.0119
G1 X156.958 Y75.754 E182.0396
G1 X156.958 Y60.159 E182.8177
G1 X157.352 Y60.552 E182.8454
G1 X157.352 Y76.148 E183.6235
G1 X157.745 Y76.541 E183.6513
G1 X157.745 Y60.945 E184.4294
G1 X158.139 Y61.338 E184.4571
G1 X158.139 Y76.934 E185.2352
G1 X158.532 Y77.458 E185.2679
G1 X158.532 Y61.600 E186.0590
G1 X158.926 Y61.993 E186.0868
G1 X158.926 Y77.851 E186.8780
G1 X159.320 Y78.376 E186.9107
G1 X159.320 Y62.387 E187.7083
G1 X159.713 Y62.780 E187.7361
G1 X159.713 Y78.769 E188.5338
G1 X160.107 Y79.162 E188.5616
G1 X160.107 Y63.173 E189.3593
G1 X160.500 Y63.435 E189.3828
G1 X160.500 Y79.686 E190.1936
G1 X160.894 Y80.079 E190.2214
G1 X160.894 Y63.828 E191.0322
G1 X161.287 Y64.221 E191.0599
G1 X161.287 Y80.604 E191.8772
G1 X161.681 Y80.997 E191.9050
G1 X161.681 Y64.615 E192.7223
G1 X162.075 Y65.008 E192.7500
G1 X162.075 Y81.521 E193.5739
G1 X162.468 Y81.914 E193.6016
G1 X162.468 Y65.270 E194.4320
G1 X162.862 Y65.663 E194.4598
G1 X162.862 Y82.438 E195.2967
G1 X163.255 Y82.832 E195.3245
G1 X163.255 Y66.056 E196.1614
G1 X163.649 Y66.449 E196.1892
G1 X163.649 Y83.356 E197.0326
G1 X164.042 Y83.749 E197.0604
G1 X164.042 Y66.843 E197.9038
G1 X164.436 Y67.236 E197.9316
G1 X164.436 Y84.273 E198.7816
G1 X164.830 Y84.666 E198.8093
G1 X164.830 Y67.629 E199.6594
G1 X165.223 Y68.153 E199.6921
G1 X165.223 Y85.191 E200.5421
G1 X165.617 Y85.584 E200.5698
G1 X165.617 Y68.546 E201.4198
G1 X166.010 Y68.939 E201.4476
G1 X166.010 Y86.108 E202.3041
G1 X166.404 Y86.632 E202.3368
G1 X166.404 Y69.333 E203.1999
G1 X166.797 Y69.857 E203.2326
G1 X166.797 Y87.156 E204.0957
G1 X167.191 Y87.681 E204.1284
G1 X167.191 Y70.250 E204.9980
G1 X167.584 Y70.643 E205.0257
G1 X167.584 Y88.205 E205.9019
G1 X167.978 Y88.729 E205.9346
G1 X167.978 Y71.036 E206.8173
G1 X168.372 Y71.561 E206.8500
G1 X168.372 Y89.253 E207.7327
G1 X168.765 Y89.778 E207.7654
G1 X168.765 Y71.954 E208.6546
G1 X169.159 Y72.347 E208.6824
G1 X169.159 Y90.302 E209.5781
G1 X169.552 Y90.957 E209.6163
G1 X169.552 Y72.740 E210.5251
G1 X169.946 Y73.133 E210.5529
G1 X169.946 Y91.481 E211.4683
G1 X170.339 Y92.006 E211.5010
G1 X170.339 Y73.657 E212.4164
G1 X170.733 Y74.051 E212.4441
G1 X170.733 Y92.530 E213.3660
G1 X171.127 Y93.054 E213.3987
G1 X171.127 Y74.444 E214.3272
G1 X171.520 Y74.837 E214.3550
G1 X171.520 Y93.578 E215.2900
G1 X171.914 Y94.102 E215.3227
G1 X171.914 Y75.361 E216.2577
G1 X172.307 Y75.754 E216.2854
G1 X172.307 Y94.627 E217.2270
G1 X172.701 Y95.151 E217.2597
G1 X172.701 Y76.279 E218.2012
G1 X173.094 Y76.672 E218.2290
G1 X173.094 Y95.806 E219.1836
G1 X173.488 Y96.461 E219.2217
G1 X173.488 Y77.196 E220.1829
G1 X173.881 Y77.720 E220.2156
G1 X173.881 Y97.117 E221.1833
G1 X174.275 Y97.641 E221.2160
G1 X174.275 Y78.113 E222.1902
G1 X174.669 Y78.638 E222.2229
G1 X174.669 Y98.296 E223.2037
G1 X175.062 Y98.952 E223.2418
G1 X175.062 Y79.162 E224.2291
G1 X175.456 Y79.686 E224.2618
G1 X175.456 Y99.607 E225.2556
G1 X175.849 Y100.131 E225.2883
G1 X175.849 Y80.079 E226.2887
G1 X176.243 Y80.604 E226.3214
G1 X176.243 Y100.786 E227.3284
G1 X176.636 Y101.442 E227.3665
G1 X176.636 Y81.128 E228.3799
G1 X177.030 Y81.521 E228.4077
G1 X177.030 Y102.097 E229.4342
G1 X177.424 Y102.752 E229.4724
G1 X177.424 Y82.045 E230.5054
G1 X177.817 Y82.569 E230.5381
G1 X177.817 Y103.276 E231.5712
G1 X178.211 Y103.932 E231.6094
G1 X178.211 Y83.094 E232.6490
G1 X178.604 Y83.487 E232.6767
G1 X178.604 Y104.587 E233.7294
G1 X178.998 Y105.242 E233.7675
G1 X178.998 Y84.011 E234.8268
G1 X179.391 Y84.535 E234.8595
G1 X179.391 Y106.029 E235.9318
G1 X179.785 Y106.815 E235.9757
G1 X179.785 Y85.059 E237.0610
G1 X180.179 Y85.715 E237.0992
G1 X180.179 Y107.470 E238.1846
G1 X180.572 Y108.257 E238.2284
G1 X180.572 Y86.239 E239.3269
G1 X180.966 Y86.763 E239.3596
G1 X180.966 Y109.043 E240.4711
G1 X181.359 Y109.829 E240.5150
G1 X181.359 Y87.419 E241.6331
G1 X181.753 Y87.943 E241.6658
G1 X181.753 Y110.485 E242.7904
G1 X182.146 Y111.271 E242.8343
G1 X182.146 Y88.467 E243.9720
G1 X182.540 Y89.122 E244.0101
G1 X182.540 Y112.057 E245.1543
G1 X182.934 Y112.713 E245.1925
G1 X182.934 Y89.646 E246.3432
G1 X183.327 Y90.171 E246.3759
G1 X183.327 Y113.499 E247.5398
G1 X183.721 Y114.285 E247.5836
G1 X183.721 Y90.826 E248.7540
G1 X184.114 Y91.350 E248.7867
G1 X184.114 Y114.941 E249.9637
G1 X184.508 Y115.858 E250.0135
G1 X184.508 Y91.874 E251.2100
G1 X184.901 Y92.530 E251.2481
G1 X184.901 Y116.775 E252.4578
G1 X185.295 Y117.693 E252.5076
G1 X185.295 Y93.054 E253.7368
G1 X185.689 Y93.578 E253.7695
G1 X185.689 Y118.610 E255.0184
G1 X186.082 Y119.528 E255.0682
G1 X186.082 Y94.233 E256.3301
G1 X186.476 Y94.889 E256.3682
G1 X186.476 Y120.445 E257.6432
G1 X186.869 Y121.362 E257.6930
G1 X186.869 Y95.544 E258.9811
G1 X187.263 Y96.330 E259.0250
G1 X187.263 Y122.280 E260.3196
G1 X187.656 Y123.197 E260.3694
G1 X187.656 Y96.986 E261.6771
G1 X188.050 Y97.641 E261.7153
G1 X188.050 Y124.115 E263.0361
G1 X188.444 Y125.032 E263.0859
G1 X188.444 Y98.296 E264.4197
G1 X188.837 Y98.952 E264.4579
G1 X188.837 Y125.949 E265.8048
G1 X189.231 Y126.998 E265.8607
G1 X189.231 Y99.607 E267.2272
G1 X189.624 Y100.262 E267.2654
G1 X189.624 Y128.177 E268.6581
G1 X190.018 Y129.357 E268.7201
G1 X190.018 Y100.917 E270.1390
G1 X190.411 Y101.573 E270.1771
G1 X190.411 Y130.405 E271.6156
G1 X190.805 Y131.585 E271.6776
G1 X190.805 Y102.228 E273.1423
G1 X191.199 Y102.883 E273.1804
G1 X191.199 Y132.764 E274.6712
G1 X191.592 Y133.813 E274.7271
G1 X191.592 Y103.670 E276.2309
G1 X191.986 Y104.456 E276.2748
G1 X191.986 Y134.992 E277.7983
G1 X192.379 Y136.172 E277.8603
G1 X192.379 Y105.242 E279.4034
G1 X192.773 Y106.029 E279.4473
G1 X192.773 Y137.613 E281.0231
G1 X193.166 Y139.055 E281.0976
G1 X193.166 Y106.815 E282.7061
G1 X193.560 Y107.601 E282.7500
G1 X193.560 Y140.497 E284.3911
G1 X193.954 Y142.069 E284.4720
G1 X193.954 Y108.519 E286.1458
G1 X194.347 Y109.305 E286.1897
G1 X194.347 Y143.511 E287.8963
G1 X194.741 Y144.953 E287.9708
G1 X194.741 Y110.091 E289.7100
G1 X195.134 Y110.878 E289.7539
G1 X195.134 Y146.394 E291.5258
G1 X195.528 Y148.229 E291.6195
G1 X195.528 Y111.664 E293.4437
G1 X195.921 Y112.450 E293.4876
G1 X195.921 Y150.326 E295.3772
G0 F4800 E294.3772
G0 X196.315 Y152.423 F10800
G0 F4800 E295.3772
G1 X196.315 Y113.237 E297.3322 F3600
G1 X196.709 Y114.154 E297.3820
G1 X196.709 Y154.520 E299.3959
G0 F4800 E298.3959
G0 X197.102 Y156.617 F10800
G0 F4800 E299.3959
G1 X197.102 Y115.203 E301.4620 F3600
G1 X197.496 Y116.120 E301.5119
G1 X197.496 Y159.107 E303.6565
G0 F4800 E302.6565
G0 X197.889 Y162.645 F10800
G0 F4800 E303.6565
G1 X197.889 Y117.037 E305.9319 F3600
G1 X198.283 Y117.955 E305.9817
G1 X198.283 Y166.184 E308.3878
G0 F4800 E307.3878
G0 X198.676 Y169.722 F10800
G0 F4800 E308.3878
G1 X198.676 Y119.003 E310.9182 F3600
G1 X199.070 Y119.921 E310.9680
G1 X199.070 Y180.600 E313.9953
G1 X199.464 Y180.993 E314.0231
G1 X199.464 Y120.838 E317.0242
G0 F4800 E316.0242
G0 X200.644 Y123.852 F10800
G0 F4800 E317.0242
G1 X200.644 Y182.173 E319.9339 F3600
G1 X200.251 Y181.780 E319.9616
G1 X200.251 Y122.804 E322.9039
G1 X199.857 Y121.887 E322.9537
G1 X199.857 Y181.387 E325.9222
G0 F4800 E324.9222
G0 X209.696 Y180.993 F10800
G0 F4800 E325.9222
G1 X209.696 Y166.577 E326.6414 F3600
G0 F4800 E325.6414
G0 X209.303 Y162.645 F10800
G0 F4800 E326.6414
G1 X209.303 Y181.387 E327.5764 F3600
G1 X208.909 Y181.780 E327.6042
G1 X208.909 Y158.714 E328.7549
G0 F4800 E327.7549
G0 X208.516 Y155.306 F10800
G0 F4800 E328.7549
G1 X208.516 Y182.173 E330.0953 F3600
G1 X208.122 Y182.566 E330.1231
G1 X208.122 Y153.078 E331.5942
G0 F4800 E330.5942
G0 X207.729 Y150.850 F10800
G0 F4800 E331.5942
G1 X207.729 Y182.959 E333.1961 F3600
G1 X207.335 Y183.090 E333.2168
G1 X207.335 Y148.622 E334.9364
G0 F4800 E333.9364
G0 X206.941 Y146.394 F10800
G0 F4800 E334.9364
G1 X206.941 Y183.090 E336.7672 F3600
G1 X206.548 Y183.090 E336.7868
G1 X206.548 Y144.166 E338.7288
G1 X206.154 Y142.594 E338.8096
G1 X206.154 Y183.090 E340.8300
G1 X205.761 Y183.090 E340.8497
G1 X205.761 Y141.152 E342.9420
G1 X205.367 Y139.579 E343.0228
G1 X205.367 Y183.090 E345.1936
G1 X204.974 Y183.090 E345.2132
G1 X204.974 Y138.007 E347.4625
G1 X204.580 Y136.434 E347.5433
G1 X204.580 Y183.090 E349.8710
G1 X204.186 Y183.090 E349.8907
G1 X204.186 Y134.861 E352.2968
G1 X203.793 Y133.420 E352.3714
G1 X203.793 Y183.090 E354.8495
G1 X203.399 Y183.090 E354.8691
G1 X203.399 Y132.240 E357.4060
G1 X203.006 Y131.061 E357.4681
G1 X203.006 Y183.090 E360.0638
G1 X202.612 Y183.090 E360.0834
G1 X202.612 Y129.881 E362.7381
G1 X202.219 Y128.702 E362.8001
G1 X202.219 Y183.090 E365.5136
G1 X201.825 Y183.090 E365.5332
G1 X201.825 Y127.522 E368.3055
G1 X201.431 Y126.211 E368.3738
G1 X201.431 Y182.959 E371.2049
G1 X201.038 Y182.566 E371.2327
G1 X201.038 Y125.032 E374.1031


; ------------------------------------
; Layer #0
; ------------------------------------
G21 ; mm
G90 ; abs
G92 E0 ; reset extr
M106 S255
G0 F4800 E-1.0000
G0 F300 Z1.950
G0 X203.788 Y167.473 F10800
G0 X204.475 Y178.083
G0 F4800 E0.0000
;segType:Loop
G1 X204.056 Y178.083 E0.0139 F600
G1 X203.684 Y167.737 E0.3582
G1 X202.432 Y156.332 E0.7399
G1 X200.329 Y145.054 E1.1214
G1 X197.384 Y133.965 E1.5031
G1 X193.616 Y123.128 E1.8847
G1 X189.045 Y112.605 E2.2663
G1 X183.697 Y102.454 E2.6479
G1 X177.602 Y92.733 E3.0295
G1 X170.796 Y83.497 E3.4111
G1 X163.314 Y74.799 E3.7927
G1 X155.201 Y66.686 E4.1743
G1 X146.503 Y59.204 E4.5559
G1 X137.267 Y52.398 E4.9375
G1 X127.546 Y46.303 E5.3191
G1 X117.395 Y40.955 E5.7007
G1 X106.872 Y36.384 E6.0823
G1 X96.035 Y32.616 E6.4639
G1 X84.946 Y29.671 E6.8455
G1 X73.668 Y27.568 E7.2271
G1 X62.268 Y26.317 E7.6085
G1 X62.082 Y26.307 E7.6147
G1 X51.917 Y25.942 E7.9530
G1 X51.917 Y24.858 E7.9891
G1 X61.384 Y25.168 E8.3041
G1 X61.459 Y25.174 E8.3066
G1 X72.333 Y26.282 E8.6702
G1 X72.391 Y26.288 E8.6721
G1 X83.303 Y28.201 E9.0406
G1 X94.045 Y30.891 E9.4089
G1 X104.565 Y34.347 E9.7772
G1 X114.810 Y38.552 E10.1455
G1 X124.725 Y43.482 E10.5138
G1 X134.260 Y49.112 E10.8821
G1 X143.366 Y55.414 E11.2504
G1 X151.995 Y62.355 E11.6188
G1 X160.101 Y69.899 E11.9871
G1 X167.645 Y78.005 E12.3554
G1 X174.586 Y86.634 E12.7237
G1 X180.888 Y95.740 E13.0920
G1 X186.518 Y105.275 E13.4603
G1 X191.448 Y115.190 E13.8286
G1 X195.653 Y125.435 E14.1969
G1 X199.109 Y135.955 E14.5652
G1 X201.799 Y146.697 E14.9335
G1 X203.711 Y157.606 E15.3019
G1 X204.834 Y168.639 E15.6708
G1 X204.839 Y168.747 E15.6744
G1 X205.144 Y178.083 E15.9850
G1 X204.672 Y178.083 E16.0007
;segType:Perimeter
G0 X205.211 Y177.835 F10800
G1 X205.498 Y178.483 E16.0243 F359
G1 X203.676 Y178.483 E16.0849
G1 X203.667 Y178.409 E16.0874
G1 X203.284 Y167.766 E16.4416
G1 X202.036 Y156.391 E16.8222
G1 X199.938 Y145.142 E17.2028
G1 X197.002 Y134.082 E17.5834
G1 X193.243 Y123.274 E17.9640
G1 X188.684 Y112.778 E18.3446
G1 X183.351 Y102.654 E18.7252
G1 X177.272 Y92.958 E19.1058
G1 X170.483 Y83.747 E19.4864
G1 X163.021 Y75.071 E19.8670
G1 X154.929 Y66.979 E20.2476
G1 X146.253 Y59.517 E20.6283
G1 X137.042 Y52.729 E21.0088
G1 X127.346 Y46.649 E21.3895
G1 X117.222 Y41.316 E21.7701
G1 X106.726 Y36.757 E22.1507
G1 X95.918 Y32.998 E22.5313
G1 X84.858 Y30.062 E22.9119
G1 X73.609 Y27.964 E23.2925
G1 X62.235 Y26.716 E23.6730
G1 X62.064 Y26.707 E23.6787
G1 X51.517 Y26.328 E24.0297
G1 X51.517 Y24.451 E24.0922
G1 X51.593 Y24.447 E24.0947
G1 X61.407 Y24.769 E24.4213
G1 X61.495 Y24.776 E24.4243
G1 X72.377 Y25.884 E24.7881
G1 X72.449 Y25.892 E24.7905
G1 X83.386 Y27.809 E25.1598
G1 X94.156 Y30.507 E25.5291
G1 X104.704 Y33.972 E25.8983
G1 X114.975 Y38.187 E26.2676
G1 X124.916 Y43.130 E26.6369
G1 X134.476 Y48.775 E27.0061
G1 X143.605 Y55.094 E27.3754
G1 X152.256 Y62.053 E27.7447
G1 X160.385 Y69.615 E28.1139
G1 X167.947 Y77.744 E28.4832
G1 X174.906 Y86.395 E28.8525
G1 X181.225 Y95.524 E29.2217
G1 X186.870 Y105.084 E29.5910
G1 X191.813 Y115.025 E29.9603
G1 X196.028 Y125.296 E30.3295
G1 X199.493 Y135.844 E30.6988
G1 X202.191 Y146.614 E31.0681
G1 X204.108 Y157.551 E31.4374
G1 X205.233 Y168.611 E31.8071
G1 X205.238 Y168.731 E31.8111
G1 X205.555 Y178.424 E32.1337
G1 X204.899 Y178.158
;segType:Loop
G0 X204.432 Y177.406 F10800
G1 X204.083 Y167.709 E32.4564 F600
G1 X202.828 Y156.274 E32.8391
G1 X200.719 Y144.966 E33.2216
G1 X197.767 Y133.848 E33.6042
G1 X193.989 Y122.982 E33.9868
G1 X189.406 Y112.432 E34.3694
G1 X184.044 Y102.254 E34.7521
G1 X177.933 Y92.508 E35.1347
G1 X171.109 Y83.248 E35.5173
G1 X163.608 Y74.527 E35.8999
G1 X155.474 Y66.392 E36.2825
G1 X146.752 Y58.891 E36.6651
G1 X137.492 Y52.067 E37.0477
G1 X127.746 Y45.956 E37.4303
G1 X117.568 Y40.594 E37.8129
G1 X107.018 Y36.011 E38.1955
G1 X96.152 Y32.233 E38.5781
G1 X85.034 Y29.281 E38.9607
G1 X73.726 Y27.172 E39.3433
G1 X62.300 Y25.918 E39.7256
G1 X62.100 Y25.908 E39.7323
G1 X52.317 Y25.556 E40.0579
G1 X52.317 Y25.271 E40.0673
G1 X61.362 Y25.568 E40.3683
G1 X61.423 Y25.573 E40.3704
G1 X72.332 Y26.684 E40.7351
G1 X83.220 Y28.592 E41.1027
G1 X93.934 Y31.276 E41.4701
G1 X104.427 Y34.723 E41.8374
G1 X114.645 Y38.916 E42.2048
G1 X124.535 Y43.833 E42.5721
G1 X134.045 Y49.450 E42.9395
G1 X143.127 Y55.735 E43.3068
G1 X151.733 Y62.658 E43.6742
G1 X159.818 Y70.182 E44.0415
G1 X167.342 Y78.267 E44.4089
G1 X174.265 Y86.873 E44.7762
G1 X180.550 Y95.955 E45.1436
G1 X186.167 Y105.466 E45.5109
G1 X191.084 Y115.355 E45.8783
G1 X195.277 Y125.573 E46.2457
G1 X198.724 Y136.066 E46.6130
G1 X201.408 Y146.780 E46.9804
G1 X203.315 Y157.661 E47.3478
G1 X204.435 Y168.669 E47.7158
G1 X204.439 Y168.763 E47.7189
G1 X204.731 Y177.683 E48.0158
G1 X204.442 Y177.683 E48.0254
G1 X204.439 Y177.602 E48.0280
; ------------------------------------
; Layer #1
; ------------------------------------
G21 ; mm
G90 ; abs
G92 E0 ; reset extr
M106 S255
;segType:Loop
G0 F4800 E-1.0000
G0 F300 Z1.900
G0 X204.467 Y178.083 F10800
G0 F4800 E0.0000
G1 X204.057 Y178.083 E0.0137 F3600
G1 X203.689 Y167.820 E0.3552
G1 X203.682 Y167.714 E0.3587
G1 X202.432 Y156.333 E0.7396
G1 X200.329 Y145.054 E1.1212
G1 X197.384 Y133.965 E1.5028
G1 X193.616 Y123.128 E1.8844
G1 X189.045 Y112.605 E2.2660
G1 X183.697 Y102.454 E2.6476
G1 X177.602 Y92.733 E3.0292
G1 X170.796 Y83.497 E3.4108
G1 X163.314 Y74.799 E3.7924
G1 X155.201 Y66.686 E4.1740
G1 X146.503 Y59.204 E4.5556
G1 X137.267 Y52.398 E4.9372
G1 X127.546 Y46.303 E5.3188
G1 X117.395 Y40.955 E5.7004
G1 X106.872 Y36.384 E6.0820
G1 X96.035 Y32.616 E6.4636
G1 X84.946 Y29.671 E6.8452
G1 X73.667 Y27.568 E7.2268
G1 X62.268 Y26.317 E7.6083
G1 X61.918 Y26.299 E7.6199
G1 X51.917 Y25.940 E7.9527
G1 X51.917 Y24.857 E7.9888
G1 X61.383 Y25.168 E8.3038
G1 X61.556 Y25.183 E8.3095
G1 X72.255 Y26.272 E8.6672
G1 X72.390 Y26.288 E8.6717
G1 X83.303 Y28.201 E9.0403
G1 X94.045 Y30.891 E9.4086
G1 X104.565 Y34.347 E9.7769
G1 X114.810 Y38.552 E10.1452
G1 X124.725 Y43.482 E10.5135
G1 X134.260 Y49.112 E10.8818
G1 X143.366 Y55.414 E11.2501
G1 X151.995 Y62.355 E11.6184
G1 X160.101 Y69.899 E11.9867
G1 X167.645 Y78.005 E12.3550
G1 X174.586 Y86.634 E12.7233
G1 X180.888 Y95.740 E13.0917
G1 X186.518 Y105.275 E13.4600
G1 X191.448 Y115.190 E13.8283
G1 X195.653 Y125.435 E14.1966
G1 X199.109 Y135.955 E14.5649
G1 X201.799 Y146.697 E14.9332
G1 X203.711 Y157.604 E15.3015
G1 X204.834 Y168.655 E15.6710
G1 X204.845 Y168.887 E15.6787
G1 X205.146 Y178.083 E15.9847
G1 X204.664 Y178.083 E16.0007
G0 F4800 E15.0007
G0 X205.268 Y177.810 F10800
G0 F4800 E16.0007
;segType:Perimeter
G1 X205.491 Y178.483 E16.0243 F2159
G1 X203.686 Y178.483 E16.0843
G1 X203.659 Y178.157 E16.0952
G1 X203.289 Y167.840 E16.4385
G1 X203.283 Y167.749 E16.4416
G1 X202.036 Y156.392 E16.8216
G1 X199.938 Y145.142 E17.2022
G1 X197.002 Y134.082 E17.5828
G1 X193.243 Y123.274 E17.9634
G1 X188.684 Y112.778 E18.3440
G1 X183.351 Y102.654 E18.7246
G1 X177.272 Y92.958 E19.1052
G1 X170.483 Y83.747 E19.4858
G1 X163.021 Y75.071 E19.8664
G1 X154.929 Y66.979 E20.2470
G1 X146.253 Y59.517 E20.6277
G1 X137.042 Y52.729 E21.0083
G1 X127.346 Y46.649 E21.3889
G1 X117.222 Y41.316 E21.7695
G1 X106.726 Y36.757 E22.1501
G1 X95.918 Y32.998 E22.5307
G1 X84.858 Y30.062 E22.9113
G1 X73.609 Y27.964 E23.2919
G1 X62.235 Y26.716 E23.6724
G1 X61.900 Y26.698 E23.6836
G1 X51.604 Y26.329 E24.0263
G1 X51.517 Y26.318 E24.0292
G1 X51.517 Y24.453 E24.0912
G1 X51.859 Y24.455 E24.1026
G1 X61.407 Y24.769 E24.4203
G1 X61.592 Y24.784 E24.4265
G1 X72.299 Y25.875 E24.7844
G1 X72.448 Y25.892 E24.7894
G1 X83.386 Y27.809 E25.1588
G1 X94.156 Y30.507 E25.5281
G1 X104.704 Y33.972 E25.8973
G1 X114.975 Y38.187 E26.2666
G1 X124.916 Y43.130 E26.6359
G1 X134.476 Y48.775 E27.0051
G1 X143.605 Y55.094 E27.3744
G1 X152.256 Y62.053 E27.7437
G1 X160.385 Y69.615 E28.1129
G1 X167.947 Y77.744 E28.4822
G1 X174.906 Y86.395 E28.8515
G1 X181.225 Y95.524 E29.2207
G1 X186.870 Y105.084 E29.5900
G1 X191.813 Y115.025 E29.9593
G1 X196.028 Y125.296 E30.3285
G1 X199.493 Y135.844 E30.6978
G1 X202.191 Y146.614 E31.0671
G1 X204.107 Y157.550 E31.4363
G1 X205.234 Y168.625 E31.8066
G1 X205.245 Y168.871 E31.8148
G1 X205.557 Y178.407 E32.1321
G1 X205.555 Y178.424 E32.1327
G1 X204.908 Y178.137
;segType:Loop
G0 X204.433 Y177.397 F10800
G1 X204.088 Y167.799 E32.4522 F3600
G1 X204.080 Y167.679 E32.4562
G1 X202.828 Y156.274 E32.8378
G1 X200.719 Y144.965 E33.2204
G1 X197.767 Y133.848 E33.6030
G1 X193.989 Y122.982 E33.9856
G1 X189.406 Y112.432 E34.3682
G1 X184.044 Y102.254 E34.7508
G1 X177.933 Y92.508 E35.1334
G1 X171.109 Y83.248 E35.5160
G1 X163.608 Y74.527 E35.8986
G1 X155.474 Y66.392 E36.2812
G1 X146.752 Y58.891 E36.6638
G1 X137.492 Y52.067 E37.0464
G1 X127.746 Y45.956 E37.4290
G1 X117.568 Y40.594 E37.8116
G1 X107.018 Y36.011 E38.1942
G1 X96.152 Y32.233 E38.5768
G1 X85.034 Y29.281 E38.9594
G1 X73.726 Y27.172 E39.3420
G1 X62.300 Y25.918 E39.7243
G1 X61.935 Y25.899 E39.7365
G1 X52.317 Y25.554 E40.0566
G1 X52.317 Y25.270 E40.0660
G1 X61.360 Y25.567 E40.3669
G1 X61.519 Y25.581 E40.3722
G1 X72.211 Y26.670 E40.7297
G1 X72.331 Y26.684 E40.7337
G1 X83.220 Y28.592 E41.1014
G1 X93.934 Y31.276 E41.4688
G1 X104.427 Y34.723 E41.8361
G1 X114.645 Y38.916 E42.2035
G1 X124.535 Y43.833 E42.5708
G1 X134.045 Y49.450 E42.9382
G1 X143.127 Y55.735 E43.3055
G1 X151.733 Y62.658 E43.6729
G1 X159.818 Y70.182 E44.0402
G1 X167.342 Y78.267 E44.4076
G1 X174.265 Y86.873 E44.7749
G1 X180.550 Y95.955 E45.1423
G1 X186.167 Y105.466 E45.5096
G1 X191.084 Y115.355 E45.8770
G1 X195.277 Y125.573 E46.2443
G1 X198.724 Y136.066 E46.6117
G1 X201.408 Y146.780 E46.9790
G1 X203.314 Y157.659 E47.3464
G1 X204.435 Y168.685 E47.7150
G1 X204.446 Y168.904 E47.7223
G1 X204.733 Y177.683 E48.0144
G1 X204.443 Y177.683 E48.0241
G1 X204.440 Y177.594 E48.0271
; ------------------------------------
; Layer #2
; ------------------------------------
G21 ; mm
G90 ; abs
G92 E0 ; reset extr
M106 S255
;segType:Loop
G0 F4800 E-1.0000
G0 F300 Z2.100
G0 X204.452 Y178.083 F10800
G0 F4800 E0.0000
G1 X204.057 Y178.083 E0.0131 F3600
G1 X204.051 Y177.887 E0.0196
G1 X203.691 Y167.855 E0.3535
G1 X203.681 Y167.707 E0.3584
G1 X202.433 Y156.333 E0.7390
G1 X200.329 Y145.054 E1.1206
G1 X197.384 Y133.965 E1.5022
G1 X193.616 Y123.128 E1.8839
G1 X189.045 Y112.605 E2.2655
G1 X183.697 Y102.454 E2.6471
G1 X177.602 Y92.733 E3.0287
G1 X170.796 Y83.497 E3.4103
G1 X163.314 Y74.799 E3.7919
G1 X155.201 Y66.686 E4.1735
G1 X146.503 Y59.204 E4.5551
G1 X137.267 Y52.398 E4.9367
G1 X127.546 Y46.303 E5.3183
G1 X117.395 Y40.955 E5.6999
G1 X106.872 Y36.384 E6.0815
G1 X96.035 Y32.616 E6.4631
G1 X84.946 Y29.671 E6.8447
G1 X73.668 Y27.568 E7.2263
G1 X72.986 Y27.492 E7.2491
G1 X62.267 Y26.317 E7.6077
G1 X61.754 Y26.290 E7.6249
G1 X51.917 Y25.937 E7.9522
G1 X51.917 Y24.857 E7.9881
G1 X61.383 Y25.168 E8.3032
G1 X61.652 Y25.191 E8.3121
G1 X72.175 Y26.262 E8.6639
G1 X72.390 Y26.288 E8.6711
G1 X83.303 Y28.201 E9.0396
G1 X94.045 Y30.891 E9.4079
G1 X104.565 Y34.347 E9.7763
G1 X114.810 Y38.552 E10.1446
G1 X124.725 Y43.482 E10.5129
G1 X134.260 Y49.112 E10.8812
G1 X143.366 Y55.414 E11.2495
G1 X151.995 Y62.355 E11.6178
G1 X160.101 Y69.899 E11.9861
G1 X167.645 Y78.005 E12.3544
G1 X174.586 Y86.634 E12.7227
G1 X180.888 Y95.740 E13.0910
G1 X186.518 Y105.275 E13.4594
G1 X191.448 Y115.190 E13.8277
G1 X195.653 Y125.435 E14.1960
G1 X199.109 Y135.955 E14.5643
G1 X201.799 Y146.697 E14.9326
G1 X203.711 Y157.604 E15.3009
G1 X204.835 Y168.669 E15.6708
G1 X204.852 Y169.029 E15.6828
G1 X205.148 Y178.083 E15.9841
G1 X204.649 Y178.083 E16.0007
G0 F4800 E15.0007
G0 X205.252 Y177.810 F10800
G0 F4800 E16.0007
;segType:Perimeter
G1 X205.475 Y178.483 E16.0243 F2159
G1 X203.670 Y178.483 E16.0843
G1 X203.651 Y177.901 E16.1037
G1 X203.291 Y167.875 E16.4374
G1 X203.283 Y167.743 E16.4418
G1 X202.037 Y156.392 E16.8216
G1 X199.938 Y145.142 E17.2022
G1 X197.002 Y134.082 E17.5828
G1 X193.243 Y123.274 E17.9634
G1 X188.684 Y112.778 E18.3440
G1 X183.351 Y102.654 E18.7246
G1 X177.272 Y92.958 E19.1052
G1 X170.483 Y83.747 E19.4858
G1 X163.021 Y75.071 E19.8664
G1 X154.929 Y66.979 E20.2470
G1 X146.253 Y59.517 E20.6276
G1 X137.042 Y52.729 E21.0082
G1 X127.346 Y46.649 E21.3888
G1 X117.222 Y41.316 E21.7694
G1 X106.726 Y36.757 E22.1501
G1 X95.918 Y32.998 E22.5307
G1 X84.858 Y30.062 E22.9113
G1 X73.609 Y27.964 E23.2919
G1 X72.943 Y27.890 E23.3141
G1 X62.235 Y26.716 E23.6724
G1 X61.736 Y26.690 E23.6890
G1 X51.739 Y26.331 E24.0218
G1 X51.517 Y26.302 E24.0292
G1 X51.517 Y24.445 E24.0910
G1 X52.136 Y24.464 E24.1116
G1 X61.407 Y24.769 E24.4201
G1 X61.688 Y24.793 E24.4295
G1 X72.220 Y25.865 E24.7816
G1 X72.449 Y25.892 E24.7892
G1 X83.386 Y27.809 E25.1586
G1 X94.156 Y30.507 E25.5278
G1 X104.704 Y33.972 E25.8971
G1 X114.975 Y38.187 E26.2664
G1 X124.916 Y43.130 E26.6357
G1 X134.476 Y48.775 E27.0049
G1 X143.605 Y55.094 E27.3742
G1 X152.256 Y62.053 E27.7435
G1 X160.385 Y69.615 E28.1127
G1 X167.947 Y77.744 E28.4820
G1 X174.906 Y86.395 E28.8513
G1 X181.225 Y95.524 E29.2205
G1 X186.870 Y105.084 E29.5898
G1 X191.813 Y115.025 E29.9591
G1 X196.028 Y125.296 E30.3283
G1 X199.493 Y135.844 E30.6976
G1 X202.191 Y146.614 E31.0669
G1 X204.107 Y157.550 E31.4361
G1 X205.234 Y168.639 E31.8069
G1 X205.252 Y169.013 E31.8193
G1 X205.555 Y178.272 E32.1274
G1 X205.540 Y178.424 E32.1325
G1 X204.892 Y178.137
;segType:Loop
G0 X204.433 Y177.381 F10800
G1 X204.091 Y167.834 E32.4503 F3600
G1 X204.080 Y167.672 E32.4557
G1 X202.829 Y156.274 E32.8370
G1 X200.719 Y144.966 E33.2197
G1 X197.767 Y133.848 E33.6023
G1 X193.989 Y122.982 E33.9849
G1 X189.406 Y112.432 E34.3675
G1 X184.044 Y102.254 E34.7501
G1 X177.933 Y92.508 E35.1327
G1 X171.109 Y83.248 E35.5153
G1 X163.608 Y74.527 E35.8979
G1 X155.474 Y66.392 E36.2805
G1 X146.752 Y58.891 E36.6631
G1 X137.492 Y52.067 E37.0457
G1 X127.746 Y45.956 E37.4283
G1 X117.568 Y40.594 E37.8109
G1 X107.018 Y36.011 E38.1935
G1 X96.152 Y32.233 E38.5761
G1 X85.034 Y29.281 E38.9587
G1 X73.726 Y27.172 E39.3413
G1 X73.030 Y27.095 E39.3646
