; GCode generated by CraftWare

G28 X0 Y0
G28 Z0

M190 S60 ;set bed temp (wait)
M109 S215 ;set head temp (wait)

; ------------------------------------
; Raft Layer #0
; ------------------------------------
G21 ; mm
G90 ; abs
G92 E0 ; reset extr
M106 S0
;segType:Raft
G0 F4800 E-1.0000
G0 F300 Z0.300
G0 X0.000 Y0.000 F10800
G0 F4800 E0.0000
G1 X118.444 Y122.647 E8.5064 F600
G1 X118.444 Y72.221 E11.0222
G1 X122.233 Y72.221 E11.2112
G1 X122.233 Y126.223 E13.9054
G1 X126.022 Y127.826 E14.1107
G1 X126.022 Y71.728 E16.9094
G1 X129.811 Y72.961 E17.1082
G1 X129.811 Y127.949 E19.8515
G1 X133.600 Y127.826 E20.0407
G1 X133.600 Y71.974 E22.8271
G1 X137.389 Y72.221 E23.0165
G1 X137.389 Y126.346 E25.7168
G1 X141.178 Y122.894 E25.9726
G1 X141.178 Y72.221 E28.5007



; ------------------------------------
; Raft Layer #1
; ------------------------------------
G21 ; mm
G90 ; abs
G92 E0 ; reset extr
M106 S0
;segType:Raft
G0 F4800 E-1.0000
G0 F300 Z0.600
G0 X142.870 Y72.995 F10800
G0 F4800 E0.0000
G1 X130.252 Y72.995 E0.6295 F3600
G1 X129.874 Y72.995 E0.6484
G1 X116.878 Y72.995 E1.2967
G1 X115.616 Y74.229 E1.3848
G1 X144.131 Y74.229 E2.8074
G0 F4800 E1.8074
G0 X128.612 Y71.761 F10800
G0 F4800 E2.8074
G1 X123.187 Y71.761 E3.0781 F3600
G0 F4800 E2.0781
G0 X115.364 Y75.463 F10800
G0 F4800 E3.0781
G1 X144.384 Y75.463 E4.5258 F3600
G1 X144.384 Y76.698 E4.5874
G1 X115.364 Y76.698 E6.0352
G1 X115.364 Y77.932 E6.0968
G1 X144.384 Y77.932 E7.5446
G1 X144.384 Y79.166 E7.6061
G1 X115.364 Y79.166 E9.0539
G1 X115.364 Y80.400 E9.1155
G1 X144.384 Y80.400 E10.5633
G1 X144.384 Y81.634 E10.6249
G1 X115.364 Y81.634 E12.0727
G1 X115.364 Y82.868 E12.1342
G1 X144.384 Y82.868 E13.5820
G1 X144.384 Y84.103 E13.6436
G1 X115.364 Y84.103 E15.0914
G1 X115.364 Y85.337 E15.1530
G1 X144.384 Y85.337 E16.6007
G1 X144.384 Y86.571 E16.6623
G1 X115.364 Y86.571 E18.1101
G1 X115.364 Y87.805 E18.1717
G1 X144.384 Y87.805 E19.6195
G1 X144.384 Y89.039 E19.6810
G1 X115.364 Y89.039 E21.1288
G1 X115.364 Y90.273 E21.1904
G1 X144.384 Y90.273 E22.6382
G1 X144.384 Y91.507 E22.6998
G1 X115.364 Y91.507 E24.1476
G1 X115.364 Y92.742 E24.2091
G1 X144.384 Y92.742 E25.6569
G1 X144.384 Y93.976 E25.7185
G1 X115.364 Y93.976 E27.1663
G1 X115.364 Y95.210 E27.2279
G1 X144.384 Y95.210 E28.6756
G1 X144.384 Y96.444 E28.7372
G1 X115.364 Y96.444 E30.1850
G1 X115.364 Y97.678 E30.2466
G1 X144.384 Y97.678 E31.6944
G1 X144.384 Y98.912 E31.7559
G1 X115.364 Y98.912 E33.2037
G1 X115.364 Y100.146 E33.2653
G1 X144.384 Y100.146 E34.7131
G1 X144.384 Y101.381 E34.7747
G1 X115.364 Y101.381 E36.2225
G1 X115.364 Y102.615 E36.2840
G1 X144.384 Y102.615 E37.7318
G1 X144.384 Y103.849 E37.7934
G1 X115.364 Y103.849 E39.2412
G1 X115.364 Y105.083 E39.3028
G1 X144.384 Y105.083 E40.7506
G1 X144.384 Y106.317 E40.8121
G1 X115.364 Y106.317 E42.2599
G1 X115.364 Y107.551 E42.3215
G1 X144.384 Y107.551 E43.7693
G1 X144.384 Y108.786 E43.8309
G1 X115.364 Y108.786 E45.2787
G1 X115.364 Y110.020 E45.3402
G1 X144.384 Y110.020 E46.7880
G1 X144.384 Y111.254 E46.8496
G1 X115.364 Y111.254 E48.2974
G1 X115.364 Y112.488 E48.3590
G1 X144.384 Y112.488 E49.8068
G1 X144.384 Y113.722 E49.8683
G1 X115.364 Y113.722 E51.3161
G1 X115.364 Y114.956 E51.3777
G1 X144.384 Y114.956 E52.8255
G1 X144.384 Y116.190 E52.8871
G1 X115.364 Y116.190 E54.3348
G1 X115.616 Y117.425 E54.3977
G1 X144.131 Y117.425 E55.8203
G1 X143.753 Y118.659 E55.8847
G1 X115.995 Y118.659 E57.2696
G1 X116.373 Y119.893 E57.3340
G1 X143.374 Y119.893 E58.6810
G1 X142.617 Y121.127 E58.7533
G1 X117.130 Y121.127 E60.0248
G1 X118.140 Y122.361 E60.1043
G1 X141.608 Y122.361 E61.2752
G1 X140.346 Y123.595 E61.3632
G1 X119.402 Y123.595 E62.4081
G1 X120.663 Y124.830 E62.4962
G1 X139.084 Y124.830 E63.4152
G1 X137.696 Y126.064 E63.5079
G1 X122.051 Y126.064 E64.2884
G1 X124.575 Y127.298 E64.4286
G1 X135.173 Y127.298 E64.9573



; ------------------------------------
; Raft Layer #2
; ------------------------------------
G21 ; mm
G90 ; abs
G92 E0 ; reset extr
M106 S0
;segType:Raft
G0 F4800 E-1.0000
G0 F300 Z0.900
G0 X143.830 Y118.702 F10800
G0 F4800 E0.0000
G1 X143.830 Y73.947 E2.2328 F3600
G1 X143.451 Y73.577 E2.2592
G1 X143.451 Y119.688 E4.5597
G1 X143.072 Y120.428 E4.6012
G1 X143.072 Y73.207 E6.9571
G1 X142.693 Y72.837 E6.9835
G1 X142.693 Y121.044 E9.3885
G1 X142.314 Y121.661 E9.4246
G1 X142.314 Y72.467 E11.8789
G1 X141.935 Y72.221 E11.9015
G1 X141.935 Y122.154 E14.3926
G1 X141.557 Y122.524 E14.4191
G1 X141.557 Y72.221 E16.9287
G1 X141.178 Y72.221 E16.9476
G1 X141.178 Y122.894 E19.4757
G1 X140.799 Y123.264 E19.5021
G1 X140.799 Y72.221 E22.0486
G1 X140.420 Y72.221 E22.0675
G1 X140.420 Y123.634 E24.6325
G1 X140.041 Y124.003 E24.6589
G1 X140.041 Y72.221 E27.2424
G1 X139.662 Y72.221 E27.2613
G1 X139.662 Y124.373 E29.8632
G1 X139.283 Y124.743 E29.8896
G1 X139.283 Y72.221 E32.5099
G1 X138.904 Y72.221 E32.5288
G1 X138.904 Y125.113 E35.1676
G1 X138.525 Y125.483 E35.1941
G1 X138.525 Y72.221 E37.8513
G1 X138.147 Y72.221 E37.8702
G1 X138.147 Y125.853 E40.5459
G1 X137.768 Y126.099 E40.5685
G1 X137.768 Y72.221 E43.2565
G1 X137.389 Y72.221 E43.2754
G1 X137.389 Y126.346 E45.9757
G1 X137.010 Y126.593 E45.9983
G1 X137.010 Y72.221 E48.7109
G1 X136.631 Y72.098 E48.7308
G1 X136.631 Y126.716 E51.4557
G1 X136.252 Y126.962 E51.4782
G1 X136.252 Y72.098 E54.2154
G1 X135.873 Y72.098 E54.2343
G1 X135.873 Y127.209 E56.9839
G1 X135.494 Y127.332 E57.0037
G1 X135.494 Y71.974 E59.7656
G1 X135.115 Y71.974 E59.7845
G1 X135.115 Y127.456 E62.5524
G1 X134.736 Y127.579 E62.5723
G1 X134.736 Y71.974 E65.3464
G1 X134.358 Y71.974 E65.3654
G1 X134.358 Y127.702 E68.1456
G1 X133.979 Y127.826 E68.1655
G1 X133.979 Y71.974 E70.9519
G1 X133.600 Y71.974 E70.9708
G1 X133.600 Y127.826 E73.7573
G1 X133.221 Y127.949 E73.7772
G1 X133.221 Y71.974 E76.5697
G1 X132.842 Y71.974 E76.5886
G1 X132.842 Y127.949 E79.3812
G1 X132.463 Y127.949 E79.4001
G1 X132.463 Y71.974 E82.1927
G1 X132.084 Y71.974 E82.2116
G1 X132.084 Y127.949 E85.0042
G1 X131.705 Y127.949 E85.0231
G1 X131.705 Y71.974 E87.8157
G1 X131.326 Y71.974 E87.8346
G1 X131.326 Y127.949 E90.6272
G1 X130.948 Y127.949 E90.6461
G1 X130.948 Y72.344 E93.4202
G1 X130.569 Y72.714 E93.4466
G1 X130.569 Y127.949 E96.2023
G1 X130.190 Y127.949 E96.2212
G1 X130.190 Y73.084 E98.9584
G1 X129.811 Y72.961 E98.9783
G1 X129.811 Y127.949 E101.7217
G1 X129.432 Y127.949 E101.7406
G1 X129.432 Y72.467 E104.5085
G1 X129.053 Y72.098 E104.5350
G1 X129.053 Y127.949 E107.3214
G1 X128.674 Y127.949 E107.3403
G1 X128.674 Y71.728 E110.1452
G1 X128.295 Y71.728 E110.1641
G1 X128.295 Y127.949 E112.9690
G1 X127.916 Y127.949 E112.9879
G1 X127.916 Y71.728 E115.7927
G1 X127.537 Y71.728 E115.8116
G1 X127.537 Y127.949 E118.6165
G1 X127.159 Y127.949 E118.6354
G1 X127.159 Y71.728 E121.4403
G1 X126.780 Y71.728 E121.4592
G1 X126.780 Y127.949 E124.2641
G1 X126.401 Y127.826 E124.2840
G1 X126.401 Y71.728 E127.0827
G1 X126.022 Y71.728 E127.1016
G1 X126.022 Y127.826 E129.9003
G1 X125.643 Y127.702 E129.9202
G1 X125.643 Y71.728 E132.7128
G1 X125.264 Y71.728 E132.7317
G1 X125.264 Y127.579 E135.5181
G1 X124.885 Y127.456 E135.5380
G1 X124.885 Y71.728 E138.3183
G1 X124.506 Y71.728 E138.3372
G1 X124.506 Y127.332 E141.1113
G1 X124.127 Y127.209 E141.1312
G1 X124.127 Y71.728 E143.8992
G1 X123.749 Y71.728 E143.9181
G1 X123.749 Y127.086 E146.6799
G1 X123.370 Y126.839 E146.7024
G1 X123.370 Y71.728 E149.4520
G1 X122.991 Y72.098 E149.4784
G1 X122.991 Y126.593 E152.1971
G1 X122.612 Y126.469 E152.2170
G1 X122.612 Y72.221 E154.9235
G1 X122.233 Y72.221 E154.9424
G1 X122.233 Y126.223 E157.6366
G1 X121.854 Y125.853 E157.6630
G1 X121.854 Y72.221 E160.3387
G1 X121.475 Y72.221 E160.3576
G1 X121.475 Y125.606 E163.0210
G1 X121.096 Y125.236 E163.0474
G1 X121.096 Y72.221 E165.6924
G1 X120.717 Y72.221 E165.7113
G1 X120.717 Y124.866 E168.3378
G1 X120.338 Y124.497 E168.3642
G1 X120.338 Y72.221 E170.9722
G1 X119.960 Y72.221 E170.9911
G1 X119.960 Y124.127 E173.5807
G1 X119.581 Y123.757 E173.6072
G1 X119.581 Y72.221 E176.1783
G1 X119.202 Y72.221 E176.1972
G1 X119.202 Y123.387 E178.7499
G1 X118.823 Y123.017 E178.7763
G1 X118.823 Y72.221 E181.3105
G1 X118.444 Y72.221 E181.3294
G1 X118.444 Y122.647 E183.8452
G1 X118.065 Y122.277 E183.8716
G1 X118.065 Y72.221 E186.3690
G1 X117.686 Y72.344 E186.3888
G1 X117.686 Y121.784 E188.8554
G1 X117.307 Y121.291 E188.8864
G1 X117.307 Y72.714 E191.3099
G1 X116.928 Y73.084 E191.3364
G1 X116.928 Y120.675 E193.7107
G1 X116.550 Y120.058 E193.7468
G1 X116.550 Y73.454 E196.0719
G1 X116.171 Y73.824 E196.0983
G1 X116.171 Y119.072 E198.3557
G1 X115.792 Y117.839 E198.4201
G1 X115.792 Y74.194 E200.5975
G0 F4800 E199.5975
G0 X144.209 Y74.317 F10800
G0 F4800 E200.5975
G1 X144.209 Y117.346 E202.7443 F3600



; ------------------------------------
; Raft Layer #3
; ------------------------------------
G21 ; mm
G90 ; abs
G92 E0 ; reset extr
M106 S0
;segType:Raft
G0 F4800 E-1.0000
G0 F300 Z1.200
G0 X135.552 Y127.174 F10800
G0 F4800 E0.0000
G1 X124.196 Y127.174 E0.5665 F3600
G1 X123.313 Y126.804 E0.6143
G1 X136.309 Y126.804 E1.2627
G1 X137.066 Y126.434 E1.3047
G1 X122.682 Y126.434 E2.0223
G1 X122.051 Y126.064 E2.0588
G1 X137.696 Y126.064 E2.8393
G1 X138.201 Y125.693 E2.8706
G1 X121.546 Y125.693 E3.7015
G1 X121.168 Y125.323 E3.7279
G1 X138.580 Y125.323 E4.5966
G1 X138.958 Y124.953 E4.6230
G1 X120.789 Y124.953 E5.5294
G1 X120.411 Y124.583 E5.5558
G1 X139.337 Y124.583 E6.5001
G1 X139.715 Y124.212 E6.5265
G1 X120.032 Y124.212 E7.5085
G1 X119.654 Y123.842 E7.5349
G1 X140.094 Y123.842 E8.5546
G1 X140.472 Y123.472 E8.5810
G1 X119.275 Y123.472 E9.6386
G1 X118.897 Y123.102 E9.6650
G1 X140.851 Y123.102 E10.7603
G1 X141.229 Y122.731 E10.7867
G1 X118.518 Y122.731 E11.9197
G1 X118.140 Y122.361 E11.9461
G1 X141.608 Y122.361 E13.1170
G1 X141.986 Y121.991 E13.1434
G1 X117.761 Y121.991 E14.3520
G1 X117.509 Y121.621 E14.3743
G1 X142.239 Y121.621 E15.6081
G1 X142.491 Y121.250 E15.6304
G1 X117.257 Y121.250 E16.8894
G1 X117.004 Y120.880 E16.9117
G1 X142.743 Y120.880 E18.1959
G1 X142.996 Y120.510 E18.2182
G1 X116.752 Y120.510 E19.5275
G1 X116.500 Y120.140 E19.5499
G1 X143.248 Y120.140 E20.8844
G1 X143.374 Y119.770 E20.9039
G1 X116.373 Y119.770 E22.2510
G1 X116.247 Y119.399 E22.2705
G1 X143.500 Y119.399 E23.6301
G1 X143.627 Y119.029 E23.6497
G1 X116.121 Y119.029 E25.0219
G1 X115.995 Y118.659 E25.0414
G1 X143.753 Y118.659 E26.4263
G1 X143.879 Y118.289 E26.4458
G1 X115.869 Y118.289 E27.8432
G1 X115.743 Y117.918 E27.8627
G1 X144.005 Y117.918 E29.2727
G1 X144.131 Y117.548 E29.2923
G1 X115.616 Y117.548 E30.7149
G1 X115.616 Y117.178 E30.7333
G1 X144.257 Y117.178 E32.1622
G1 X144.257 Y116.808 E32.1807
G1 X115.490 Y116.808 E33.6159
G1 X115.490 Y116.437 E33.6344
G1 X144.257 Y116.437 E35.0696
G1 X144.384 Y116.067 E35.0891
G1 X115.364 Y116.067 E36.5369
G1 X115.364 Y115.697 E36.5554
G1 X144.384 Y115.697 E38.0032
G1 X144.384 Y115.327 E38.0216
G1 X115.364 Y115.327 E39.4694
G1 X115.364 Y114.956 E39.4879
G1 X144.384 Y114.956 E40.9357
G1 X144.384 Y114.586 E40.9542
G1 X115.364 Y114.586 E42.4019
G1 X115.364 Y114.216 E42.4204
G1 X144.384 Y114.216 E43.8682
G1 X144.384 Y113.846 E43.8867
G1 X115.364 Y113.846 E45.3345
G1 X115.364 Y113.475 E45.3529
G1 X144.384 Y113.475 E46.8007
G1 X144.384 Y113.105 E46.8192
G1 X115.364 Y113.105 E48.2670
G1 X115.364 Y112.735 E48.2855
G1 X144.384 Y112.735 E49.7333
G1 X144.384 Y112.365 E49.7517
G1 X115.364 Y112.365 E51.1995
G1 X115.364 Y111.994 E51.2180
G1 X144.384 Y111.994 E52.6658
G1 X144.384 Y111.624 E52.6843
G1 X115.364 Y111.624 E54.1321
G1 X115.364 Y111.254 E54.1505
G1 X144.384 Y111.254 E55.5983
G1 X144.384 Y110.884 E55.6168
G1 X115.364 Y110.884 E57.0646
G1 X115.364 Y110.513 E57.0830
G1 X144.384 Y110.513 E58.5308
G1 X144.384 Y110.143 E58.5493
G1 X115.364 Y110.143 E59.9971
G1 X115.364 Y109.773 E60.0156
G1 X144.384 Y109.773 E61.4634
G1 X144.384 Y109.403 E61.4818
G1 X115.364 Y109.403 E62.9296
G1 X115.364 Y109.032 E62.9481
G1 X144.384 Y109.032 E64.3959
G1 X144.384 Y108.662 E64.4144
G1 X115.364 Y108.662 E65.8622
G1 X115.364 Y108.292 E65.8806
G1 X144.384 Y108.292 E67.3284
G1 X144.384 Y107.922 E67.3469
G1 X115.364 Y107.922 E68.7947
G1 X115.364 Y107.551 E68.8132
G1 X144.384 Y107.551 E70.2609
G1 X144.384 Y107.181 E70.2794
G1 X115.364 Y107.181 E71.7272
G1 X115.364 Y106.811 E71.7457
G1 X144.384 Y106.811 E73.1935
G1 X144.384 Y106.441 E73.2119
G1 X115.364 Y106.441 E74.6597
G1 X115.364 Y106.070 E74.6782
G1 X144.384 Y106.070 E76.1260
G1 X144.384 Y105.700 E76.1445
G1 X115.364 Y105.700 E77.5923
G1 X115.364 Y105.330 E77.6107
G1 X144.384 Y105.330 E79.0585
G1 X144.384 Y104.960 E79.0770
G1 X115.364 Y104.960 E80.5248
G1 X115.364 Y104.589 E80.5433
G1 X144.384 Y104.589 E81.9910
G1 X144.384 Y104.219 E82.0095
G1 X115.364 Y104.219 E83.4573
G1 X115.364 Y103.849 E83.4758
G1 X144.384 Y103.849 E84.9236
G1 X144.384 Y103.479 E84.9420
G1 X115.364 Y103.479 E86.3898
G1 X115.364 Y103.108 E86.4083
G1 X144.384 Y103.108 E87.8561
G1 X144.384 Y102.738 E87.8746
G1 X115.364 Y102.738 E89.3224
G1 X115.364 Y102.368 E89.3408
G1 X144.384 Y102.368 E90.7886
G1 X144.384 Y101.998 E90.8071
G1 X115.364 Y101.998 E92.2549
G1 X115.364 Y101.627 E92.2734
G1 X144.384 Y101.627 E93.7211
G1 X144.384 Y101.257 E93.7396
G1 X115.364 Y101.257 E95.1874
G1 X115.364 Y100.887 E95.2059
G1 X144.384 Y100.887 E96.6537
G1 X144.384 Y100.517 E96.6721
G1 X115.364 Y100.517 E98.1199
G1 X115.364 Y100.146 E98.1384
G1 X144.384 Y100.146 E99.5862
G1 X144.384 Y99.776 E99.6047
G1 X115.364 Y99.776 E101.0525
G1 X115.364 Y99.406 E101.0709
G1 X144.384 Y99.406 E102.5187
G1 X144.384 Y99.036 E102.5372
G1 X115.364 Y99.036 E103.9850
G1 X115.364 Y98.666 E104.0035
G1 X144.384 Y98.666 E105.4513
G1 X144.384 Y98.295 E105.4697
G1 X115.364 Y98.295 E106.9175
G1 X115.364 Y97.925 E106.9360
G1 X144.384 Y97.925 E108.3838
G1 X144.384 Y97.555 E108.4023
G1 X115.364 Y97.555 E109.8500
G1 X115.364 Y97.185 E109.8685
G1 X144.384 Y97.185 E111.3163
G1 X144.384 Y96.814 E111.3348
G1 X115.364 Y96.814 E112.7826
G1 X115.364 Y96.444 E112.8010
G1 X144.384 Y96.444 E114.2488
G1 X144.384 Y96.074 E114.2673
G1 X115.364 Y96.074 E115.7151
G1 X115.364 Y95.704 E115.7336
G1 X144.384 Y95.704 E117.1814
G1 X144.384 Y95.333 E117.1998
G1 X115.364 Y95.333 E118.6476
G1 X115.364 Y94.963 E118.6661
G1 X144.384 Y94.963 E120.1139
G1 X144.384 Y94.593 E120.1324
G1 X115.364 Y94.593 E121.5801
G1 X115.364 Y94.223 E121.5986
G1 X144.384 Y94.223 E123.0464
G1 X144.384 Y93.852 E123.0649
G1 X115.364 Y93.852 E124.5127
G1 X115.364 Y93.482 E124.5311
G1 X144.384 Y93.482 E125.9789
G1 X144.384 Y93.112 E125.9974
G1 X115.364 Y93.112 E127.4452
G1 X115.364 Y92.742 E127.4637
G1 X144.384 Y92.742 E128.9115
G1 X144.384 Y92.371 E128.9299
G1 X115.364 Y92.371 E130.3777
G1 X115.364 Y92.001 E130.3962
G1 X144.384 Y92.001 E131.8440
G1 X144.384 Y91.631 E131.8625
G1 X115.364 Y91.631 E133.3102
G1 X115.364 Y91.261 E133.3287
G1 X144.384 Y91.261 E134.7765
G1 X144.384 Y90.890 E134.7950
G1 X115.364 Y90.890 E136.2428
G1 X115.364 Y90.520 E136.2613
G1 X144.384 Y90.520 E137.7090
G1 X144.384 Y90.150 E137.7275
G1 X115.364 Y90.150 E139.1753
G1 X115.364 Y89.780 E139.1938
G1 X144.384 Y89.780 E140.6416
G1 X144.384 Y89.409 E140.6600
G1 X115.364 Y89.409 E142.1078
G1 X115.364 Y89.039 E142.1263
G1 X144.384 Y89.039 E143.5741
G1 X144.384 Y88.669 E143.5926
G1 X115.364 Y88.669 E145.0404
G1 X115.364 Y88.299 E145.0588
G1 X144.384 Y88.299 E146.5066
G1 X144.384 Y87.928 E146.5251
G1 X115.364 Y87.928 E147.9729
G1 X115.364 Y87.558 E147.9914
G1 X144.384 Y87.558 E149.4391
G1 X144.384 Y87.188 E149.4576
G1 X115.364 Y87.188 E150.9054
G1 X115.364 Y86.818 E150.9239
G1 X144.384 Y86.818 E152.3717
G1 X144.384 Y86.447 E152.3901
G1 X115.364 Y86.447 E153.8379
G1 X115.364 Y86.077 E153.8564
G1 X144.384 Y86.077 E155.3042
G1 X144.384 Y85.707 E155.3227
G1 X115.364 Y85.707 E156.7705
G1 X115.364 Y85.337 E156.7889
G1 X144.384 Y85.337 E158.2367
G1 X144.384 Y84.966 E158.2552
G1 X115.364 Y84.966 E159.7030
G1 X115.364 Y84.596 E159.7215
G1 X144.384 Y84.596 E161.1692
G1 X144.384 Y84.226 E161.1877
G1 X115.364 Y84.226 E162.6355
G1 X115.364 Y83.856 E162.6540
G1 X144.384 Y83.856 E164.1018
G1 X144.384 Y83.485 E164.1202
G1 X115.364 Y83.485 E165.5680
G1 X115.364 Y83.115 E165.5865
G1 X144.384 Y83.115 E167.0343
G1 X144.384 Y82.745 E167.0528
G1 X115.364 Y82.745 E168.5006
G1 X115.364 Y82.375 E168.5190
G1 X144.384 Y82.375 E169.9668
G1 X144.384 Y82.005 E169.9853
G1 X115.364 Y82.005 E171.4331
G1 X115.364 Y81.634 E171.4516
G1 X144.384 Y81.634 E172.8993
G1 X144.384 Y81.264 E172.9178
G1 X115.364 Y81.264 E174.3656
G1 X115.364 Y80.894 E174.3841
G1 X144.384 Y80.894 E175.8319
G1 X144.384 Y80.524 E175.8503
G1 X115.364 Y80.524 E177.2981
G1 X115.364 Y80.153 E177.3166
G1 X144.384 Y80.153 E178.7644
G1 X144.384 Y79.783 E178.7829
G1 X115.364 Y79.783 E180.2307
G1 X115.364 Y79.413 E180.2491
G1 X144.384 Y79.413 E181.6969
G1 X144.384 Y79.043 E181.7154
G1 X115.364 Y79.043 E183.1632
G1 X115.364 Y78.672 E183.1817
G1 X144.384 Y78.672 E184.6294
G1 X144.384 Y78.302 E184.6479
G1 X115.364 Y78.302 E186.0957
G1 X115.364 Y77.932 E186.1142
G1 X144.384 Y77.932 E187.5620
G1 X144.384 Y77.562 E187.5805
G1 X115.364 Y77.562 E189.0282
G1 X115.364 Y77.191 E189.0467
G1 X144.384 Y77.191 E190.4945
G1 X144.384 Y76.821 E190.5130
G1 X115.364 Y76.821 E191.9608
G1 X115.364 Y76.451 E191.9792
G1 X144.384 Y76.451 E193.4270
G1 X144.384 Y76.081 E193.4455
G1 X115.364 Y76.081 E194.8933
G1 X115.364 Y75.710 E194.9118
G1 X144.384 Y75.710 E196.3595
G1 X144.384 Y75.340 E196.3780
G1 X115.364 Y75.340 E197.8258
G1 X115.364 Y74.970 E197.8443
G1 X144.384 Y74.970 E199.2921
G1 X144.384 Y74.600 E199.3106
G1 X115.364 Y74.600 E200.7583
G1 X115.616 Y74.229 E200.7807
G1 X144.131 Y74.229 E202.2033
G1 X143.753 Y73.859 E202.2297
G1 X115.995 Y73.859 E203.6146
G1 X116.373 Y73.489 E203.6410
G1 X143.374 Y73.489 E204.9880
G1 X142.996 Y73.119 E205.0145
G1 X130.126 Y73.119 E205.6565
G1 X130.000 Y73.119 E205.6628
G1 X116.752 Y73.119 E206.3238
G1 X117.130 Y72.748 E206.3502
G1 X129.621 Y72.748 E206.9734
G1 X129.243 Y72.378 E206.9998
G1 X117.509 Y72.378 E207.5852
G0 F4800 E206.5852
G0 X122.934 Y72.008 F10800
G0 F4800 E207.5852
G1 X128.864 Y72.008 E207.8810 F3600
G1 X130.505 Y72.748 E207.9708
G1 X142.617 Y72.748 E208.5751
G1 X142.239 Y72.378 E208.6015
G1 X130.883 Y72.378 E209.1681
G1 X131.262 Y72.008 E209.1945
G1 X135.678 Y72.008 E209.4148
G0 F4800 E208.4148
G0 X134.542 Y127.545 F10800
G0 F4800 E209.4148
G1 X125.332 Y127.545 E209.8743 F3600



; ------------------------------------
; Raft Layer #4
; ------------------------------------
G21 ; mm
G90 ; abs
G92 E0 ; reset extr
M106 S255
;segType:Raft
G0 F4800 E-1.0000
G0 F300 Z1.500
G0 X116.171 Y119.072 F10800
G0 F4800 E0.0000
G1 X116.171 Y73.824 E2.2574 F3600
G1 X116.550 Y73.454 E2.2839
G1 X116.550 Y120.058 E4.6090
G1 X116.928 Y120.675 E4.6451
G1 X116.928 Y73.084 E7.0194
G1 X117.307 Y72.714 E7.0458
G1 X117.307 Y121.291 E9.4693
G1 X117.686 Y121.784 E9.5003
G1 X117.686 Y72.344 E11.9669
G1 X118.065 Y72.221 E11.9868
G1 X118.065 Y122.277 E14.4841
G1 X118.444 Y122.647 E14.5105
G1 X118.444 Y72.221 E17.0263
G1 X118.823 Y72.221 E17.0452
G1 X118.823 Y123.017 E19.5794
G1 X119.202 Y123.387 E19.6058
G1 X119.202 Y72.221 E22.1585
G1 X119.581 Y72.221 E22.1774
G1 X119.581 Y123.757 E24.7486
G1 X119.960 Y124.127 E24.7750
G1 X119.960 Y72.221 E27.3646
G1 X120.338 Y72.221 E27.3835
G1 X120.338 Y124.497 E29.9915
G1 X120.717 Y124.866 E30.0180
G1 X120.717 Y72.221 E32.6445
G1 X121.096 Y72.221 E32.6634
G1 X121.096 Y125.236 E35.3083
G1 X121.475 Y125.606 E35.3347
G1 X121.475 Y72.221 E37.9981
G1 X121.854 Y72.221 E38.0170
G1 X121.854 Y125.853 E40.6927
G1 X122.233 Y126.223 E40.7192
G1 X122.233 Y72.221 E43.4133
G1 X122.612 Y72.221 E43.4322
G1 X122.612 Y126.469 E46.1387
G1 X122.991 Y126.593 E46.1586
G1 X122.991 Y72.098 E48.8773
G1 X123.370 Y71.728 E48.9037
G1 X123.370 Y126.839 E51.6533
G1 X123.749 Y127.086 E51.6758
G1 X123.749 Y71.728 E54.4376
G1 X124.127 Y71.728 E54.4565
G1 X124.127 Y127.209 E57.2245
G1 X124.506 Y127.332 E57.2444
G1 X124.506 Y71.728 E60.0185
G1 X124.885 Y71.728 E60.0374
G1 X124.885 Y127.456 E62.8177
G1 X125.264 Y127.579 E62.8376
G1 X125.264 Y71.728 E65.6240
G1 X125.643 Y71.728 E65.6429
G1 X125.643 Y127.702 E68.4355
G1 X126.022 Y127.826 E68.4554
G1 X126.022 Y71.728 E71.2541
G1 X126.401 Y71.728 E71.2730
G1 X126.401 Y127.826 E74.0717
G1 X126.780 Y127.949 E74.0916
G1 X126.780 Y71.728 E76.8965
G1 X127.159 Y71.728 E76.9154
G1 X127.159 Y127.949 E79.7203
G1 X127.537 Y127.949 E79.7392
G1 X127.537 Y71.728 E82.5441
G1 X127.916 Y71.728 E82.5630
G1 X127.916 Y127.949 E85.3679
G1 X128.295 Y127.949 E85.3868
G1 X128.295 Y71.728 E88.1916
G1 X128.674 Y71.728 E88.2105
G1 X128.674 Y127.949 E91.0154
G1 X129.053 Y127.949 E91.0343
G1 X129.053 Y72.098 E93.8208
G1 X129.432 Y72.467 E93.8472
G1 X129.432 Y127.949 E96.6152
G1 X129.811 Y127.949 E96.6341
G1 X129.811 Y72.961 E99.3774
G1 X130.190 Y73.084 E99.3973
G1 X130.190 Y127.949 E102.1345
G1 X130.569 Y127.949 E102.1534
G1 X130.569 Y72.714 E104.9091
G1 X130.948 Y72.344 E104.9355
G1 X130.948 Y127.949 E107.7096
G1 X131.326 Y127.949 E107.7286
G1 X131.326 Y71.974 E110.5211
G1 X131.705 Y71.974 E110.5400
G1 X131.705 Y127.949 E113.3326
G1 X132.084 Y127.949 E113.3515
G1 X132.084 Y71.974 E116.1441
G1 X132.463 Y71.974 E116.1630
G1 X132.463 Y127.949 E118.9556
G1 X132.842 Y127.949 E118.9745
G1 X132.842 Y71.974 E121.7671
G1 X133.221 Y71.974 E121.7860
G1 X133.221 Y127.949 E124.5786
G1 X133.600 Y127.826 E124.5984
G1 X133.600 Y71.974 E127.3849
G1 X133.979 Y71.974 E127.4038
G1 X133.979 Y127.826 E130.1902
G1 X134.358 Y127.702 E130.2101
G1 X134.358 Y71.974 E132.9904
G1 X134.736 Y71.974 E133.0093
G1 X134.736 Y127.579 E135.7834
G1 X135.115 Y127.456 E135.8033
G1 X135.115 Y71.974 E138.5712
G1 X135.494 Y71.974 E138.5902
G1 X135.494 Y127.332 E141.3520
G1 X135.873 Y127.209 E141.3719
G1 X135.873 Y72.098 E144.1214
G1 X136.252 Y72.098 E144.1403
G1 X136.252 Y126.962 E146.8775
G1 X136.631 Y126.716 E146.9001
G1 X136.631 Y72.098 E149.6250
G1 X137.010 Y72.221 E149.6449
G1 X137.010 Y126.593 E152.3575
G1 X137.389 Y126.346 E152.3800
G1 X137.389 Y72.221 E155.0803
G1 X137.768 Y72.221 E155.0992
G1 X137.768 Y126.099 E157.7873
G1 X138.147 Y125.853 E157.8098
G1 X138.147 Y72.221 E160.4855
G1 X138.525 Y72.221 E160.5044
G1 X138.525 Y125.483 E163.1617
G1 X138.904 Y125.113 E163.1881
G1 X138.904 Y72.221 E165.8269
G1 X139.283 Y72.221 E165.8458
G1 X139.283 Y124.743 E168.4661
G1 X139.662 Y124.373 E168.4926
G1 X139.662 Y72.221 E171.0945
G1 X140.041 Y72.221 E171.1134
G1 X140.041 Y124.003 E173.6968
G1 X140.420 Y123.634 E173.7232
G1 X140.420 Y72.221 E176.2882
G1 X140.799 Y72.221 E176.3071
G1 X140.799 Y123.264 E178.8536
G1 X141.178 Y122.894 E178.8801
G1 X141.178 Y72.221 E181.4081
G1 X141.557 Y72.221 E181.4270
G1 X141.557 Y122.524 E183.9367
G1 X141.935 Y122.154 E183.9631
G1 X141.935 Y72.221 E186.4543
G1 X142.314 Y72.467 E186.4768
G1 X142.314 Y121.661 E188.9311
G1 X142.693 Y121.044 E188.9672
G1 X142.693 Y72.837 E191.3722
G1 X143.072 Y73.207 E191.3987
G1 X143.072 Y120.428 E193.7545
G1 X143.451 Y119.688 E193.7960
G1 X143.451 Y73.577 E196.0965
G1 X143.830 Y73.947 E196.1229
G1 X143.830 Y118.702 E198.3557
G1 X144.209 Y117.346 E198.4260
G1 X144.209 Y74.317 E200.5727
G0 F4800 E199.5727
G0 X115.792 Y74.194 F10800
G0 F4800 E200.5727
G1 X115.792 Y117.839 E202.7501 F3600


; ------------------------------------
; Layer #0
; ------------------------------------
G21 ; mm
G90 ; abs
G92 E0 ; reset extr
M106 S255
G0 F4800 E-1.0000
G0 F300 Z1.850
G0 X120.801 Y119.946 F10800
G0 X123.306 Y121.000
G0 X125.810 Y122.053
G0 F4800 E0.0000
;segType:HShell
G1 X135.069 Y113.006 E0.2153 F600
;segType:Perimeter
G0 X135.019 Y112.980 F10800
G1 X135.280 Y112.364 E0.2264 F359
G1 X135.280 Y76.375 E0.8249
G1 X140.127 Y76.375 E0.9055
G1 X140.127 Y113.489 E1.5227
G1 X140.077 Y114.487 E1.5393
G1 X139.932 Y115.471 E1.5559
G1 X139.690 Y116.436 E1.5724
G1 X139.355 Y117.372 E1.5889
G1 X138.930 Y118.271 E1.6055
G1 X138.419 Y119.124 E1.6220
G1 X137.826 Y119.923 E1.6385
G1 X137.159 Y120.659 E1.6551
G1 X136.422 Y121.326 E1.6716
G1 X135.624 Y121.918 E1.6881
G1 X134.772 Y122.429 E1.7047
G1 X133.874 Y122.854 E1.7212
G1 X132.938 Y123.189 E1.7377
G1 X131.975 Y123.430 E1.7542
G1 X130.992 Y123.576 E1.7707
G1 X130.000 Y123.624 E1.7873
G1 X129.008 Y123.576 E1.8038
G1 X128.025 Y123.430 E1.8203
G1 X127.062 Y123.189 E1.8368
G1 X126.126 Y122.854 E1.8533
G1 X125.228 Y122.429 E1.8699
G1 X124.376 Y121.918 E1.8864
G1 X123.578 Y121.326 E1.9029
G1 X122.841 Y120.659 E1.9194
G1 X122.174 Y119.923 E1.9360
G1 X121.581 Y119.124 E1.9525
G1 X121.070 Y118.271 E1.9690
G1 X120.645 Y117.372 E1.9856
G1 X120.310 Y116.436 E2.0021
G1 X120.068 Y115.471 E2.0187
G1 X119.923 Y114.487 E2.0352
G1 X119.873 Y113.489 E2.0518
G1 X119.873 Y76.375 E2.6690
G1 X124.720 Y76.375 E2.7496
G1 X124.720 Y112.419 E3.3490
G1 X135.223 Y112.419 E3.5237
G1 X135.853 Y112.164
;segType:Loop
G0 X135.680 Y111.401 F10800
G1 X135.680 Y76.766 E4.0997 F600
G1 X139.727 Y76.766 E4.1670
G1 X139.727 Y113.480 E4.7775
G1 X139.679 Y114.450 E4.7937
G1 X139.539 Y115.396 E4.8096
G1 X139.306 Y116.324 E4.8255
G1 X138.984 Y117.225 E4.8414
G1 X138.575 Y118.090 E4.8573
G1 X138.083 Y118.910 E4.8732
G1 X137.514 Y119.678 E4.8891
G1 X136.872 Y120.385 E4.9050
G1 X136.165 Y121.027 E4.9209
G1 X135.398 Y121.595 E4.9368
G1 X134.580 Y122.086 E4.9526
G1 X133.717 Y122.494 E4.9685
G1 X132.819 Y122.815 E4.9843
G1 X131.895 Y123.046 E5.0002
G1 X130.952 Y123.186 E5.0161
G1 X130.000 Y123.233 E5.0319
G1 X129.048 Y123.186 E5.0478
G1 X128.105 Y123.046 E5.0636
G1 X127.181 Y122.815 E5.0795
G1 X126.283 Y122.494 E5.0953
G1 X125.420 Y122.086 E5.1112
G1 X124.602 Y121.595 E5.1270
G1 X123.835 Y121.027 E5.1429
G1 X123.128 Y120.385 E5.1588
G1 X122.486 Y119.678 E5.1747
G1 X121.917 Y118.910 E5.1906
G1 X121.425 Y118.090 E5.2065
G1 X121.016 Y117.225 E5.2224
G1 X120.694 Y116.324 E5.2383
G1 X120.461 Y115.396 E5.2542
G1 X120.321 Y114.450 E5.2701
G1 X120.273 Y113.480 E5.2863
G1 X120.273 Y76.766 E5.8968
G1 X124.320 Y76.766 E5.9641
G1 X124.320 Y112.810 E6.5635
G1 X135.680 Y112.810 E6.7524
G1 X135.680 Y111.586 E6.7728
;segType:HShell
G0 X135.605 Y113.006 F10800
G1 X126.171 Y122.224 E6.9922 F600
G0 X133.548 Y122.347 F10800
G1 X138.742 Y117.271 E7.1129 F600
G0 X138.207 Y118.317 F10800
G1 X134.593 Y121.849 E7.1970 F600
G0 X132.711 Y122.641 F10800
G1 X139.051 Y116.445 E7.3444 F600
G1 X139.250 Y115.728
G1 X131.991 Y122.821 E7.5132
G1 X131.342 Y122.931
G1 X139.384 Y115.072 E7.7002
G1 X139.475 Y114.460
G1 X130.734 Y123.001 E7.9034
G1 X130.170 Y123.029
G1 X139.505 Y113.907 E8.1205
G1 X139.526 Y113.363
G1 X129.644 Y123.020 E8.3502
G1 X129.133 Y122.995
G1 X139.526 Y112.839 E8.5919
G1 X139.526 Y112.315
G1 X128.662 Y122.931 E8.8445
G1 X128.197 Y122.863
G1 X139.526 Y111.792 E9.1079
G1 X139.526 Y111.268
G1 X127.766 Y122.760 E9.3814
G1 X127.340 Y122.653
G1 X139.526 Y110.745 E9.6647
G1 X139.526 Y110.221
G1 X126.939 Y122.521 E9.9574
G1 X126.547 Y122.380
G1 X139.526 Y109.697 E10.2592
G1 X139.526 Y109.174
G1 X135.880 Y112.737 E10.3440
G1 X135.880 Y112.213
G1 X139.526 Y108.650 E10.4288
G1 X139.526 Y108.126
G1 X135.880 Y111.690 E10.5136
G1 X135.880 Y111.166
G1 X139.526 Y107.603 E10.5983
G1 X139.526 Y107.079
G1 X135.880 Y110.642 E10.6831
G1 X135.880 Y110.119
G1 X139.526 Y106.556 E10.7679
G1 X139.526 Y106.032
G1 X135.880 Y109.595 E10.8527
G1 X135.880 Y109.072
G1 X139.526 Y105.508 E10.9375
G1 X139.526 Y104.985
G1 X135.880 Y108.548 E11.0223
G1 X135.880 Y108.024
G1 X139.526 Y104.461 E11.1071
G1 X139.526 Y103.938
G1 X135.880 Y107.501 E11.1918
G1 X135.880 Y106.977
G1 X139.526 Y103.414 E11.2766
G1 X139.526 Y102.890
G1 X135.880 Y106.454 E11.3614
G1 X135.880 Y105.930
G1 X139.526 Y102.367 E11.4462
G1 X139.526 Y101.843
G1 X135.880 Y105.406 E11.5310
G1 X135.880 Y104.883
G1 X139.526 Y101.320 E11.6158
G1 X139.526 Y100.796
G1 X135.880 Y104.359 E11.7005
G1 X135.880 Y103.836
G1 X139.526 Y100.272 E11.7853
G1 X139.526 Y99.749
G1 X135.880 Y103.312 E11.8701
G1 X135.880 Y102.788
G1 X139.526 Y99.225 E11.9549
G1 X139.526 Y98.702
G1 X135.880 Y102.265 E12.0397
G1 X135.880 Y101.741
G1 X139.526 Y98.178 E12.1245
G1 X139.526 Y97.654
G1 X135.880 Y101.218 E12.2092
G1 X135.880 Y100.694
G1 X139.526 Y97.131 E12.2940
G1 X139.526 Y96.607
G1 X135.880 Y100.170 E12.3788
G1 X135.880 Y99.647
G1 X139.526 Y96.084 E12.4636
G1 X139.526 Y95.560
G1 X135.880 Y99.123 E12.5484
G1 X135.880 Y98.599
G1 X139.526 Y95.036 E12.6332
G1 X139.526 Y94.513
G1 X135.880 Y98.076 E12.7180
G1 X135.880 Y97.552
G1 X139.526 Y93.989 E12.8027
G1 X139.526 Y93.465
G1 X135.880 Y97.029 E12.8875
G1 X135.880 Y96.505
G1 X139.526 Y92.942 E12.9723
G1 X139.526 Y92.418
G1 X135.880 Y95.981 E13.0571
G1 X135.880 Y95.458
G1 X139.526 Y91.895 E13.1419
G1 X139.526 Y91.371
G1 X135.880 Y94.934 E13.2267
G1 X135.880 Y94.411
G1 X139.526 Y90.847 E13.3115
G1 X139.526 Y90.324
G1 X135.880 Y93.887 E13.3962
G1 X135.880 Y93.363
G1 X139.526 Y89.800 E13.4810
G1 X139.526 Y89.277
G1 X135.880 Y92.840 E13.5658
G1 X135.880 Y92.316
G1 X139.526 Y88.753 E13.6506
G1 X139.526 Y88.229
G1 X135.880 Y91.793 E13.7354
G1 X135.880 Y91.269
G1 X139.526 Y87.706 E13.8202
G1 X139.526 Y87.182
G1 X135.880 Y90.745 E13.9049
G1 X135.880 Y90.222
G1 X139.526 Y86.659 E13.9897
G1 X139.526 Y86.135
G1 X135.880 Y89.698 E14.0745
G1 X135.880 Y89.175
G1 X139.526 Y85.611 E14.1593
G1 X139.526 Y85.088
G1 X135.880 Y88.651 E14.2441
G1 X135.880 Y88.127
G1 X139.526 Y84.564 E14.3289
G1 X139.526 Y84.041
G1 X135.880 Y87.604 E14.4137
G1 X135.880 Y87.080
G1 X139.526 Y83.517 E14.4984
G1 X139.526 Y82.993
G1 X135.880 Y86.557 E14.5832
G1 X135.880 Y86.033
G1 X139.526 Y82.470 E14.6680
G1 X139.526 Y81.946
G1 X135.880 Y85.509 E14.7528
G1 X135.880 Y84.986
G1 X139.526 Y81.423 E14.8376
G1 X139.526 Y80.899
G1 X135.880 Y84.462 E14.9224
G1 X135.880 Y83.939
G1 X139.526 Y80.375 E15.0071
G1 X139.526 Y79.852
G1 X135.880 Y83.415 E15.0919
G1 X135.880 Y82.891
G1 X139.526 Y79.328 E15.1767
G1 X139.526 Y78.805
G1 X135.880 Y82.368 E15.2615
G1 X135.880 Y81.844
G1 X139.526 Y78.281 E15.3463
G1 X139.526 Y77.757
G1 X135.880 Y81.320 E15.4311
G1 X135.880 Y80.797
G1 X139.526 Y77.234 E15.5159
G1 X139.269 Y76.962
G1 X135.880 Y80.273 E15.5947
G1 X135.880 Y79.750
G1 X138.733 Y76.962 E15.6610
G1 X138.197 Y76.962
G1 X135.880 Y79.226 E15.7149
G1 X135.880 Y78.702
G1 X137.662 Y76.962 E15.7563
G1 X137.126 Y76.962
G1 X135.880 Y78.179 E15.7853
G1 X135.880 Y77.655
G1 X136.590 Y76.962 E15.8018
G1 X136.054 Y76.962
G1 X135.880 Y77.132 E15.8058
G0 X127.293 Y112.550 F10800
G0 X124.586 Y112.550
G0 X120.474 Y77.525
G1 X121.051 Y76.962 E15.8192 F600
G1 X121.586 Y76.962
G1 X120.474 Y78.049 E15.8451
G1 X120.474 Y78.573
G1 X122.122 Y76.962 E15.8834
G1 X122.658 Y76.962
G1 X120.474 Y79.096 E15.9342
G1 X120.474 Y79.620
G1 X123.194 Y76.962 E15.9975
G1 X123.730 Y76.962
G1 X120.474 Y80.144 E16.0732
G1 X120.474 Y80.667
G1 X124.120 Y77.104 E16.1580
G1 X124.120 Y77.628
G1 X120.474 Y81.191 E16.2428
G1 X120.474 Y81.714
G1 X124.120 Y78.151 E16.3276
G1 X124.120 Y78.675
G1 X120.474 Y82.238 E16.4123
G1 X120.474 Y82.762
G1 X124.120 Y79.198 E16.4971
G1 X124.120 Y79.722
G1 X120.474 Y83.285 E16.5819
G1 X120.474 Y83.809
G1 X124.120 Y80.246 E16.6667
G1 X124.120 Y80.769
G1 X120.474 Y84.332 E16.7515
G1 X120.474 Y84.856
G1 X124.120 Y81.293 E16.8363
G1 X124.120 Y81.816
G1 X120.474 Y85.380 E16.9211
G1 X120.474 Y85.903
G1 X124.120 Y82.340 E17.0058
G1 X124.120 Y82.864
G1 X120.474 Y86.427 E17.0906
G1 X120.474 Y86.950
G1 X124.120 Y83.387 E17.1754
G1 X124.120 Y83.911
G1 X120.474 Y87.474 E17.2602
G1 X120.474 Y87.998
G1 X124.120 Y84.434 E17.3450
G1 X124.120 Y84.958
G1 X120.474 Y88.521 E17.4298
G1 X120.474 Y89.045
G1 X124.120 Y85.482 E17.5146
G1 X124.120 Y86.005
G1 X120.474 Y89.568 E17.5993
G1 X120.474 Y90.092
G1 X124.120 Y86.529 E17.6841
G1 X124.120 Y87.052
G1 X120.474 Y90.616 E17.7689
G1 X120.474 Y91.139
G1 X124.120 Y87.576 E17.8537
G1 X124.120 Y88.100
G1 X120.474 Y91.663 E17.9385
G1 X120.474 Y92.186
G1 X124.120 Y88.623 E18.0233
G1 X124.120 Y89.147
G1 X120.474 Y92.710 E18.1081
G1 X120.474 Y93.234
G1 X124.120 Y89.671 E18.1928
G1 X124.120 Y90.194
G1 X120.474 Y93.757 E18.2776
G1 X120.474 Y94.281
G1 X124.120 Y90.718 E18.3624
G1 X124.120 Y91.241
G1 X120.474 Y94.805 E18.4472
G1 X120.474 Y95.328
G1 X124.120 Y91.765 E18.5320
G1 X124.120 Y92.289
G1 X120.474 Y95.852 E18.6168
G1 X120.474 Y96.375
G1 X124.120 Y92.812 E18.7015
G1 X124.120 Y93.336
G1 X120.474 Y96.899 E18.7863
G1 X120.474 Y97.423
G1 X124.120 Y93.859 E18.8711
G1 X124.120 Y94.383
G1 X120.474 Y97.946 E18.9559
G1 X120.474 Y98.470
G1 X124.120 Y94.907 E19.0407
G1 X124.120 Y95.430
G1 X120.474 Y98.993 E19.1255
G1 X120.474 Y99.517
G1 X124.120 Y95.954 E19.2103
G1 X124.120 Y96.477
G1 X120.474 Y100.041 E19.2950
G1 X120.474 Y100.564
G1 X124.120 Y97.001 E19.3798
G1 X124.120 Y97.525
G1 X120.474 Y101.088 E19.4646
G1 X120.474 Y101.611
G1 X124.120 Y98.048 E19.5494
G1 X124.120 Y98.572
G1 X120.474 Y102.135 E19.6342
G1 X120.474 Y102.659
G1 X124.120 Y99.095 E19.7190
G1 X124.120 Y99.619
G1 X120.474 Y103.182 E19.8038
G1 X120.474 Y103.706
G1 X124.120 Y100.143 E19.8885
G1 X124.120 Y100.666
G1 X120.474 Y104.229 E19.9733
G1 X120.474 Y104.753
G1 X124.120 Y101.190 E20.0581
G1 X124.120 Y101.713
G1 X120.474 Y105.277 E20.1429
G1 X120.474 Y105.800
G1 X124.120 Y102.237 E20.2277
G1 X124.120 Y102.761
G1 X120.474 Y106.324 E20.3125
G1 X120.474 Y106.847
G1 X124.120 Y103.284 E20.3973
G1 X124.120 Y103.808
G1 X120.474 Y107.371 E20.4820
G1 X120.474 Y107.895
G1 X124.120 Y104.331 E20.5668
G1 X124.120 Y104.855
G1 X120.474 Y108.418 E20.6516
G1 X120.474 Y108.942
G1 X124.120 Y105.379 E20.7364
G1 X124.120 Y105.902
G1 X120.474 Y109.465 E20.8212
G1 X120.474 Y109.989
G1 X124.120 Y106.426 E20.9060
G1 X124.120 Y106.950
G1 X120.474 Y110.513 E20.9908
G1 X120.474 Y111.036
G1 X124.120 Y107.473 E21.0755
G1 X124.120 Y107.997
G1 X120.474 Y111.560 E21.1603
G1 X120.474 Y112.084
G1 X124.120 Y108.520 E21.2451
G1 X124.120 Y109.044
G1 X120.474 Y112.607 E21.3299
G1 X120.474 Y113.131
G1 X124.120 Y109.568 E21.4147
G1 X124.120 Y110.091
G1 X120.482 Y113.646 E21.4993
G1 X120.507 Y114.146
G1 X124.120 Y110.615 E21.5833
G1 X124.120 Y111.138
G1 X120.550 Y114.627 E21.6663
G1 X120.617 Y115.085
G1 X124.120 Y111.662 E21.7477
G1 X124.120 Y112.186
G1 X120.700 Y115.527 E21.8273
G1 X120.806 Y115.948
G1 X124.120 Y112.709 E21.9043
G1 X124.352 Y113.006
G1 X120.919 Y116.361 E21.9842
G1 X121.058 Y116.749
G1 X124.888 Y113.006 E22.0732
G1 X125.424 Y113.006
G1 X121.196 Y117.137 E22.1715
G1 X121.364 Y117.496
G1 X125.960 Y113.006 E22.2784
G1 X126.496 Y113.006
G1 X121.534 Y117.854 E22.3937
G1 X121.720 Y118.196
G1 X127.032 Y113.006 E22.5172
G1 X127.567 Y113.006
G1 X121.918 Y118.526 E22.6486
G1 X122.121 Y118.852
G1 X128.103 Y113.006 E22.7877
G1 X128.639 Y113.006
G1 X122.346 Y119.155 E22.9340
G1 X122.571 Y119.459
G1 X129.175 Y113.006 E23.0876
G1 X129.711 Y113.006
G1 X122.814 Y119.745 E23.2479
G1 X123.066 Y120.023
G1 X130.247 Y113.006 E23.4149
G1 X130.782 Y113.006
G1 X123.322 Y120.295 E23.5884
G1 X123.600 Y120.547
G1 X131.318 Y113.006 E23.7678
G1 X131.854 Y113.006
G1 X123.878 Y120.799 E23.9533
G1 X124.175 Y121.033
G1 X132.390 Y113.006 E24.1443
G1 X132.926 Y113.006
G1 X124.480 Y121.259 E24.3407
G1 X124.791 Y121.479
G1 X133.462 Y113.006 E24.5423
G1 X133.997 Y113.006
G1 X125.123 Y121.678 E24.7486
G1 X125.455 Y121.877
G1 X134.533 Y113.006 E24.9597
;segType:Support
G0 F4800 E23.9597
G0 X134.115 Y109.380 F10800
G0 F4800 E24.9597
G1 X134.480 Y109.380 E24.9649 F900
G0 F4800 E23.9649
G0 X132.981 Y108.680 F10800
G0 F4800 E24.9649
G1 X134.480 Y108.680 E24.9861 F900
G1 X134.480 Y108.031 E24.9952
G1 X133.251 Y108.055 E25.0126
G0 F4800 E24.0126
G0 X134.480 Y107.323 F10800
G0 F4800 E25.0126
G1 X134.177 Y107.323 E25.0169 F900
G1 X134.079 Y106.918 E25.0228
G1 X133.379 Y106.918 E25.0327
G1 X133.251 Y107.355 E25.0391
G1 X133.951 Y107.355 E25.0490
G1 X134.216 Y106.916 E25.0562
G1 X134.480 Y106.916 E25.0600
G1 X134.480 Y106.216 E25.0699
G1 X134.216 Y106.216 E25.0736
G1 X134.480 Y106.160 E25.0774
G1 X134.480 Y106.070 E25.0787
G1 X134.207 Y106.070 E25.0826
G1 X134.079 Y106.218 E25.0853
G1 X133.379 Y106.218 E25.0952
G1 X134.019 Y105.933 E25.1051
G1 X133.319 Y105.933 E25.1150
G1 X133.319 Y105.233 E25.1249
G1 X134.019 Y105.233 E25.1348
G1 X133.440 Y104.986 E25.1437
G1 X134.140 Y104.986 E25.1536
G1 X134.207 Y105.370 E25.1591
G1 X134.480 Y105.370 E25.1630
G1 X134.259 Y104.966 E25.1695
G1 X134.480 Y104.966 E25.1726
G1 X134.480 Y104.272 E25.1824
G1 X133.440 Y104.286 E25.1971
G1 X133.341 Y103.919 E25.2025
G1 X134.480 Y103.918 E25.2186
G0 F4800 E24.2186
G0 X133.341 Y103.219 F10800
G0 F4800 E25.2186
G1 X134.480 Y103.218 E25.2347 F900
G1 X134.480 Y102.757 E25.2412
G1 X133.364 Y102.769 E25.2570
G1 X133.364 Y102.069 E25.2669
G1 X134.064 Y102.069 E25.2768
G1 X133.372 Y101.950 E25.2867
G1 X134.072 Y101.950 E25.2966
G1 X134.191 Y102.053 E25.2988
G1 X134.480 Y102.053 E25.3029
G1 X134.480 Y101.982 E25.3039
G1 X134.237 Y101.939 E25.3074
G1 X134.480 Y101.939 E25.3108
G1 X134.480 Y101.239 E25.3207
G1 X134.237 Y101.239 E25.3241
G1 X134.480 Y101.182 E25.3277
G0 F4800 E24.3277
G0 X133.325 Y101.101 F10800
G0 F4800 E25.3277
G1 X134.025 Y101.101 E25.3376 F900
G1 X133.372 Y101.250 E25.3470
G1 X134.072 Y101.250 E25.3569
G1 X134.195 Y101.085 E25.3598
G1 X134.480 Y101.085 E25.3639
G1 X134.480 Y100.385 E25.3738
G1 X134.195 Y100.385 E25.3778
G1 X134.003 Y99.965 E25.3843
G1 X133.303 Y99.965 E25.3942
G1 X133.325 Y100.401 E25.4004
G1 X134.025 Y100.401 E25.4103
G1 X134.177 Y99.928 E25.4173
G1 X134.480 Y99.928 E25.4216
G1 X134.480 Y99.092 E25.4334
G1 X134.196 Y98.994 E25.4377
G1 X134.480 Y98.994 E25.4417
G1 X134.480 Y99.237 E25.4451
G1 X133.303 Y99.265 E25.4618
G1 X133.993 Y98.968 E25.4724
G1 X133.293 Y98.968 E25.4823
G1 X133.288 Y98.110 E25.4944
G1 X133.988 Y98.110 E25.5043
G1 X133.293 Y98.268 E25.5144
G1 X134.480 Y98.287 E25.5312
G1 X134.480 Y98.180 E25.5327
G1 X134.214 Y98.107 E25.5366
G1 X134.480 Y98.107 E25.5403
G1 X134.480 Y97.407 E25.5502
G1 X134.214 Y97.407 E25.5540
G1 X134.000 Y97.204 E25.5581
G1 X133.300 Y97.204 E25.5680
G1 X133.988 Y97.410 E25.5782
G1 X133.288 Y97.410 E25.5881
G0 F4800 E24.5881
G0 X133.299 Y96.341 F10800
G0 F4800 E25.5881
G1 X133.999 Y96.341 E25.5980 F900
G1 X133.300 Y96.504 E25.6081
G1 X134.000 Y96.504 E25.6180
G1 X134.180 Y96.380 E25.6211
G1 X134.480 Y96.380 E25.6254
G1 X134.480 Y97.271 E25.6379
G1 X134.218 Y97.189 E25.6418
G1 X134.480 Y97.189 E25.6455
G1 X134.480 Y96.489 E25.6554
G1 X134.218 Y96.489 E25.6591
G1 X134.480 Y96.446 E25.6629
G1 X134.480 Y95.680 E25.6737
G1 X134.180 Y95.680 E25.6779
G1 X134.043 Y95.461 E25.6816
G1 X133.343 Y95.461 E25.6915
G1 X133.999 Y95.641 E25.7011
G1 X133.299 Y95.641 E25.7110
G1 X133.343 Y94.761 E25.7235
G1 X134.043 Y94.761 E25.7333
G1 X133.374 Y94.562 E25.7432
G1 X134.074 Y94.562 E25.7531
G1 X134.186 Y94.846 E25.7574
G1 X134.480 Y94.846 E25.7616
G1 X134.480 Y95.546 E25.7715
G1 X134.186 Y95.546 E25.7756
G1 X134.480 Y95.603 E25.7799
G1 X134.480 Y94.708 E25.7925
G1 X134.253 Y94.632 E25.7959
G1 X134.480 Y94.632 E25.7991
G1 X134.480 Y93.751 E25.8115
G1 X134.303 Y93.751 E25.8140
G1 X134.480 Y93.800 E25.8166
G1 X134.480 Y93.911 E25.8182
G1 X133.374 Y93.862 E25.8338
G1 X134.049 Y93.656 E25.8438
G1 X133.349 Y93.656 E25.8537
G1 X133.349 Y92.956 E25.8636
G1 X134.087 Y92.884 E25.8741
G1 X134.303 Y93.051 E25.8780
G1 X134.480 Y93.051 E25.8805
G1 X134.480 Y92.924 E25.8823
G1 X134.323 Y92.924 E25.8845
G1 X134.480 Y92.953 E25.8867
G1 X134.480 Y92.224 E25.8970
G1 X134.323 Y92.224 E25.8993
G1 X134.480 Y92.201 E25.9015
G0 F4800 E24.9015
G0 X133.387 Y92.184 F10800
G0 F4800 E25.9015
G1 X134.480 Y92.145 E25.9170 F900
G0 F4800 E24.9170
G0 X133.418 Y91.415 F10800
G0 F4800 E25.9170
G1 X134.118 Y91.415 E25.9269 F900
G1 X133.446 Y91.200 E25.9368
G1 X134.146 Y91.200 E25.9467
G1 X134.289 Y91.427 E25.9505
G1 X134.480 Y91.427 E25.9532
G1 X134.480 Y91.250 E25.9557
G1 X134.303 Y91.189 E25.9584
G1 X134.480 Y91.189 E25.9609
G1 X134.480 Y90.428 E25.9717
G1 X134.303 Y90.489 E25.9743
G1 X134.480 Y90.489 E25.9768
G1 X134.480 Y90.270 E25.9799
G1 X133.475 Y90.285 E25.9941
G1 X134.146 Y90.500 E26.0040
G1 X133.446 Y90.500 E26.0139
G1 X133.475 Y89.585 E26.0269
G1 X134.175 Y89.585 E26.0368
G1 X133.494 Y89.359 E26.0469
G1 X134.194 Y89.359 E26.0568
G1 X134.257 Y89.563 E26.0598
G1 X134.480 Y89.563 E26.0630
G1 X134.480 Y89.427 E26.0649
G1 X134.280 Y89.370 E26.0679
G1 X134.480 Y89.370 E26.0707
G0 F4800 E25.0707
G0 X133.385 Y88.551 F10800
G0 F4800 E26.0707
G1 X134.085 Y88.551 E26.0806 F900
G1 X133.494 Y88.659 E26.0891
G1 X134.480 Y88.666 E26.1030
G1 X134.480 Y88.564 E26.1044
G1 X134.324 Y88.531 E26.1067
G1 X134.480 Y88.531 E26.1089
G1 X134.480 Y87.772 E26.1196
G1 X134.324 Y87.831 E26.1220
G1 X134.480 Y87.831 E26.1242
G1 X134.480 Y87.579 E26.1278
G1 X134.293 Y87.579 E26.1304
G1 X134.085 Y87.851 E26.1352
G1 X133.385 Y87.851 E26.1451
G1 X134.072 Y87.587 E26.1555
G1 X133.372 Y87.587 E26.1654
G1 X133.356 Y86.632 E26.1790
G1 X134.056 Y86.632 E26.1888
G1 X133.372 Y86.887 E26.1992
G1 X134.072 Y86.887 E26.2091
G1 X134.228 Y86.641 E26.2132
G1 X134.480 Y86.641 E26.2167
G1 X134.480 Y86.809 E26.2191
G1 X134.293 Y86.879 E26.2219
G1 X134.480 Y86.879 E26.2246
G1 X134.480 Y85.938 E26.2379
G1 X133.356 Y85.932 E26.2538
G1 X134.047 Y85.632 E26.2644
G1 X133.347 Y85.632 E26.2743
G1 X133.347 Y84.932 E26.2842
G1 X134.047 Y84.932 E26.2941
G1 X133.414 Y84.708 E26.3036
G1 X134.114 Y84.708 E26.3135
G1 X134.235 Y84.958 E26.3174
G1 X134.480 Y84.958 E26.3209
G1 X134.480 Y85.758 E26.3322
G1 X134.235 Y85.658 E26.3359
G1 X134.480 Y85.658 E26.3394
G1 X134.480 Y84.818 E26.3512
G1 X134.253 Y84.749 E26.3546
G1 X134.480 Y84.749 E26.3578
G1 X134.480 Y84.036 E26.3679
G1 X133.414 Y84.008 E26.3829
G1 X134.067 Y83.727 E26.3930
G1 X133.367 Y83.727 E26.4029
G0 F4800 E25.4029
G0 X134.480 Y83.755 F10800
G0 F4800 E26.4029
G1 X134.294 Y83.755 E26.4055 F900
G1 X134.480 Y83.838 E26.4084
G1 X134.480 Y83.015 E26.4200
G1 X134.294 Y83.055 E26.4227
G1 X134.480 Y83.055 E26.4253
G1 X134.480 Y82.916 E26.4273
G1 X134.243 Y82.916 E26.4306
G1 X134.067 Y83.027 E26.4336
G1 X133.367 Y83.027 E26.4435
G1 X134.064 Y82.876 E26.4536
G1 X133.364 Y82.876 E26.4635
G0 F4800 E25.4635
G0 X134.480 Y82.216 F10800
G0 F4800 E26.4635
G1 X134.243 Y82.216 E26.4668 F900
G1 X134.480 Y82.166 E26.4702
G1 X134.480 Y82.073 E26.4715
G1 X134.230 Y82.073 E26.4751
G1 X134.064 Y82.176 E26.4778
G1 X133.364 Y82.176 E26.4877
G1 X134.037 Y82.033 E26.4975
G1 X133.337 Y82.033 E26.5074
G1 X133.337 Y81.333 E26.5172
G1 X134.037 Y81.333 E26.5271
G1 X133.417 Y81.062 E26.5367
G1 X134.117 Y81.062 E26.5466
G1 X134.230 Y81.373 E26.5513
G1 X134.480 Y81.373 E26.5548
G1 X134.480 Y81.177 E26.5576
G1 X134.243 Y81.074 E26.5612
G1 X134.480 Y81.074 E26.5646
G1 X134.480 Y80.374 E26.5745
G1 X134.243 Y80.374 E26.5778
G1 X134.480 Y80.330 E26.5812
G1 X134.480 Y80.243 E26.5825
G1 X134.242 Y80.243 E26.5858
G1 X134.117 Y80.362 E26.5883
G1 X133.417 Y80.362 E26.5982
G1 X134.087 Y80.217 E26.6078
G1 X133.387 Y80.217 E26.6177
G0 F4800 E25.6177
G0 X134.480 Y79.543 F10800
G0 F4800 E26.6177
G1 X134.242 Y79.543 E26.6211 F900
G1 X134.480 Y79.468 E26.6246
G0 F4800 E25.6246
G0 X133.351 Y79.330 F10800
G0 F4800 E26.6246
G1 X134.051 Y79.330 E26.6345 F900
G1 X133.387 Y79.517 E26.6443
G1 X134.087 Y79.517 E26.6542
G1 X134.231 Y79.326 E26.6576
G1 X134.480 Y79.326 E26.6611
G1 X134.480 Y78.549 E26.6721
G1 X134.240 Y78.508 E26.6755
G1 X134.480 Y78.508 E26.6789
G1 X134.480 Y78.626 E26.6806
G1 X134.231 Y78.626 E26.6841
G1 X134.069 Y78.455 E26.6874
G1 X133.369 Y78.455 E26.6973
G1 X134.051 Y78.630 E26.7073
G1 X133.351 Y78.630 E26.7172
G1 X133.271 Y77.613 E26.7316
G1 X133.971 Y77.613 E26.7415
G1 X133.369 Y77.755 E26.7503
G1 X134.480 Y77.793 E26.7660
G1 X134.480 Y77.620 E26.7684
G1 X134.245 Y77.524 E26.7720
G1 X134.480 Y77.524 E26.7753
G0 F4800 E25.7753
G0 X134.480 Y75.703 F10800
G0 F4800 E26.7753
G1 X134.306 Y75.703 E26.7778 F900
G1 X133.845 Y75.586 E26.7845
G1 X133.145 Y75.586 E26.7944
G1 X133.145 Y76.286 E26.8043
G1 X133.845 Y76.286 E26.8142
G1 X134.306 Y76.403 E26.8209
G1 X134.480 Y76.403 E26.8234
G1 X134.480 Y76.824 E26.8293
G1 X134.245 Y76.824 E26.8326
G1 X133.971 Y76.913 E26.8367
G1 X133.271 Y76.913 E26.8466
G0 F4800 E25.8466
G0 X126.678 Y76.017 F10800
G0 F4800 E26.8466
G1 X125.978 Y76.017 E26.8565 F900
G1 X126.678 Y75.317 E26.8705
G1 X125.098 Y75.343 E26.8928
G1 X125.520 Y76.043 E26.9044
G1 X125.798 Y76.043 E26.9083
G1 X125.898 Y76.392 E26.9134
G1 X126.598 Y76.392 E26.9233
G1 X126.598 Y77.092 E26.9332
G1 X125.835 Y77.152 E26.9441
G1 X125.783 Y77.033 E26.9459
G1 X125.520 Y77.033 E26.9496
G1 X125.520 Y76.333 E26.9595
G1 X125.783 Y76.333 E26.9632
G1 X125.520 Y76.222 E26.9672
G1 X125.520 Y77.095 E26.9796
G1 X125.752 Y77.128 E26.9829
G1 X125.520 Y77.128 E26.9862
G1 X125.520 Y77.828 E26.9961
G1 X125.752 Y77.828 E26.9993
G1 X125.520 Y77.892 E27.0027
G1 X125.520 Y78.020 E27.0045
G1 X125.758 Y78.020 E27.0079
G1 X125.835 Y77.852 E27.0105
G1 X126.535 Y77.852 E27.0204
G1 X125.902 Y78.059 E27.0298
G1 X126.602 Y78.059 E27.0397
G1 X126.602 Y78.759 E27.0496
G1 X125.885 Y78.800 E27.0598
G1 X125.758 Y78.720 E27.0619
G1 X125.520 Y78.720 E27.0652
G1 X125.520 Y78.774 E27.0660
G1 X125.737 Y78.799 E27.0691
G1 X125.520 Y78.799 E27.0721
G0 F4800 E26.0721
G0 X126.591 Y79.668 F10800
G0 F4800 E27.0721
G1 X125.891 Y79.668 E27.0820 F900
G1 X126.585 Y79.500 E27.0921
G1 X125.520 Y79.499 E27.1072
G1 X125.520 Y79.581 E27.1083
G1 X125.731 Y79.616 E27.1114
G1 X125.520 Y79.616 E27.1144
G1 X125.520 Y80.316 E27.1243
G1 X125.731 Y80.316 E27.1272
G1 X125.520 Y80.374 E27.1303
G1 X125.520 Y80.483 E27.1319
G1 X126.566 Y80.433 E27.1467
G1 X126.591 Y80.368 E27.1476
G1 X126.566 Y81.133 E27.1585
G1 X125.866 Y81.133 E27.1684
G1 X126.564 Y81.357 E27.1787
G1 X125.864 Y81.357 E27.1886
G1 X125.739 Y81.206 E27.1914
G1 X125.520 Y81.206 E27.1945
G1 X125.520 Y81.301 E27.1958
G1 X125.734 Y81.343 E27.1989
G1 X125.520 Y81.343 E27.2019
G1 X125.520 Y82.043 E27.2118
G1 X125.734 Y82.043 E27.2149
G1 X125.520 Y82.103 E27.2180
G0 F4800 E26.2180
G0 X126.587 Y82.201 F10800
G0 F4800 E27.2180
G1 X125.887 Y82.201 E27.2279 F900
G1 X126.564 Y82.057 E27.2377
G1 X125.864 Y82.057 E27.2476
G1 X125.790 Y82.224 E27.2501
G1 X125.520 Y82.224 E27.2540
G1 X125.520 Y82.924 E27.2639
G1 X125.790 Y82.924 E27.2677
G1 X125.520 Y82.996 E27.2716
G1 X125.520 Y83.105 E27.2732
G1 X125.811 Y83.105 E27.2773
G1 X125.887 Y82.901 E27.2804
G1 X126.587 Y82.901 E27.2903
G1 X125.948 Y83.168 E27.3000
G1 X126.648 Y83.168 E27.3099
G1 X126.648 Y83.868 E27.3198
G1 X125.948 Y83.868 E27.3297
G1 X126.627 Y84.002 E27.3395
G1 X125.520 Y84.008 E27.3552
G1 X125.520 Y83.893 E27.3568
G1 X125.811 Y83.805 E27.3611
G1 X125.520 Y83.805 E27.3652
G0 F4800 E26.3652
G0 X125.520 Y84.869 F10800
G0 F4800 E27.3652
G1 X125.791 Y84.980 E27.3693 F900
G1 X125.520 Y84.980 E27.3732
G1 X125.520 Y84.708 E27.3770
G1 X126.627 Y84.702 E27.3927
G1 X125.947 Y84.958 E27.4029
G1 X126.647 Y84.958 E27.4128
G0 F4800 E26.4128
G0 X125.520 Y85.680 F10800
G0 F4800 E27.4128
G1 X125.791 Y85.680 E27.4167 F900
G1 X125.903 Y85.812 E27.4191
G1 X126.603 Y85.812 E27.4290
G1 X125.947 Y85.658 E27.4385
G1 X126.647 Y85.658 E27.4484
G0 F4800 E26.4484
G0 X125.520 Y85.770 F10800
G0 F4800 E27.4484
G1 X125.790 Y85.826 E27.4523 F900
G1 X125.520 Y85.826 E27.4561
G1 X125.520 Y86.522 E27.4660
G1 X126.603 Y86.512 E27.4813
G1 X125.934 Y86.800 E27.4916
G1 X126.634 Y86.800 E27.5015
G1 X126.634 Y87.500 E27.5114
G1 X125.934 Y87.500 E27.5212
G1 X126.460 Y87.735 E27.5294
G1 X125.760 Y87.735 E27.5393
G1 X125.628 Y88.288 E27.5473
G1 X125.520 Y88.288 E27.5488
G1 X125.520 Y87.588 E27.5587
G1 X125.628 Y87.588 E27.5603
G1 X125.520 Y87.571 E27.5618
G1 X125.520 Y86.802 E27.5727
G1 X125.786 Y86.802 E27.5764
G1 X125.520 Y86.697 E27.5805
G1 X125.520 Y87.502 E27.5918
G1 X125.786 Y87.502 E27.5956
G0 F4800 E26.5956
G0 X125.520 Y88.660 F10800
G0 F4800 E27.5956
G1 X125.742 Y88.660 E27.5987 F900
G1 X125.760 Y88.435 E27.6019
G1 X126.460 Y88.435 E27.6118
G1 X125.873 Y88.697 E27.6209
G1 X126.573 Y88.697 E27.6308
G1 X126.573 Y89.397 E27.6407
G1 X125.873 Y89.397 E27.6506
G1 X126.557 Y89.490 E27.6604
G1 X125.857 Y89.490 E27.6703
G1 X125.742 Y89.360 E27.6727
G1 X125.520 Y89.360 E27.6759
G1 X125.520 Y89.509 E27.6780
G1 X125.617 Y89.509 E27.6793
G1 X125.520 Y89.484 E27.6807
G1 X125.520 Y90.209 E27.6910
G1 X125.617 Y90.209 E27.6923
G1 X125.520 Y90.248 E27.6938
G1 X125.520 Y90.474 E27.6970
G1 X125.669 Y90.474 E27.6991
G1 X125.857 Y90.190 E27.7039
G1 X126.557 Y90.190 E27.7138
G1 X125.911 Y90.502 E27.7239
G1 X126.611 Y90.502 E27.7338
G1 X126.638 Y91.409 E27.7467
G1 X125.938 Y91.409 E27.7566
G1 X126.611 Y91.202 E27.7665
G1 X125.911 Y91.202 E27.7764
G1 X125.683 Y91.381 E27.7805
G1 X125.520 Y91.381 E27.7828
G1 X125.520 Y91.219 E27.7851
G1 X125.669 Y91.174 E27.7873
G1 X125.520 Y91.174 E27.7894
G1 X125.520 Y92.136 E27.8030
G1 X125.683 Y92.081 E27.8054
G1 X125.520 Y92.081 E27.8077
G1 X125.520 Y92.308 E27.8110
G1 X126.540 Y92.305 E27.8254
G1 X125.938 Y92.109 E27.8343
G1 X126.638 Y92.109 E27.8442
G0 F4800 E26.8442
G0 X126.590 Y93.275 F10800
G0 F4800 E27.8442
G1 X125.890 Y93.275 E27.8541 F900
G1 X126.540 Y93.005 E27.8641
G1 X125.520 Y93.008 E27.8785
G1 X125.520 Y93.195 E27.8811
G1 X125.667 Y93.247 E27.8833
G1 X125.520 Y93.247 E27.8854
G1 X125.520 Y93.947 E27.8953
G1 X125.667 Y93.947 E27.8974
G1 X125.942 Y94.336 E27.9041
G1 X126.642 Y94.336 E27.9140
G1 X126.590 Y93.975 E27.9192
G1 X125.890 Y93.975 E27.9291
G1 X125.729 Y94.309 E27.9343
G1 X125.520 Y94.309 E27.9373
G1 X125.520 Y95.009 E27.9472
G1 X125.729 Y95.009 E27.9501
G1 X125.852 Y95.137 E27.9526
G1 X126.552 Y95.137 E27.9625
G1 X125.942 Y95.036 E27.9712
G1 X126.642 Y95.036 E27.9811
G0 F4800 E26.9811
G0 X125.520 Y95.140 F10800
G0 F4800 E27.9811
G1 X125.726 Y95.195 E27.9841 F900
G1 X125.520 Y95.195 E27.9871
G1 X125.520 Y95.895 E27.9969
G1 X125.726 Y95.895 E27.9999
G1 X125.520 Y95.944 E28.0028
G1 X125.520 Y96.055 E28.0044
G1 X125.745 Y96.055 E28.0076
G1 X125.852 Y95.837 E28.0110
G1 X126.552 Y95.837 E28.0209
G1 X125.896 Y96.081 E28.0308
G1 X126.596 Y96.081 E28.0407
G1 X126.596 Y96.781 E28.0506
G1 X125.896 Y96.781 E28.0605
G1 X126.580 Y96.903 E28.0704
G1 X125.880 Y96.903 E28.0802
G1 X125.745 Y96.755 E28.0831
G1 X125.520 Y96.755 E28.0863
G1 X125.520 Y96.895 E28.0882
G1 X125.643 Y96.931 E28.0900
G1 X125.520 Y96.931 E28.0918
G1 X125.520 Y97.631 E28.1017
G1 X125.643 Y97.631 E28.1034
G1 X125.520 Y97.670 E28.1052
G0 F4800 E27.1052
G0 X126.655 Y97.762 F10800
G0 F4800 E28.1052
G1 X125.955 Y97.762 E28.1151 F900
G1 X126.580 Y97.603 E28.1242
G1 X125.880 Y97.603 E28.1341
G1 X125.777 Y97.810 E28.1374
G1 X125.520 Y97.810 E28.1410
G1 X125.520 Y98.497 E28.1507
G1 X126.655 Y98.462 E28.1667
G1 X125.988 Y98.669 E28.1766
G1 X126.688 Y98.669 E28.1865
G0 F4800 E27.1865
G0 X125.520 Y99.469 F10800
G0 F4800 E28.1865
G1 X125.748 Y99.357 E28.1901 F900
G1 X125.520 Y99.357 E28.1933
G1 X125.520 Y98.657 E28.2032
G1 X125.748 Y98.657 E28.2064
G1 X125.520 Y98.607 E28.2097
G1 X125.988 Y99.369 E28.2224
G1 X126.688 Y99.369 E28.2323
G1 X126.621 Y99.746 E28.2377
G1 X125.921 Y99.746 E28.2476
G1 X125.813 Y99.670 E28.2494
G1 X125.520 Y99.670 E28.2536
G1 X125.520 Y100.370 E28.2635
G1 X125.813 Y100.370 E28.2676
G1 X125.520 Y100.451 E28.2719
G1 X125.520 Y100.562 E28.2735
G1 X125.822 Y100.562 E28.2777
G1 X125.921 Y100.446 E28.2799
G1 X126.621 Y100.446 E28.2898
G1 X125.923 Y100.604 E28.2999
G1 X126.623 Y100.604 E28.3098
G1 X126.623 Y101.304 E28.3197
G1 X125.923 Y101.304 E28.3296
G1 X126.560 Y101.528 E28.3391
G1 X125.860 Y101.528 E28.3490
G1 X125.822 Y101.262 E28.3528
G1 X125.520 Y101.262 E28.3571
G1 X125.520 Y101.390 E28.3589
G1 X125.769 Y101.470 E28.3626
G1 X125.520 Y101.470 E28.3661
G1 X125.769 Y102.170 E28.3766
G1 X125.520 Y102.170 E28.3801
G1 X125.520 Y102.718 E28.3879
G1 X125.919 Y102.718 E28.3935
G1 X125.860 Y102.228 E28.4005
G1 X126.560 Y102.228 E28.4104
G1 X126.023 Y102.779 E28.4212
G1 X126.723 Y102.779 E28.4311
G1 X126.723 Y103.479 E28.4410
G1 X126.023 Y103.479 E28.4509
G1 X126.673 Y103.674 E28.4605
G1 X125.973 Y103.674 E28.4704
G1 X125.919 Y103.418 E28.4741
G1 X125.520 Y103.418 E28.4798
G1 X125.520 Y103.537 E28.4814
G1 X125.803 Y103.648 E28.4857
G1 X125.520 Y103.648 E28.4897
G1 X125.520 Y104.480 E28.5015
G1 X125.803 Y104.348 E28.5059
G1 X125.520 Y104.348 E28.5099
G0 F4800 E27.5099
G0 X126.728 Y104.583 F10800
G0 F4800 E28.5099
G1 X126.028 Y104.583 E28.5198 F900
G1 X126.673 Y104.374 E28.5294
G1 X125.973 Y104.374 E28.5393
G1 X125.873 Y104.641 E28.5433
G1 X125.520 Y104.641 E28.5483
G0 F4800 E27.5483
G0 X126.728 Y105.283 F10800
G0 F4800 E28.5483
G1 X126.028 Y105.283 E28.5582 F900
G1 X125.520 Y105.683 E28.5673
G1 X125.711 Y105.683 E28.5700
G1 X125.520 Y105.562 E28.5732
G1 X125.520 Y105.341 E28.5764
G1 X125.873 Y105.341 E28.5814
G1 X125.941 Y105.657 E28.5859
G1 X126.641 Y105.657 E28.5958
G1 X126.755 Y106.636 E28.6097
G1 X126.055 Y106.636 E28.6196
G1 X126.641 Y106.357 E28.6288
G1 X125.941 Y106.357 E28.6387
G1 X125.798 Y106.645 E28.6433
G1 X125.520 Y106.645 E28.6472
G1 X125.520 Y106.465 E28.6497
G1 X125.711 Y106.383 E28.6527
G1 X125.520 Y106.383 E28.6554
G1 X125.520 Y107.345 E28.6690
G1 X125.798 Y107.345 E28.6729
G1 X125.520 Y107.424 E28.6770
G1 X125.520 Y107.544 E28.6787
G1 X125.800 Y107.544 E28.6826
G1 X126.055 Y107.336 E28.6873
G1 X126.755 Y107.336 E28.6972
G1 X126.173 Y107.537 E28.7059
G1 X126.873 Y107.537 E28.7158
G0 F4800 E27.7158
G0 X125.520 Y108.244 F10800
G0 F4800 E28.7158
G1 X125.800 Y108.244 E28.7197 F900
G1 X125.520 Y108.428 E28.7245
G1 X125.520 Y108.601 E28.7269
G1 X125.956 Y108.601 E28.7331
G1 X126.173 Y108.237 E28.7391
G1 X126.873 Y108.237 E28.7490
G1 X126.345 Y108.591 E28.7580
G1 X127.045 Y108.591 E28.7679
G0 F4800 E27.7679
G0 X125.520 Y110.415 F10800
G0 F4800 E28.7679
G1 X127.082 Y110.350 E28.7900 F900
G0 F4800 E27.7900
G0 X127.045 Y109.291 F10800
G0 F4800 E28.7900
G1 X126.345 Y109.291 E28.7999 F900
G1 X126.027 Y109.723 E28.8074
G1 X125.520 Y109.723 E28.8146
G1 X125.520 Y109.301 E28.8206
G1 X125.956 Y109.301 E28.8267
G1 X126.382 Y109.650 E28.8345
G1 X127.082 Y109.650 E28.8444
G1 X127.510 Y109.775 E28.8507
G1 X128.210 Y109.775 E28.8606
G0 F4800 E27.8606
G0 X131.597 Y109.887 F10800
G0 F4800 E28.8606
G1 X132.297 Y109.887 E28.8705 F900
G1 X132.644 Y109.775 E28.8757
G1 X133.344 Y109.775 E28.8855
G1 X132.981 Y109.380 E28.8931
G1 X133.681 Y109.380 E28.9030
G1 X133.884 Y109.807 E28.9097
G1 X134.480 Y109.807 E28.9181
G1 X134.480 Y110.507 E28.9280
G1 X133.884 Y110.507 E28.9365
G1 X134.230 Y110.970 E28.9446
G1 X133.530 Y110.970 E28.9545
G1 X133.344 Y110.475 E28.9620
G1 X132.644 Y110.475 E28.9719
G1 X132.794 Y110.972 E28.9792
G1 X132.094 Y110.972 E28.9891
G1 X132.297 Y110.587 E28.9953
G1 X131.597 Y110.587 E29.0052
G1 X131.493 Y111.063 E29.0121
G1 X130.792 Y111.063 E29.0220
G1 X127.936 Y110.965 E29.0624
G1 X128.210 Y110.475 E29.0703
G1 X127.510 Y110.475 E29.0802
G1 X127.419 Y110.956 E29.0871
G1 X125.520 Y110.989 E29.1140
; ------------------------------------
; Layer #1
; ------------------------------------
G21 ; mm
G90 ; abs
G92 E0 ; reset extr
M106 S255
;segType:Support
G0 F4800 E-1.0000
G0 F300 Z1.700
G0 X125.520 Y110.989 F10800
G0 F4800 E0.0000
G1 X127.419 Y110.956 E0.0268 F5400
G1 X127.510 Y110.475 E0.0338
G1 X128.210 Y110.475 E0.0437
G1 X127.936 Y110.965 E0.0516
G1 X130.792 Y111.063 E0.0920
G1 X131.493 Y111.063 E0.1019
G1 X131.597 Y110.587 E0.1088
G1 X132.297 Y110.587 E0.1187
G1 X132.094 Y110.972 E0.1248
G1 X132.794 Y110.972 E0.1347
G1 X132.644 Y110.475 E0.1421
G1 X133.344 Y110.475 E0.1520
G1 X133.530 Y110.970 E0.1594
G1 X134.230 Y110.970 E0.1693
G1 X133.884 Y110.507 E0.1775
G1 X134.480 Y110.507 E0.1859
;segType:HShell
G0 F4800 E-0.8141
G0 X135.000 Y113.006 F10800
G0 F4800 E0.1859
G1 X139.065 Y116.978 E0.2805 F3600
G1 X139.204 Y116.590
G1 X135.535 Y113.006 E0.3658
;segType:Perimeter
G0 X135.019 Y112.979 F10800
G1 X135.280 Y112.364 E0.3769 F2159
G1 X135.280 Y76.219 E0.9780
G1 X138.344 Y76.182 E1.0289
G1 X140.320 Y76.182 E1.0618
G1 X140.320 Y113.489 E1.6822
G1 X140.270 Y114.506 E1.6991
G1 X140.121 Y115.509 E1.7160
G1 X139.875 Y116.492 E1.7328
G1 X139.533 Y117.446 E1.7497
G1 X139.100 Y118.362 E1.7665
G1 X138.579 Y119.231 E1.7834
G1 X137.976 Y120.045 E1.8002
G1 X137.295 Y120.795 E1.8171
G1 X136.545 Y121.476 E1.8339
G1 X135.731 Y122.079 E1.8508
G1 X134.863 Y122.600 E1.8676
G1 X133.948 Y123.033 E1.8845
G1 X132.994 Y123.374 E1.9013
G1 X132.012 Y123.620 E1.9181
G1 X131.011 Y123.768 E1.9350
G1 X130.000 Y123.818 E1.9518
G1 X128.989 Y123.768 E1.9686
G1 X127.988 Y123.620 E1.9855
G1 X127.006 Y123.374 E2.0023
G1 X126.052 Y123.033 E2.0191
G1 X125.137 Y122.600 E2.0360
G1 X124.269 Y122.079 E2.0528
G1 X123.455 Y121.476 E2.0697
G1 X122.705 Y120.795 E2.0865
G1 X122.024 Y120.045 E2.1033
G1 X121.421 Y119.231 E2.1202
G1 X120.900 Y118.362 E2.1370
G1 X120.467 Y117.446 E2.1539
G1 X120.125 Y116.492 E2.1707
G1 X119.879 Y115.509 E2.1876
G1 X119.730 Y114.506 E2.2045
G1 X119.680 Y113.489 E2.2214
G1 X119.680 Y76.182 E2.8418
G1 X124.720 Y76.182 E2.9256
G1 X124.720 Y112.419 E3.5282
G1 X135.223 Y112.419 E3.7029
G1 X135.853 Y112.164
;segType:Loop
G0 X135.680 Y111.401 F10800
G1 X135.680 Y76.605 E4.2816 F3600
G1 X138.347 Y76.573 E4.3259
G1 X139.920 Y76.573 E4.3521
G1 X139.920 Y113.480 E4.9659
G1 X139.871 Y114.469 E4.9823
G1 X139.728 Y115.434 E4.9985
G1 X139.491 Y116.381 E5.0148
G1 X139.162 Y117.299 E5.0310
G1 X138.745 Y118.181 E5.0472
G1 X138.244 Y119.017 E5.0634
G1 X137.663 Y119.800 E5.0796
G1 X137.009 Y120.522 E5.0958
G1 X136.287 Y121.176 E5.1120
G1 X135.505 Y121.756 E5.1282
G1 X134.671 Y122.256 E5.1444
G1 X133.791 Y122.672 E5.1606
G1 X132.876 Y123.000 E5.1768
G1 X131.933 Y123.236 E5.1929
G1 X130.971 Y123.379 E5.2091
G1 X130.000 Y123.426 E5.2253
G1 X129.029 Y123.379 E5.2414
G1 X128.068 Y123.236 E5.2576
G1 X127.124 Y123.000 E5.2738
G1 X126.209 Y122.672 E5.2899
G1 X125.329 Y122.256 E5.3061
G1 X124.495 Y121.756 E5.3223
G1 X123.713 Y121.176 E5.3385
G1 X122.991 Y120.522 E5.3547
G1 X122.337 Y119.800 E5.3709
G1 X121.756 Y119.017 E5.3871
G1 X121.255 Y118.181 E5.4033
G1 X120.838 Y117.299 E5.4195
G1 X120.509 Y116.381 E5.4358
G1 X120.272 Y115.434 E5.4520
G1 X120.129 Y114.469 E5.4682
G1 X120.080 Y113.480 E5.4847
G1 X120.080 Y76.573 E6.0984
G1 X124.320 Y76.573 E6.1690
G1 X124.320 Y112.810 E6.7716
G1 X135.680 Y112.810 E6.9605
G1 X135.680 Y111.586 E6.9809
;segType:HShell
G0 X135.880 Y112.819 F10800
G1 X139.332 Y116.192 E7.0611 F3600
G1 X139.437 Y115.771
G1 X135.880 Y112.295 E7.1438
G1 X135.880 Y111.772
G1 X139.539 Y115.347 E7.2289
G1 X139.606 Y114.889
G1 X135.880 Y111.248 E7.3155
G1 X135.880 Y110.724
G1 X139.673 Y114.430 E7.4037
G1 X139.697 Y113.931
G1 X135.880 Y110.201 E7.4925
G1 X135.880 Y109.677
G1 X139.720 Y113.429 E7.5818
G1 X139.720 Y112.906
G1 X135.880 Y109.154 E7.6710
G1 X135.880 Y108.630
G1 X139.720 Y112.382 E7.7603
G1 X139.720 Y111.858
G1 X135.880 Y108.106 E7.8496
G1 X135.880 Y107.583
G1 X139.720 Y111.335 E7.9389
G1 X139.720 Y110.811
G1 X135.880 Y107.059 E8.0281
G1 X135.880 Y106.536
G1 X139.720 Y110.288 E8.1174
G1 X139.720 Y109.764
G1 X135.880 Y106.012 E8.2067
G1 X135.880 Y105.488
G1 X139.720 Y109.240 E8.2960
G1 X139.720 Y108.717
G1 X135.880 Y104.965 E8.3852
G1 X135.880 Y104.441
G1 X139.720 Y108.193 E8.4745
G1 X139.720 Y107.670
G1 X135.880 Y103.918 E8.5638
G1 X135.880 Y103.394
G1 X139.720 Y107.146 E8.6531
G1 X139.720 Y106.622
G1 X135.880 Y102.870 E8.7424
G1 X135.880 Y102.347
G1 X139.720 Y106.099 E8.8316
G1 X139.720 Y105.575
G1 X135.880 Y101.823 E8.9209
G1 X135.880 Y101.300
G1 X139.720 Y105.052 E9.0102
G1 X139.720 Y104.528
G1 X135.880 Y100.776 E9.0995
G1 X135.880 Y100.252
G1 X139.720 Y104.004 E9.1887
G1 X139.720 Y103.481
G1 X135.880 Y99.729 E9.2780
G1 X135.880 Y99.205
G1 X139.720 Y102.957 E9.3673
G1 X139.720 Y102.434
G1 X135.880 Y98.682 E9.4566
G1 X135.880 Y98.158
G1 X139.720 Y101.910 E9.5459
G1 X139.720 Y101.386
G1 X135.880 Y97.634 E9.6351
G1 X135.880 Y97.111
G1 X139.720 Y100.863 E9.7244
G1 X139.720 Y100.339
G1 X135.880 Y96.587 E9.8137
G1 X135.880 Y96.064
G1 X139.720 Y99.815 E9.9030
G1 X139.720 Y99.292
G1 X135.880 Y95.540 E9.9922
G1 X135.880 Y95.016
G1 X139.720 Y98.768 E10.0815
G1 X139.720 Y98.245
G1 X135.880 Y94.493 E10.1708
G1 X135.880 Y93.969
G1 X139.720 Y97.721 E10.2601
G1 X139.720 Y97.197
G1 X135.880 Y93.445 E10.3493
G1 X135.880 Y92.922
G1 X139.720 Y96.674 E10.4386
G1 X139.720 Y96.150
G1 X135.880 Y92.398 E10.5279
G1 X135.880 Y91.875
G1 X139.720 Y95.627 E10.6172
G1 X139.720 Y95.103
G1 X135.880 Y91.351 E10.7065
G1 X135.880 Y90.827
G1 X139.720 Y94.579 E10.7957
G1 X139.720 Y94.056
G1 X135.880 Y90.304 E10.8850
G1 X135.880 Y89.780
G1 X139.720 Y93.532 E10.9743
G1 X139.720 Y93.009
G1 X135.880 Y89.257 E11.0636
G1 X135.880 Y88.733
G1 X139.720 Y92.485 E11.1528
G1 X139.720 Y91.961
G1 X135.880 Y88.209 E11.2421
G1 X135.880 Y87.686
G1 X139.720 Y91.438 E11.3314
G1 X139.720 Y90.914
G1 X135.880 Y87.162 E11.4207
G1 X135.880 Y86.639
G1 X139.720 Y90.391 E11.5100
G1 X139.720 Y89.867
G1 X135.880 Y86.115 E11.5992
G1 X135.880 Y85.591
G1 X139.720 Y89.343 E11.6885
G1 X139.720 Y88.820
G1 X135.880 Y85.068 E11.7778
G1 X135.880 Y84.544
G1 X139.720 Y88.296 E11.8671
G1 X139.720 Y87.773
G1 X135.880 Y84.021 E11.9563
G1 X135.880 Y83.497
G1 X139.720 Y87.249 E12.0456
G1 X139.720 Y86.725
G1 X135.880 Y82.973 E12.1349
G1 X135.880 Y82.450
G1 X139.720 Y86.202 E12.2242
G1 X139.720 Y85.678
G1 X135.880 Y81.926 E12.3134
G1 X135.880 Y81.403
G1 X139.720 Y85.155 E12.4027
G1 X139.720 Y84.631
G1 X135.880 Y80.879 E12.4920
G1 X135.880 Y80.355
G1 X139.720 Y84.107 E12.5813
G1 X139.720 Y83.584
G1 X135.880 Y79.832 E12.6706
G1 X135.880 Y79.308
G1 X139.720 Y83.060 E12.7598
G1 X139.720 Y82.536
G1 X135.880 Y78.785 E12.8491
G1 X135.880 Y78.261
G1 X139.720 Y82.013 E12.9384
G1 X139.720 Y81.489
G1 X135.880 Y77.737 E13.0277
G1 X135.880 Y77.214
G1 X139.720 Y80.966 E13.1169
G1 X139.720 Y80.442
G1 X135.989 Y76.797 E13.2037
G1 X136.518 Y76.790
G1 X139.720 Y79.918 E13.2781
G1 X139.720 Y79.395
G1 X137.048 Y76.784 E13.3402
G1 X137.577 Y76.778
G1 X139.720 Y78.871 E13.3901
G1 X139.720 Y78.348
G1 X138.107 Y76.771 E13.4276
G1 X138.639 Y76.768
G1 X139.720 Y77.824 E13.4527
G1 X139.720 Y77.300
G1 X139.175 Y76.768 E13.4653
G0 X127.293 Y112.550 F10800
G0 X124.586 Y112.550
G0 X124.120 Y77.241
G1 X123.636 Y76.768 E13.4766 F3600
G1 X123.100 Y76.768
G1 X124.120 Y77.765 E13.5003
G1 X124.120 Y78.289
G1 X122.564 Y76.768 E13.5365
G1 X122.029 Y76.768
G1 X124.120 Y78.812 E13.5851
G1 X124.120 Y79.336
G1 X121.493 Y76.768 E13.6462
G1 X120.957 Y76.768
G1 X124.120 Y79.859 E13.7197
G1 X124.120 Y80.383
G1 X120.421 Y76.768 E13.8057
G1 X120.280 Y77.155
G1 X124.120 Y80.907 E13.8950
G1 X124.120 Y81.430
G1 X120.280 Y77.678 E13.9843
G1 X120.280 Y78.202
G1 X124.120 Y81.954 E14.0736
G1 X124.120 Y82.477
G1 X120.280 Y78.725 E14.1628
G1 X120.280 Y79.249
G1 X124.120 Y83.001 E14.2521
G1 X124.120 Y83.525
G1 X120.280 Y79.773 E14.3414
G1 X120.280 Y80.296
G1 X124.120 Y84.048 E14.4307
G1 X124.120 Y84.572
G1 X120.280 Y80.820 E14.5200
G1 X120.280 Y81.343
G1 X124.120 Y85.095 E14.6092
G1 X124.120 Y85.619
G1 X120.280 Y81.867 E14.6985
G1 X120.280 Y82.391
G1 X124.120 Y86.143 E14.7878
G1 X124.120 Y86.666
G1 X120.280 Y82.914 E14.8771
G1 X120.280 Y83.438
G1 X124.120 Y87.190 E14.9663
G1 X124.120 Y87.713
G1 X120.280 Y83.962 E15.0556
G1 X120.280 Y84.485
G1 X124.120 Y88.237 E15.1449
G1 X124.120 Y88.761
G1 X120.280 Y85.009 E15.2342
G1 X120.280 Y85.532
G1 X124.120 Y89.284 E15.3235
G1 X124.120 Y89.808
G1 X120.280 Y86.056 E15.4127
G1 X120.280 Y86.580
G1 X124.120 Y90.332 E15.5020
G1 X124.120 Y90.855
G1 X120.280 Y87.103 E15.5913
G1 X120.280 Y87.627
G1 X124.120 Y91.379 E15.6806
G1 X124.120 Y91.902
G1 X120.280 Y88.150 E15.7698
G1 X120.280 Y88.674
G1 X124.120 Y92.426 E15.8591
G1 X124.120 Y92.950
G1 X120.280 Y89.198 E15.9484
G1 X120.280 Y89.721
G1 X124.120 Y93.473 E16.0377
G1 X124.120 Y93.997
G1 X120.280 Y90.245 E16.1269
G1 X120.280 Y90.768
G1 X124.120 Y94.520 E16.2162
G1 X124.120 Y95.044
G1 X120.280 Y91.292 E16.3055
G1 X120.280 Y91.816
G1 X124.120 Y95.568 E16.3948
G1 X124.120 Y96.091
G1 X120.280 Y92.339 E16.4841
G1 X120.280 Y92.863
G1 X124.120 Y96.615 E16.5733
G1 X124.120 Y97.138
G1 X120.280 Y93.386 E16.6626
G1 X120.280 Y93.910
G1 X124.120 Y97.662 E16.7519
G1 X124.120 Y98.186
G1 X120.280 Y94.434 E16.8412
G1 X120.280 Y94.957
G1 X124.120 Y98.709 E16.9304
G1 X124.120 Y99.233
G1 X120.280 Y95.481 E17.0197
G1 X120.280 Y96.004
G1 X124.120 Y99.756 E17.1090
G1 X124.120 Y100.280
G1 X120.280 Y96.528 E17.1983
G1 X120.280 Y97.052
G1 X124.120 Y100.804 E17.2876
G1 X124.120 Y101.327
G1 X120.280 Y97.575 E17.3768
G1 X120.280 Y98.099
G1 X124.120 Y101.851 E17.4661
G1 X124.120 Y102.374
G1 X120.280 Y98.623 E17.5554
G1 X120.280 Y99.146
G1 X124.120 Y102.898 E17.6447
G1 X124.120 Y103.422
G1 X120.280 Y99.670 E17.7339
G1 X120.280 Y100.193
G1 X124.120 Y103.945 E17.8232
G1 X124.120 Y104.469
G1 X120.280 Y100.717 E17.9125
G1 X120.280 Y101.241
G1 X124.120 Y104.993 E18.0018
G1 X124.120 Y105.516
G1 X120.280 Y101.764 E18.0910
G1 X120.280 Y102.288
G1 X124.120 Y106.040 E18.1803
G1 X124.120 Y106.563
G1 X120.280 Y102.811 E18.2696
G1 X120.280 Y103.335
G1 X124.120 Y107.087 E18.3589
G1 X124.120 Y107.611
G1 X120.280 Y103.859 E18.4482
G1 X120.280 Y104.382
G1 X124.120 Y108.134 E18.5374
G1 X124.120 Y108.658
G1 X120.280 Y104.906 E18.6267
G1 X120.280 Y105.429
G1 X124.120 Y109.181 E18.7160
G1 X124.120 Y109.705
G1 X120.280 Y105.953 E18.8053
G1 X120.280 Y106.477
G1 X124.120 Y110.229 E18.8945
G1 X124.120 Y110.752
G1 X120.280 Y107.000 E18.9838
G1 X120.280 Y107.524
G1 X124.120 Y111.276 E19.0731
G1 X124.120 Y111.799
G1 X120.280 Y108.047 E19.1624
G1 X120.280 Y108.571
G1 X124.120 Y112.323 E19.2517
G1 X124.120 Y112.847
G1 X120.280 Y109.095 E19.3409
G1 X120.280 Y109.618
G1 X133.524 Y122.560 E19.6489
G1 X133.132 Y122.700
G1 X120.280 Y110.142 E19.9477
G1 X120.280 Y110.665
G1 X132.733 Y122.834 E20.2372
G1 X132.306 Y122.941
G1 X120.280 Y111.189 E20.5169
G1 X120.280 Y111.713
G1 X131.879 Y123.046 E20.7865
G1 X131.413 Y123.115
G1 X120.280 Y112.236 E21.0454
G1 X120.280 Y112.760
G1 X130.948 Y123.184 E21.2934
G1 X130.438 Y123.209
G1 X120.280 Y113.283 E21.5296
G1 X120.298 Y113.824
G1 X129.920 Y123.227 E21.7534
G1 X129.356 Y123.199
G1 X120.325 Y114.374 E21.9633
G1 X120.407 Y114.978
G1 X128.761 Y123.141 E22.1576
G1 X128.129 Y123.048
G1 X120.524 Y115.616 E22.3344
G1 X120.697 Y116.309
G1 X127.412 Y122.870 E22.4905
G0 X124.155 Y121.258 F10800
G1 X122.376 Y119.520 E22.5319 F3600
G0 X121.418 Y118.060 F10800
G1 X125.640 Y122.186 E22.6301 F3600
G0 X126.606 Y122.606 F10800
G1 X120.982 Y117.111 E22.7608 F3600
G0 X124.283 Y113.006 F10800
G1 X133.900 Y122.404 E22.9845 F3600
G1 X134.261 Y122.233
G1 X124.819 Y113.006 E23.2040
G1 X125.354 Y113.006
G1 X134.618 Y122.058 E23.4194
G1 X134.950 Y121.859
G1 X125.890 Y113.006 E23.6301
G1 X126.426 Y113.006
G1 X135.283 Y121.660 E23.8360
G1 X135.596 Y121.443
G1 X126.962 Y113.006 E24.0368
G1 X127.498 Y113.006
G1 X135.901 Y121.217 E24.2321
G1 X136.202 Y120.987
G1 X128.034 Y113.006 E24.4221
G1 X128.569 Y113.006
G1 X136.480 Y120.735 E24.6060
G1 X136.758 Y120.483
G1 X129.105 Y113.006 E24.7839
G1 X129.641 Y113.006
G1 X137.019 Y120.216 E24.9555
G1 X137.271 Y119.938
G1 X130.177 Y113.006 E25.1204
G1 X130.713 Y113.006
G1 X137.521 Y119.659 E25.2787
G1 X137.746 Y119.355
G1 X131.249 Y113.006 E25.4298
G1 X131.784 Y113.006
G1 X137.972 Y119.052 E25.5737
G1 X138.182 Y118.734
G1 X132.320 Y113.006 E25.7100
G1 X132.856 Y113.006
G1 X138.380 Y118.404 E25.8384
G1 X138.577 Y118.072
G1 X133.392 Y113.006 E25.9590
G1 X133.928 Y113.006
G1 X138.746 Y117.714 E26.0710
G1 X138.915 Y117.356
G1 X134.464 Y113.006 E26.1745
;segType:Support
G0 F4800 E25.1745
G0 X131.597 Y109.887 F10800
G0 F4800 E26.1745
G1 X132.297 Y109.887 E26.1844 F5400
G1 X132.644 Y109.775 E26.1895
G1 X133.344 Y109.775 E26.1994
G1 X132.981 Y109.380 E26.2070
G1 X133.681 Y109.380 E26.2169
G1 X133.884 Y109.807 E26.2236
G1 X134.480 Y109.807 E26.2320
G1 X134.480 Y109.380 E26.2381
G1 X134.115 Y109.380 E26.2432
G1 X134.480 Y108.680 E26.2544
G1 X132.981 Y108.680 E26.2756
G1 X133.251 Y108.055 E26.2852
G1 X134.480 Y108.031 E26.3026
G1 X134.480 Y107.323 E26.3126
G1 X134.177 Y107.323 E26.3169
G1 X134.079 Y106.918 E26.3227
G1 X133.379 Y106.918 E26.3326
G1 X133.251 Y107.355 E26.3391
G1 X133.951 Y107.355 E26.3490
G1 X134.216 Y106.916 E26.3562
G1 X134.480 Y106.916 E26.3599
G1 X134.480 Y106.160 E26.3706
G1 X134.216 Y106.216 E26.3744
G1 X134.480 Y106.216 E26.3782
G1 X134.480 Y106.070 E26.3802
G1 X134.207 Y106.070 E26.3841
G1 X134.079 Y106.218 E26.3869
G1 X133.379 Y106.218 E26.3968
G1 X134.019 Y105.933 E26.4067
G1 X133.319 Y105.933 E26.4166
G1 X133.319 Y105.233 E26.4265
G1 X134.019 Y105.233 E26.4363
G1 X133.440 Y104.986 E26.4452
G1 X134.140 Y104.986 E26.4551
G1 X134.207 Y105.370 E26.4607
G1 X134.480 Y105.370 E26.4645
G1 X134.480 Y104.966 E26.4702
G1 X134.259 Y104.966 E26.4733
G1 X134.480 Y104.272 E26.4836
G1 X133.440 Y104.286 E26.4983
G1 X133.341 Y103.919 E26.5037
G1 X134.480 Y103.918 E26.5198
G1 X134.480 Y103.218 E26.5297
G1 X133.341 Y103.219 E26.5458
G1 X133.364 Y102.769 E26.5522
G1 X134.480 Y102.757 E26.5679
G0 F4800 E25.5679
G0 X133.364 Y102.069 F10800
G0 F4800 E26.5679
G1 X134.064 Y102.069 E26.5778 F5400
G1 X133.372 Y101.950 E26.5878
G1 X134.072 Y101.950 E26.5977
G1 X134.191 Y102.053 E26.5999
G1 X134.480 Y102.053 E26.6040
G1 X134.480 Y101.939 E26.6056
G1 X134.237 Y101.939 E26.6090
G1 X134.480 Y101.982 E26.6125
G1 X134.480 Y101.239 E26.6230
G1 X134.237 Y101.239 E26.6264
G1 X134.480 Y101.182 E26.6300
G1 X134.480 Y101.085 E26.6313
G1 X134.195 Y101.085 E26.6354
G1 X134.072 Y101.250 E26.6383
G1 X133.372 Y101.250 E26.6482
G1 X134.025 Y101.101 E26.6576
G1 X133.325 Y101.101 E26.6675
G0 F4800 E25.6675
G0 X134.480 Y100.385 F10800
G0 F4800 E26.6675
G1 X134.195 Y100.385 E26.6716 F5400
G1 X134.003 Y99.965 E26.6781
G1 X133.303 Y99.965 E26.6880
G1 X133.325 Y100.401 E26.6942
G1 X134.025 Y100.401 E26.7041
G1 X134.177 Y99.928 E26.7111
G1 X134.480 Y99.928 E26.7154
G1 X134.480 Y98.994 E26.7286
G1 X134.196 Y98.994 E26.7326
G1 X134.480 Y99.092 E26.7368
G1 X134.480 Y99.237 E26.7389
G1 X133.303 Y99.265 E26.7555
G1 X133.993 Y98.968 E26.7661
G1 X133.293 Y98.968 E26.7760
G0 F4800 E25.7760
G0 X134.480 Y98.107 F10800
G0 F4800 E26.7760
G1 X134.214 Y98.107 E26.7798 F5400
G1 X134.480 Y98.180 E26.7837
G1 X134.480 Y98.287 E26.7852
G1 X133.293 Y98.268 E26.8020
G1 X133.988 Y98.110 E26.8121
G1 X133.288 Y98.110 E26.8220
G1 X133.288 Y97.410 E26.8319
G1 X133.988 Y97.410 E26.8418
G1 X133.300 Y97.204 E26.8519
G1 X134.000 Y97.204 E26.8618
G1 X134.214 Y97.407 E26.8660
G1 X134.480 Y97.407 E26.8697
G1 X134.480 Y97.271 E26.8716
G1 X134.218 Y97.189 E26.8755
G1 X134.480 Y97.189 E26.8792
G1 X134.480 Y96.489 E26.8891
G1 X134.218 Y96.489 E26.8928
G1 X134.480 Y96.446 E26.8966
G1 X134.480 Y96.380 E26.8975
G1 X134.180 Y96.380 E26.9017
G1 X134.000 Y96.504 E26.9048
G1 X133.300 Y96.504 E26.9147
G1 X133.999 Y96.341 E26.9249
G1 X133.299 Y96.341 E26.9348
G1 X133.299 Y95.641 E26.9447
G1 X133.999 Y95.641 E26.9546
G1 X133.343 Y95.461 E26.9642
G1 X134.043 Y95.461 E26.9741
G1 X134.180 Y95.680 E26.9777
G1 X134.480 Y95.680 E26.9820
G1 X134.480 Y95.546 E26.9839
G1 X134.186 Y95.546 E26.9880
G1 X134.480 Y95.603 E26.9923
G1 X134.480 Y94.846 E27.0030
G1 X134.186 Y94.846 E27.0071
G1 X134.074 Y94.562 E27.0114
G1 X133.374 Y94.562 E27.0213
G1 X134.043 Y94.761 E27.0312
G1 X133.343 Y94.761 E27.0411
G0 F4800 E26.0411
G0 X133.349 Y93.656 F10800
G0 F4800 E27.0411
G1 X134.049 Y93.656 E27.0510 F5400
G1 X133.374 Y93.862 E27.0610
G1 X134.480 Y93.911 E27.0766
G1 X134.480 Y94.632 E27.0868
G1 X134.253 Y94.632 E27.0900
G1 X134.480 Y94.708 E27.0934
G1 X134.480 Y93.800 E27.1062
G1 X134.303 Y93.751 E27.1088
G1 X134.480 Y93.751 E27.1113
G1 X134.480 Y92.924 E27.1230
G1 X134.323 Y92.924 E27.1252
G1 X134.480 Y92.953 E27.1275
G1 X134.480 Y93.051 E27.1289
G1 X134.303 Y93.051 E27.1314
G1 X134.087 Y92.884 E27.1352
G1 X133.349 Y92.956 E27.1457
G1 X133.387 Y92.184 E27.1566
G1 X134.480 Y92.145 E27.1721
G1 X134.480 Y92.201 E27.1729
G1 X134.323 Y92.224 E27.1751
G1 X134.480 Y92.224 E27.1773
G1 X134.480 Y91.427 E27.1886
G1 X134.289 Y91.427 E27.1913
G1 X134.146 Y91.200 E27.1951
G1 X133.446 Y91.200 E27.2050
G1 X134.118 Y91.415 E27.2150
G1 X133.418 Y91.415 E27.2249
G0 F4800 E26.2249
G0 X134.480 Y91.250 F10800
G0 F4800 E27.2249
G1 X134.303 Y91.189 E27.2275 F5400
G1 X134.480 Y91.189 E27.2300
G1 X134.480 Y90.489 E27.2399
G1 X134.303 Y90.489 E27.2424
G1 X134.480 Y90.428 E27.2451
G1 X134.480 Y90.270 E27.2473
G1 X133.475 Y90.285 E27.2615
G1 X134.146 Y90.500 E27.2715
G1 X133.446 Y90.500 E27.2813
G1 X133.475 Y89.585 E27.2943
G1 X134.175 Y89.585 E27.3042
G1 X133.494 Y89.359 E27.3143
G1 X134.194 Y89.359 E27.3242
G1 X134.257 Y89.563 E27.3272
G1 X134.480 Y89.563 E27.3304
G1 X134.480 Y89.427 E27.3323
G1 X134.280 Y89.370 E27.3353
G1 X134.480 Y89.370 E27.3381
G1 X134.480 Y88.531 E27.3499
G1 X134.324 Y88.531 E27.3521
G1 X134.480 Y88.564 E27.3544
G1 X134.480 Y88.666 E27.3558
G1 X133.494 Y88.659 E27.3698
G1 X134.085 Y88.551 E27.3783
G1 X133.385 Y88.551 E27.3882
G1 X133.372 Y87.587 E27.4018
G1 X134.072 Y87.587 E27.4117
G1 X133.385 Y87.851 E27.4221
G1 X134.085 Y87.851 E27.4320
G1 X134.293 Y87.579 E27.4368
G1 X134.480 Y87.579 E27.4395
G1 X134.480 Y87.831 E27.4430
G1 X134.324 Y87.831 E27.4452
G1 X134.480 Y87.772 E27.4476
G1 X134.480 Y86.879 E27.4602
G1 X134.293 Y86.879 E27.4629
G1 X134.480 Y86.809 E27.4657
G1 X134.480 Y86.641 E27.4681
G1 X134.228 Y86.641 E27.4716
G1 X134.072 Y86.887 E27.4757
G1 X133.372 Y86.887 E27.4856
G1 X134.056 Y86.632 E27.4960
G1 X133.356 Y86.632 E27.5058
G1 X133.347 Y85.632 E27.5200
G1 X134.047 Y85.632 E27.5299
G1 X133.356 Y85.932 E27.5405
G1 X134.480 Y85.938 E27.5564
G1 X134.480 Y85.758 E27.5590
G1 X134.235 Y85.658 E27.5627
G1 X134.480 Y85.658 E27.5662
G1 X134.480 Y84.958 E27.5761
G1 X134.235 Y84.958 E27.5795
G1 X134.114 Y84.708 E27.5834
G1 X133.414 Y84.708 E27.5933
G1 X134.047 Y84.932 E27.6028
G1 X133.347 Y84.932 E27.6127
G0 F4800 E26.6127
G0 X134.480 Y83.755 F10800
G0 F4800 E27.6127
G1 X134.294 Y83.755 E27.6154 F5400
G1 X134.480 Y83.838 E27.6182
G1 X134.480 Y84.749 E27.6311
G1 X134.253 Y84.749 E27.6343
G1 X134.480 Y84.818 E27.6377
G1 X134.480 Y84.036 E27.6487
G1 X133.414 Y84.008 E27.6638
G1 X134.067 Y83.727 E27.6738
G1 X133.367 Y83.727 E27.6837
G1 X133.364 Y82.876 E27.6958
G1 X134.064 Y82.876 E27.7057
G1 X133.367 Y83.027 E27.7157
G1 X134.067 Y83.027 E27.7256
G1 X134.243 Y82.916 E27.7286
G1 X134.480 Y82.916 E27.7319
G1 X134.480 Y83.015 E27.7333
G1 X134.294 Y83.055 E27.7360
G1 X134.480 Y83.055 E27.7386
G1 X134.480 Y82.216 E27.7505
G1 X134.243 Y82.216 E27.7539
G1 X134.480 Y82.166 E27.7573
G1 X134.480 Y82.073 E27.7586
G1 X134.230 Y82.073 E27.7621
G1 X134.064 Y82.176 E27.7649
G1 X133.364 Y82.176 E27.7748
G1 X134.037 Y82.033 E27.7845
G1 X133.337 Y82.033 E27.7944
G0 F4800 E26.7944
G0 X134.480 Y79.543 F10800
G0 F4800 E27.7944
G1 X134.242 Y79.543 E27.7978 F5400
G1 X134.480 Y79.468 E27.8013
G1 X134.480 Y79.326 E27.8033
G1 X134.231 Y79.326 E27.8068
G1 X134.087 Y79.517 E27.8102
G1 X133.387 Y79.517 E27.8201
G1 X134.051 Y79.330 E27.8299
G1 X133.351 Y79.330 E27.8397
G0 F4800 E26.8397
G0 X133.271 Y77.613 F10800
G0 F4800 E27.8397
G1 X133.971 Y77.613 E27.8496 F5400
G1 X133.369 Y77.755 E27.8584
G1 X134.480 Y77.793 E27.8741
G1 X134.480 Y77.620 E27.8766
G1 X134.245 Y77.524 E27.8801
G1 X134.480 Y77.524 E27.8835
G1 X134.480 Y76.824 E27.8934
G1 X134.245 Y76.824 E27.8967
G1 X133.971 Y76.913 E27.9008
G1 X133.271 Y76.913 E27.9106
G1 X133.145 Y76.286 E27.9197
G1 X133.845 Y76.286 E27.9296
G1 X134.306 Y76.403 E27.9363
G1 X134.480 Y76.403 E27.9388
G1 X134.480 Y75.703 E27.9486
G1 X134.306 Y75.703 E27.9511
G1 X133.845 Y75.586 E27.9578
G1 X133.145 Y75.586 E27.9677
G0 F4800 E26.9677
G0 X134.480 Y78.508 F10800
G0 F4800 E27.9677
G1 X134.240 Y78.508 E27.9711 F5400
G1 X134.480 Y78.549 E27.9746
G1 X134.480 Y78.626 E27.9756
G1 X134.231 Y78.626 E27.9792
G1 X134.069 Y78.455 E27.9825
G1 X133.369 Y78.455 E27.9924
G1 X134.051 Y78.630 E28.0024
G1 X133.351 Y78.630 E28.0123
G0 F4800 E27.0123
G0 X133.387 Y80.217 F10800
G0 F4800 E28.0123
G1 X134.087 Y80.217 E28.0221 F5400
G1 X133.417 Y80.362 E28.0318
G1 X134.117 Y80.362 E28.0417
G1 X134.242 Y80.243 E28.0442
G1 X134.480 Y80.243 E28.0475
G1 X134.480 Y80.330 E28.0488
G1 X134.243 Y80.374 E28.0522
G1 X134.480 Y80.374 E28.0555
G1 X134.480 Y81.074 E28.0654
G1 X134.243 Y81.074 E28.0687
G1 X134.480 Y81.177 E28.0724
G1 X134.480 Y81.373 E28.0752
G1 X134.230 Y81.373 E28.0787
G1 X134.117 Y81.062 E28.0834
G1 X133.417 Y81.062 E28.0933
G1 X134.037 Y81.333 E28.1028
G1 X133.337 Y81.333 E28.1127
G0 F4800 E27.1127
G0 X126.566 Y81.133 F10800
G0 F4800 E28.1127
G1 X125.866 Y81.133 E28.1226 F5400
G1 X126.564 Y81.357 E28.1330
G1 X125.864 Y81.357 E28.1429
G1 X125.739 Y81.206 E28.1457
G1 X125.520 Y81.206 E28.1488
G1 X125.520 Y80.483 E28.1590
G1 X126.566 Y80.433 E28.1738
G1 X126.591 Y80.368 E28.1748
G1 X126.591 Y79.668 E28.1847
G1 X125.891 Y79.668 E28.1946
G1 X126.585 Y79.500 E28.2047
G1 X125.520 Y79.499 E28.2197
G0 F4800 E27.2197
G0 X126.598 Y77.092 F10800
G0 F4800 E28.2197
G1 X125.835 Y77.152 E28.2305 F5400
G1 X125.783 Y77.033 E28.2324
G1 X125.520 Y77.033 E28.2361
G1 X125.520 Y76.333 E28.2460
G1 X125.783 Y76.333 E28.2497
G1 X125.520 Y76.222 E28.2537
G1 X125.520 Y76.043 E28.2563
G1 X125.798 Y76.043 E28.2602
G1 X125.898 Y76.392 E28.2653
G1 X126.598 Y76.392 E28.2752
G1 X126.678 Y76.017 E28.2806
G1 X125.978 Y76.017 E28.2905
G1 X126.678 Y75.317 E28.3045
G1 X125.098 Y75.343 E28.3269
G0 F4800 E27.3269
G0 X125.520 Y77.095 F10800
G0 F4800 E28.3269
G1 X125.752 Y77.128 E28.3302 F5400
G1 X125.520 Y77.128 E28.3334
G1 X125.520 Y77.828 E28.3433
G1 X125.752 Y77.828 E28.3466
G1 X125.520 Y77.892 E28.3500
G1 X125.520 Y78.020 E28.3518
G1 X125.758 Y78.020 E28.3552
G1 X125.835 Y77.852 E28.3578
G1 X126.535 Y77.852 E28.3677
G1 X125.902 Y78.059 E28.3771
G1 X126.602 Y78.059 E28.3870
G1 X126.602 Y78.759 E28.3969
G1 X125.885 Y78.800 E28.4070
G1 X125.758 Y78.720 E28.4092
G1 X125.520 Y78.720 E28.4125
G1 X125.520 Y78.774 E28.4133
G1 X125.737 Y78.799 E28.4164
G1 X125.520 Y78.799 E28.4194
G1 X125.520 Y79.581 E28.4305
G1 X125.731 Y79.616 E28.4335
G1 X125.520 Y79.616 E28.4365
G1 X125.520 Y80.316 E28.4464
G1 X125.731 Y80.316 E28.4494
G1 X125.520 Y80.374 E28.4524
G1 X125.520 Y81.343 E28.4661
G1 X125.734 Y81.343 E28.4692
G1 X125.520 Y81.301 E28.4722
G1 X125.520 Y82.043 E28.4827
G1 X125.734 Y82.043 E28.4858
G1 X125.520 Y82.103 E28.4889
G1 X125.520 Y82.224 E28.4906
G1 X125.790 Y82.224 E28.4944
G1 X125.864 Y82.057 E28.4970
G1 X126.564 Y82.057 E28.5069
G1 X125.887 Y82.201 E28.5167
G1 X126.587 Y82.201 E28.5266
G0 F4800 E27.5266
G0 X125.520 Y82.924 F10800
G0 F4800 E28.5266
G1 X125.790 Y82.924 E28.5304 F5400
G1 X125.520 Y82.996 E28.5343
G1 X125.520 Y83.105 E28.5359
G1 X125.811 Y83.105 E28.5400
G1 X125.887 Y82.901 E28.5431
G1 X126.587 Y82.901 E28.5530
G1 X125.948 Y83.168 E28.5628
G1 X126.648 Y83.168 E28.5727
G1 X126.648 Y83.868 E28.5826
G1 X125.948 Y83.868 E28.5924
G1 X126.627 Y84.002 E28.6022
G1 X125.520 Y84.008 E28.6179
G1 X125.520 Y83.805 E28.6207
G1 X125.811 Y83.805 E28.6249
G1 X125.520 Y83.893 E28.6292
G1 X125.520 Y84.708 E28.6407
G1 X126.627 Y84.702 E28.6563
G1 X125.947 Y84.958 E28.6666
G1 X126.647 Y84.958 E28.6765
G1 X126.647 Y85.658 E28.6864
G1 X125.947 Y85.658 E28.6963
G1 X126.603 Y85.812 E28.7058
G1 X125.903 Y85.812 E28.7157
G1 X125.791 Y85.680 E28.7181
G1 X125.520 Y85.680 E28.7220
G1 X125.520 Y84.980 E28.7319
G1 X125.791 Y84.980 E28.7357
G1 X125.520 Y84.869 E28.7398
G1 X125.520 Y85.770 E28.7526
G1 X125.790 Y85.826 E28.7565
G1 X125.520 Y85.826 E28.7603
G1 X125.520 Y86.802 E28.7741
G1 X125.786 Y86.802 E28.7778
G1 X125.520 Y86.697 E28.7819
G1 X125.520 Y86.522 E28.7844
G1 X126.603 Y86.512 E28.7997
G1 X125.934 Y86.800 E28.8099
G1 X126.634 Y86.800 E28.8198
G1 X126.634 Y87.500 E28.8297
G1 X125.934 Y87.500 E28.8396
G1 X126.460 Y87.735 E28.8478
G1 X125.760 Y87.735 E28.8577
G1 X125.628 Y88.288 E28.8657
G1 X125.520 Y88.288 E28.8672
G1 X125.520 Y87.588 E28.8771
G1 X125.628 Y87.588 E28.8786
G1 X125.520 Y87.571 E28.8802
G1 X125.520 Y87.502 E28.8812
G1 X125.786 Y87.502 E28.8849
G0 F4800 E27.8849
G0 X125.520 Y88.660 F10800
G0 F4800 E28.8849
G1 X125.742 Y88.660 E28.8880 F5400
G1 X125.760 Y88.435 E28.8912
G1 X126.460 Y88.435 E28.9011
G1 X125.873 Y88.697 E28.9102
G1 X126.573 Y88.697 E28.9201
G1 X126.573 Y89.397 E28.9300
G1 X125.873 Y89.397 E28.9399
G1 X126.557 Y89.490 E28.9497
G1 X125.857 Y89.490 E28.9596
G1 X125.742 Y89.360 E28.9620
G1 X125.520 Y89.360 E28.9652
G1 X125.520 Y89.484 E28.9669
G1 X125.617 Y89.509 E28.9683
G1 X125.520 Y89.509 E28.9697
G1 X125.520 Y90.209 E28.9796
G1 X125.617 Y90.209 E28.9809
G1 X125.520 Y90.248 E28.9824
G1 X125.520 Y90.474 E28.9856
G1 X125.669 Y90.474 E28.9877
G1 X125.857 Y90.190 E28.9925
G1 X126.557 Y90.190 E29.0024
G1 X125.911 Y90.502 E29.0125
G1 X126.611 Y90.502 E29.0224
G1 X126.638 Y91.409 E29.0353
G1 X125.938 Y91.409 E29.0452
G1 X126.611 Y91.202 E29.0551
G1 X125.911 Y91.202 E29.0650
G1 X125.683 Y91.381 E29.0691
G1 X125.520 Y91.381 E29.0714
G1 X125.520 Y91.219 E29.0737
G1 X125.669 Y91.174 E29.0759
G1 X125.520 Y91.174 E29.0780
G1 X125.520 Y92.081 E29.0908
G1 X125.683 Y92.081 E29.0931
G1 X125.520 Y92.136 E29.0956
G1 X125.520 Y92.308 E29.0980
G1 X126.540 Y92.305 E29.1124
G1 X125.938 Y92.109 E29.1214
G1 X126.638 Y92.109 E29.1313
G0 F4800 E28.1313
G0 X126.590 Y93.275 F10800
G0 F4800 E29.1313
G1 X125.890 Y93.275 E29.1412 F5400
G1 X126.540 Y93.005 E29.1511
G1 X125.520 Y93.008 E29.1655
G1 X125.520 Y93.195 E29.1682
G1 X125.667 Y93.247 E29.1704
G1 X125.520 Y93.247 E29.1724
G1 X125.520 Y93.947 E29.1823
G1 X125.667 Y93.947 E29.1844
G1 X125.942 Y94.336 E29.1911
G1 X126.642 Y94.336 E29.2010
G1 X126.590 Y93.975 E29.2062
G1 X125.890 Y93.975 E29.2161
G1 X125.729 Y94.309 E29.2214
G1 X125.520 Y94.309 E29.2243
G0 F4800 E28.2243
G0 X126.642 Y95.036 F10800
G0 F4800 E29.2243
G1 X125.942 Y95.036 E29.2342 F5400
G1 X126.552 Y95.137 E29.2429
G1 X125.852 Y95.137 E29.2528
G1 X125.729 Y95.009 E29.2553
G1 X125.520 Y95.009 E29.2583
G1 X125.520 Y95.140 E29.2601
G1 X125.726 Y95.195 E29.2632
G1 X125.520 Y95.195 E29.2661
G1 X125.520 Y95.895 E29.2760
G1 X125.726 Y95.895 E29.2789
G1 X125.520 Y95.944 E29.2818
G0 F4800 E28.2818
G0 X126.596 Y96.081 F10800
G0 F4800 E29.2818
G1 X125.896 Y96.081 E29.2917 F5400
G1 X126.552 Y95.837 E29.3016
G1 X125.852 Y95.837 E29.3115
G1 X125.745 Y96.055 E29.3150
G1 X125.520 Y96.055 E29.3182
G0 F4800 E28.3182
G0 X126.596 Y96.781 F10800
G0 F4800 E29.3182
G1 X125.896 Y96.781 E29.3281 F5400
G1 X126.580 Y96.903 E29.3379
G1 X125.880 Y96.903 E29.3478
G1 X125.745 Y96.755 E29.3506
G1 X125.520 Y96.755 E29.3538
G1 X125.520 Y96.895 E29.3558
G1 X125.643 Y96.931 E29.3576
G1 X125.520 Y96.931 E29.3593
G1 X125.520 Y97.631 E29.3692
G1 X125.643 Y97.631 E29.3709
G1 X125.520 Y97.670 E29.3727
G1 X125.520 Y97.810 E29.3747
G1 X125.777 Y97.810 E29.3783
G1 X125.880 Y97.603 E29.3816
G1 X126.580 Y97.603 E29.3915
G1 X125.955 Y97.762 E29.4006
G1 X126.655 Y97.762 E29.4105
G0 F4800 E28.4105
G0 X125.520 Y98.657 F10800
G0 F4800 E29.4105
G1 X125.748 Y98.657 E29.4137 F5400
G1 X125.520 Y98.607 E29.4170
G1 X125.520 Y98.497 E29.4186
G1 X126.655 Y98.462 E29.4346
G1 X125.988 Y98.669 E29.4445
G1 X126.688 Y98.669 E29.4544
G1 X126.688 Y99.369 E29.4643
G1 X125.988 Y99.369 E29.4742
G1 X125.520 Y99.357 E29.4808
G1 X125.748 Y99.357 E29.4840
G1 X125.520 Y99.469 E29.4876
G1 X125.520 Y99.670 E29.4905
G1 X125.813 Y99.670 E29.4946
G1 X125.921 Y99.746 E29.4965
G1 X126.621 Y99.746 E29.5064
G0 F4800 E28.5064
G0 X125.520 Y100.370 F10800
G0 F4800 E29.5064
G1 X125.813 Y100.370 E29.5105 F5400
G1 X125.520 Y100.451 E29.5148
G1 X125.520 Y100.562 E29.5163
G1 X125.822 Y100.562 E29.5206
G1 X125.921 Y100.446 E29.5228
G1 X126.621 Y100.446 E29.5327
G1 X125.923 Y100.604 E29.5428
G1 X126.623 Y100.604 E29.5527
G1 X126.623 Y101.304 E29.5626
G1 X125.923 Y101.304 E29.5725
G1 X126.560 Y101.528 E29.5820
G1 X125.860 Y101.528 E29.5919
G1 X125.822 Y101.262 E29.5957
G1 X125.520 Y101.262 E29.6000
G1 X125.520 Y101.390 E29.6018
G1 X125.769 Y101.470 E29.6055
G1 X125.520 Y101.470 E29.6090
G1 X125.769 Y102.170 E29.6195
G1 X125.520 Y102.170 E29.6230
G1 X125.520 Y102.718 E29.6307
G1 X125.919 Y102.718 E29.6364
G1 X125.860 Y102.228 E29.6434
G1 X126.560 Y102.228 E29.6532
G1 X126.023 Y102.779 E29.6641
G1 X126.723 Y102.779 E29.6740
G1 X126.723 Y103.479 E29.6839
G1 X126.023 Y103.479 E29.6938
G1 X126.673 Y103.674 E29.7034
G1 X125.973 Y103.674 E29.7133
G1 X125.919 Y103.418 E29.7170
G1 X125.520 Y103.418 E29.7226
G1 X125.520 Y103.537 E29.7243
G1 X125.803 Y103.648 E29.7286
G1 X125.520 Y103.648 E29.7326
G1 X125.520 Y104.348 E29.7425
G1 X125.803 Y104.348 E29.7465
G1 X125.520 Y104.480 E29.7509
G1 X125.520 Y104.641 E29.7532
G1 X125.873 Y104.641 E29.7582
G1 X125.973 Y104.374 E29.7622
G1 X126.673 Y104.374 E29.7721
G1 X126.028 Y104.583 E29.7817
G1 X126.728 Y104.583 E29.7916
G1 X126.028 Y105.283 E29.8056
G1 X126.728 Y105.283 E29.8155
G1 X126.641 Y105.657 E29.8209
G1 X125.941 Y105.657 E29.8308
G1 X125.873 Y105.341 E29.8354
G1 X125.520 Y105.341 E29.8404
G1 X125.520 Y105.562 E29.8435
G1 X125.711 Y105.683 E29.8467
G1 X125.520 Y105.683 E29.8494
G1 X125.520 Y106.383 E29.8593
G1 X125.711 Y106.383 E29.8620
G1 X125.520 Y106.465 E29.8649
G1 X125.520 Y107.345 E29.8774
G1 X125.798 Y107.345 E29.8813
G1 X125.520 Y107.424 E29.8854
G1 X125.520 Y106.645 E29.8964
G1 X125.798 Y106.645 E29.9003
G1 X125.941 Y106.357 E29.9049
G1 X126.641 Y106.357 E29.9148
G1 X126.055 Y106.636 E29.9240
G1 X126.755 Y106.636 E29.9339
G1 X126.873 Y107.537 E29.9467
G1 X126.173 Y107.537 E29.9566
G1 X126.755 Y107.336 E29.9653
G1 X126.055 Y107.336 E29.9752
G1 X125.800 Y107.544 E29.9799
G1 X125.520 Y107.544 E29.9838
G1 X125.520 Y108.244 E29.9937
G1 X125.800 Y108.244 E29.9977
G1 X125.520 Y108.428 E30.0024
G1 X125.520 Y108.601 E30.0049
G1 X125.956 Y108.601 E30.0110
G1 X126.173 Y108.237 E30.0170
G1 X126.873 Y108.237 E30.0269
G1 X126.345 Y108.591 E30.0359
G1 X127.045 Y108.591 E30.0458
G1 X127.045 Y109.291 E30.0557
G1 X126.345 Y109.291 E30.0656
G1 X126.027 Y109.723 E30.0732
G1 X125.520 Y109.723 E30.0803
G1 X125.520 Y109.301 E30.0863
G1 X125.956 Y109.301 E30.0925
G1 X126.382 Y109.650 E30.1002
G1 X127.082 Y109.650 E30.1101
G1 X127.510 Y109.775 E30.1164
G1 X128.210 Y109.775 E30.1263
G0 F4800 E29.1263
G0 X127.082 Y110.350 F10800
G0 F4800 E30.1263
G1 X125.520 Y110.415 E30.1484 F5400
; ------------------------------------
; Layer #2
; ------------------------------------
G21 ; mm
G90 ; abs
G92 E0 ; reset extr
M106 S255
;segType:Support
G0 F4800 E-1.0000
G0 F300 Z1.800
G0 X125.520 Y109.723 F10800
G0 F4800 E0.0000
G1 X126.027 Y109.723 E0.0072 F5400
G1 X126.345 Y109.291 E0.0147
G1 X127.045 Y109.291 E0.0246
G1 X127.045 Y108.591 E0.0345
G1 X126.345 Y108.591 E0.0444
G1 X126.873 Y108.237 E0.0534
G1 X126.173 Y108.237 E0.0633
G1 X125.956 Y108.601 E0.0693
G1 X125.520 Y108.601 E0.0755
G1 X125.520 Y108.428 E0.0779
G1 X125.800 Y108.244 E0.0826
G1 X125.520 Y108.244 E0.0866
G1 X125.520 Y107.345 E0.0993
G1 X125.798 Y107.345 E0.1032
G1 X125.520 Y107.424 E0.1073
G1 X125.520 Y107.544 E0.1090
G1 X125.800 Y107.544 E0.1130
G1 X126.055 Y107.336 E0.1176
G1 X126.755 Y107.336 E0.1275
G1 X126.173 Y107.537 E0.1362
G1 X126.873 Y107.537 E0.1461
G1 X126.755 Y106.636 E0.1590
G1 X126.055 Y106.636 E0.1689
G1 X126.641 Y106.357 E0.1781
G1 X125.941 Y106.357 E0.1880
G1 X125.798 Y106.645 E0.1925
G1 X125.520 Y106.645 E0.1964
G1 X125.520 Y106.383 E0.2001
G1 X125.711 Y106.383 E0.2028
G1 X125.520 Y106.465 E0.2058
G1 X125.520 Y105.683 E0.2168
G1 X125.711 Y105.683 E0.2195
G1 X125.520 Y105.562 E0.2227
G1 X125.520 Y105.341 E0.2258
G1 X125.873 Y105.341 E0.2308
G1 X125.941 Y105.657 E0.2354
G1 X126.641 Y105.657 E0.2453
G1 X126.728 Y105.283 E0.2507
G1 X126.028 Y105.283 E0.2606
G1 X126.728 Y104.583 E0.2746
G1 X126.028 Y104.583 E0.2845
G1 X126.673 Y104.374 E0.2941
G1 X125.973 Y104.374 E0.3040
G1 X125.873 Y104.641 E0.3080
G1 X125.520 Y104.641 E0.3130
G1 X125.520 Y104.480 E0.3153
G1 X125.803 Y104.348 E0.3197
G1 X125.520 Y104.348 E0.3237
G1 X125.520 Y103.648 E0.3336
G1 X125.803 Y103.648 E0.3376
G1 X125.520 Y103.537 E0.3419
G0 F4800 E-0.6581
G0 X126.723 Y103.479 F10800
G0 F4800 E0.3419
G1 X126.023 Y103.479 E0.3518 F5400
G1 X126.673 Y103.674 E0.3614
G1 X125.973 Y103.674 E0.3713
G1 X125.919 Y103.418 E0.3750
G1 X125.520 Y103.418 E0.3806
G1 X125.520 Y102.718 E0.3905
G1 X125.919 Y102.718 E0.3962
G1 X125.860 Y102.228 E0.4031
G1 X126.560 Y102.228 E0.4130
G1 X126.723 Y102.779 E0.4212
G1 X126.023 Y102.779 E0.4310
G1 X125.769 Y102.170 E0.4404
G1 X125.520 Y102.170 E0.4439
G1 X125.520 Y101.390 E0.4549
G1 X125.769 Y101.470 E0.4586
G1 X125.520 Y101.470 E0.4621
G0 F4800 E-0.5379
G0 X126.623 Y101.304 F10800
G0 F4800 E0.4621
G1 X125.923 Y101.304 E0.4720 F5400
G1 X126.560 Y101.528 E0.4816
G1 X125.860 Y101.528 E0.4915
G1 X125.822 Y101.262 E0.4953
G1 X125.520 Y101.262 E0.4995
G1 X125.520 Y100.451 E0.5110
G1 X125.813 Y100.370 E0.5153
G1 X125.520 Y100.370 E0.5194
G1 X125.520 Y100.562 E0.5221
G1 X125.822 Y100.562 E0.5264
G1 X125.921 Y100.446 E0.5285
G1 X126.621 Y100.446 E0.5384
G1 X125.923 Y100.604 E0.5485
G1 X126.623 Y100.604 E0.5584
G0 F4800 E-0.4416
G0 X126.596 Y96.081 F10800
G0 F4800 E0.5584
G1 X125.896 Y96.081 E0.5683 F5400
G1 X126.552 Y95.837 E0.5782
G1 X125.852 Y95.837 E0.5881
G1 X125.745 Y96.055 E0.5916
G1 X125.520 Y96.055 E0.5947
G1 X125.520 Y96.895 E0.6066
G1 X125.643 Y96.931 E0.6084
G1 X125.520 Y96.931 E0.6101
G1 X125.520 Y97.631 E0.6200
G1 X125.643 Y97.631 E0.6218
G1 X125.520 Y97.670 E0.6236
G1 X125.520 Y97.810 E0.6256
G1 X125.777 Y97.810 E0.6292
G1 X125.880 Y97.603 E0.6325
G1 X126.580 Y97.603 E0.6424
G1 X125.955 Y97.762 E0.6515
G1 X126.655 Y97.762 E0.6614
G1 X126.688 Y98.669 E0.6742
G1 X125.988 Y98.669 E0.6841
G1 X126.655 Y98.462 E0.6940
G1 X125.520 Y98.497 E0.7100
G1 X125.520 Y98.607 E0.7116
G1 X125.748 Y98.657 E0.7149
G1 X125.520 Y98.657 E0.7181
G1 X125.520 Y99.357 E0.7280
G1 X125.748 Y99.357 E0.7312
G1 X125.520 Y99.469 E0.7348
G1 X125.520 Y99.670 E0.7376
G1 X125.813 Y99.670 E0.7418
G1 X125.921 Y99.746 E0.7436
G1 X126.621 Y99.746 E0.7535
G1 X126.688 Y99.369 E0.7589
G1 X125.988 Y99.369 E0.7688
G0 F4800 E-0.2312
G0 X126.596 Y96.781 F10800
G0 F4800 E0.7688
G1 X125.896 Y96.781 E0.7787 F5400
G1 X126.580 Y96.903 E0.7885
G1 X125.880 Y96.903 E0.7984
G1 X125.745 Y96.755 E0.8013
G1 X125.520 Y96.755 E0.8045
G1 X125.520 Y95.895 E0.8166
G1 X125.726 Y95.895 E0.8195
G1 X125.520 Y95.944 E0.8225
G1 X125.520 Y95.195 E0.8331
G1 X125.726 Y95.195 E0.8360
G1 X125.520 Y95.140 E0.8390
G1 X125.520 Y95.009 E0.8409
G1 X125.729 Y95.009 E0.8438
G1 X125.852 Y95.137 E0.8463
G1 X126.552 Y95.137 E0.8562
G1 X125.942 Y95.036 E0.8649
G1 X126.642 Y95.036 E0.8748
G0 F4800 E-0.1252
G0 X125.520 Y94.309 F10800
G0 F4800 E0.8748
G1 X125.729 Y94.309 E0.8778 F5400
G1 X125.890 Y93.975 E0.8830
G1 X126.590 Y93.975 E0.8929
G1 X126.642 Y94.336 E0.8981
G1 X125.942 Y94.336 E0.9080
G1 X125.667 Y93.947 E0.9147
G1 X125.520 Y93.947 E0.9168
G1 X125.520 Y93.247 E0.9267
G1 X125.667 Y93.247 E0.9288
G1 X125.520 Y93.195 E0.9310
G1 X125.520 Y93.008 E0.9336
G1 X126.540 Y93.005 E0.9480
G1 X125.890 Y93.275 E0.9580
G1 X126.590 Y93.275 E0.9679
G0 F4800 E-0.0321
G0 X126.638 Y92.109 F10800
G0 F4800 E0.9679
G1 X125.938 Y92.109 E0.9778 F5400
G1 X126.540 Y92.305 E0.9867
G1 X125.520 Y92.308 E1.0011
G1 X125.520 Y92.136 E1.0036
G1 X125.683 Y92.081 E1.0060
G1 X125.520 Y92.081 E1.0083
G1 X125.520 Y91.174 E1.0211
G1 X125.669 Y91.174 E1.0232
G1 X125.520 Y91.219 E1.0254
G1 X125.520 Y91.381 E1.0277
G1 X125.683 Y91.381 E1.0300
G1 X125.911 Y91.202 E1.0341
G1 X126.611 Y91.202 E1.0440
G1 X125.938 Y91.409 E1.0540
G1 X126.638 Y91.409 E1.0639
G1 X126.611 Y90.502 E1.0767
G1 X125.911 Y90.502 E1.0866
G1 X126.557 Y90.190 E1.0967
G1 X125.857 Y90.190 E1.1066
G1 X125.669 Y90.474 E1.1114
G1 X125.520 Y90.474 E1.1135
G1 X125.520 Y90.248 E1.1167
G1 X125.617 Y90.209 E1.1182
G1 X125.520 Y90.209 E1.1196
G1 X125.520 Y89.509 E1.1295
G1 X125.617 Y89.509 E1.1308
G1 X125.520 Y89.484 E1.1322
G0 F4800 E0.1322
G0 X126.573 Y89.397 F10800
G0 F4800 E1.1322
G1 X125.873 Y89.397 E1.1421 F5400
G1 X126.557 Y89.490 E1.1519
G1 X125.857 Y89.490 E1.1618
G1 X125.742 Y89.360 E1.1642
G1 X125.520 Y89.360 E1.1674
G1 X125.520 Y88.660 E1.1773
G1 X125.742 Y88.660 E1.1804
G1 X125.760 Y88.435 E1.1836
G1 X126.460 Y88.435 E1.1935
G1 X125.873 Y88.697 E1.2026
G1 X126.573 Y88.697 E1.2125
G0 F4800 E0.2125
G0 X126.634 Y87.500 F10800
G0 F4800 E1.2125
G1 X125.934 Y87.500 E1.2224 F5400
G1 X126.460 Y87.735 E1.2305
G1 X125.760 Y87.735 E1.2404
G1 X125.628 Y88.288 E1.2485
G1 X125.520 Y88.288 E1.2500
G1 X125.520 Y87.588 E1.2599
G1 X125.628 Y87.588 E1.2614
G1 X125.520 Y87.571 E1.2629
G1 X125.520 Y87.502 E1.2639
G1 X125.786 Y87.502 E1.2677
G1 X125.520 Y86.802 E1.2782
G1 X125.786 Y86.802 E1.2820
G1 X125.520 Y86.697 E1.2860
G1 X125.520 Y86.522 E1.2885
G1 X126.603 Y86.512 E1.3038
G1 X125.934 Y86.800 E1.3141
G1 X126.634 Y86.800 E1.3240
G0 F4800 E0.3240
G0 X125.520 Y84.980 F10800
G0 F4800 E1.3240
G1 X125.791 Y84.980 E1.3278 F5400
G1 X125.520 Y84.869 E1.3320
G1 X125.520 Y85.770 E1.3447
G1 X125.790 Y85.826 E1.3486
G1 X125.520 Y85.826 E1.3524
G1 X125.520 Y85.680 E1.3545
G1 X125.791 Y85.680 E1.3583
G1 X125.903 Y85.812 E1.3607
G1 X126.603 Y85.812 E1.3706
G1 X125.947 Y85.658 E1.3802
G1 X126.647 Y85.658 E1.3901
G1 X126.647 Y84.958 E1.4000
G1 X125.947 Y84.958 E1.4098
G1 X126.627 Y84.702 E1.4201
G1 X125.520 Y84.708 E1.4358
G1 X125.520 Y83.893 E1.4473
G1 X125.811 Y83.805 E1.4516
G1 X125.520 Y83.805 E1.4557
G1 X125.520 Y84.008 E1.4586
G1 X126.627 Y84.002 E1.4742
G1 X125.948 Y83.868 E1.4840
G1 X126.648 Y83.868 E1.4939
G1 X126.648 Y83.168 E1.5038
G1 X125.948 Y83.168 E1.5137
G1 X126.587 Y82.901 E1.5235
G1 X125.887 Y82.901 E1.5334
G1 X125.811 Y83.105 E1.5364
G1 X125.520 Y83.105 E1.5405
G1 X125.520 Y82.996 E1.5421
G1 X125.790 Y82.924 E1.5460
G1 X125.520 Y82.924 E1.5499
G1 X125.520 Y82.103 E1.5615
G1 X125.734 Y82.043 E1.5646
G1 X125.520 Y82.043 E1.5676
G1 X125.520 Y81.301 E1.5781
G1 X125.734 Y81.343 E1.5812
G1 X125.520 Y81.343 E1.5842
G1 X125.520 Y82.224 E1.5967
G1 X125.790 Y82.224 E1.6005
G1 X125.864 Y82.057 E1.6031
G1 X126.564 Y82.057 E1.6130
G1 X125.887 Y82.201 E1.6227
G1 X126.587 Y82.201 E1.6326
G0 F4800 E0.6326
G0 X126.566 Y81.133 F10800
G0 F4800 E1.6326
G1 X125.866 Y81.133 E1.6425 F5400
G1 X126.564 Y81.357 E1.6529
G1 X125.864 Y81.357 E1.6628
G1 X125.739 Y81.206 E1.6656
G1 X125.520 Y81.206 E1.6687
G1 X125.520 Y80.374 E1.6804
G1 X125.731 Y80.316 E1.6835
G1 X125.520 Y80.316 E1.6865
G1 X125.520 Y80.483 E1.6888
G1 X126.566 Y80.433 E1.7036
G1 X126.591 Y80.368 E1.7046
G1 X126.591 Y79.668 E1.7145
G1 X125.891 Y79.668 E1.7244
G1 X126.585 Y79.500 E1.7345
G1 X125.520 Y79.499 E1.7496
G1 X125.520 Y79.581 E1.7507
G1 X125.731 Y79.616 E1.7538
G1 X125.520 Y79.616 E1.7567
G1 X125.520 Y78.799 E1.7683
G1 X125.737 Y78.799 E1.7714
G1 X125.520 Y78.774 E1.7744
G1 X125.520 Y78.720 E1.7752
G1 X125.758 Y78.720 E1.7785
G1 X125.885 Y78.800 E1.7807
G1 X126.602 Y78.759 E1.7908
G1 X126.602 Y78.059 E1.8007
G1 X125.902 Y78.059 E1.8106
G1 X126.535 Y77.852 E1.8200
G1 X125.835 Y77.852 E1.8299
G1 X125.758 Y78.020 E1.8325
G1 X125.520 Y78.020 E1.8359
G1 X125.520 Y77.892 E1.8377
G1 X125.752 Y77.828 E1.8411
G1 X125.520 Y77.828 E1.8444
G1 X125.520 Y77.128 E1.8543
G1 X125.752 Y77.128 E1.8575
G1 X125.520 Y77.095 E1.8608
G0 F4800 E0.8608
G0 X125.520 Y75.336 F10800
G0 F4800 E1.8608
G1 X126.678 Y75.317 E1.8772 F5400
G1 X125.978 Y76.017 E1.8912
G1 X126.678 Y76.017 E1.9011
G1 X126.598 Y76.392 E1.9065
G1 X125.898 Y76.392 E1.9164
G1 X125.798 Y76.043 E1.9216
G1 X125.520 Y76.043 E1.9255
G1 X125.520 Y76.222 E1.9280
G1 X125.783 Y76.333 E1.9320
G1 X125.520 Y76.333 E1.9358
G1 X125.520 Y77.033 E1.9457
G1 X125.783 Y77.033 E1.9494
G1 X125.835 Y77.152 E1.9512
G1 X126.598 Y77.092 E1.9620
G0 F4800 E0.9620
G0 X133.271 Y77.613 F10800
G0 F4800 E1.9620
G1 X133.971 Y77.613 E1.9719 F5400
G1 X133.369 Y77.755 E1.9807
G1 X134.480 Y77.793 E1.9964
G0 F4800 E0.9964
G0 X133.271 Y76.913 F10800
G0 F4800 E1.9964
G1 X133.971 Y76.913 E2.0063 F5400
G1 X134.245 Y76.824 E2.0103
G1 X134.480 Y76.824 E2.0137
G0 F4800 E1.0137
G0 X133.145 Y75.586 F10800
G0 F4800 E2.0137
G1 X133.845 Y75.586 E2.0236 F5400
G1 X134.306 Y75.703 E2.0303
G1 X134.480 Y75.703 E2.0327
G1 X134.480 Y76.403 E2.0426
G1 X134.306 Y76.403 E2.0451
G1 X133.845 Y76.286 E2.0518
G1 X133.145 Y76.286 E2.0617
G0 F4800 E1.0617
G0 X134.480 Y77.524 F10800
G0 F4800 E2.0617
G1 X134.245 Y77.524 E2.0650 F5400
G1 X134.480 Y77.620 E2.0686
G0 F4800 E1.0686
G0 X133.351 Y79.330 F10800
G0 F4800 E2.0686
G1 X134.051 Y79.330 E2.0785 F5400
G1 X133.387 Y79.517 E2.0883
G1 X134.087 Y79.517 E2.0982
G1 X134.231 Y79.326 E2.1015
G1 X134.480 Y79.326 E2.1051
G1 X134.480 Y78.508 E2.1166
G1 X134.240 Y78.508 E2.1200
G1 X134.480 Y78.549 E2.1235
G1 X134.480 Y78.626 E2.1246
G1 X134.231 Y78.626 E2.1281
G1 X134.069 Y78.455 E2.1314
G1 X133.369 Y78.455 E2.1413
G1 X134.051 Y78.630 E2.1513
G1 X133.351 Y78.630 E2.1612
G0 F4800 E1.1612
G0 X134.480 Y79.468 F10800
G0 F4800 E2.1612
G1 X134.242 Y79.543 E2.1647 F5400
G1 X134.480 Y79.543 E2.1681
G0 F4800 E1.1681
G0 X133.387 Y80.217 F10800
G0 F4800 E2.1681
G1 X134.087 Y80.217 E2.1780 F5400
G1 X133.417 Y80.362 E2.1876
G1 X134.117 Y80.362 E2.1975
G1 X134.242 Y80.243 E2.2000
G1 X134.480 Y80.243 E2.2033
G1 X134.480 Y80.374 E2.2052
G1 X134.243 Y80.374 E2.2085
G1 X134.480 Y80.330 E2.2119
G1 X134.480 Y81.074 E2.2225
G1 X134.243 Y81.074 E2.2258
G1 X134.480 Y81.177 E2.2295
G1 X134.480 Y81.373 E2.2322
G1 X134.230 Y81.373 E2.2358
G1 X134.117 Y81.062 E2.2404
G1 X133.417 Y81.062 E2.2503
G1 X134.037 Y81.333 E2.2599
G1 X133.337 Y81.333 E2.2698
G1 X133.337 Y82.033 E2.2797
G1 X134.037 Y82.033 E2.2896
G1 X133.364 Y82.176 E2.2993
G1 X134.064 Y82.176 E2.3092
G1 X134.230 Y82.073 E2.3120
G1 X134.480 Y82.073 E2.3155
G1 X134.480 Y82.166 E2.3168
G1 X134.243 Y82.216 E2.3202
G1 X134.480 Y82.216 E2.3236
G1 X134.480 Y83.015 E2.3349
G1 X134.294 Y83.055 E2.3376
G1 X134.480 Y83.055 E2.3402
G1 X134.480 Y83.755 E2.3501
G1 X134.294 Y83.755 E2.3527
G1 X134.480 Y83.838 E2.3556
G1 X134.480 Y82.916 E2.3687
G1 X134.243 Y82.916 E2.3720
G1 X134.067 Y83.027 E2.3749
G1 X133.367 Y83.027 E2.3848
G1 X134.064 Y82.876 E2.3949
G1 X133.364 Y82.876 E2.4048
G1 X133.367 Y83.727 E2.4169
G1 X134.067 Y83.727 E2.4267
G1 X133.414 Y84.008 E2.4368
G1 X134.480 Y84.036 E2.4519
G1 X134.480 Y84.749 E2.4619
G1 X134.253 Y84.749 E2.4651
G1 X134.480 Y84.818 E2.4685
G0 F4800 E1.4685
G0 X133.347 Y84.932 F10800
G0 F4800 E2.4685
G1 X134.047 Y84.932 E2.4784 F5400
G1 X133.414 Y84.708 E2.4879
G1 X134.114 Y84.708 E2.4978
G1 X134.235 Y84.958 E2.5017
G1 X134.480 Y84.958 E2.5051
G1 X134.480 Y85.758 E2.5164
G1 X134.235 Y85.658 E2.5202
G1 X134.480 Y85.658 E2.5236
G1 X134.480 Y85.938 E2.5276
G1 X133.356 Y85.932 E2.5435
G1 X134.047 Y85.632 E2.5541
G1 X133.347 Y85.632 E2.5640
G1 X133.356 Y86.632 E2.5782
G1 X134.056 Y86.632 E2.5881
G1 X133.372 Y86.887 E2.5984
G1 X134.072 Y86.887 E2.6083
G1 X134.228 Y86.641 E2.6124
G1 X134.480 Y86.641 E2.6160
G1 X134.480 Y86.809 E2.6183
G1 X134.293 Y86.879 E2.6212
G1 X134.480 Y86.879 E2.6238
G1 X134.480 Y87.579 E2.6337
G1 X134.293 Y87.579 E2.6363
G1 X134.085 Y87.851 E2.6412
G1 X133.385 Y87.851 E2.6511
G1 X134.072 Y87.587 E2.6615
G1 X133.372 Y87.587 E2.6714
G0 F4800 E1.6714
G0 X134.480 Y87.831 F10800
G0 F4800 E2.6714
G1 X134.324 Y87.831 E2.6736 F5400
G1 X134.480 Y87.772 E2.6759
G1 X134.480 Y88.531 E2.6867
G1 X134.324 Y88.531 E2.6889
G1 X134.480 Y88.564 E2.6911
G1 X134.480 Y88.666 E2.6926
G1 X133.494 Y88.659 E2.7065
G1 X134.085 Y88.551 E2.7150
G1 X133.385 Y88.551 E2.7249
G0 F4800 E1.7249
G0 X133.475 Y89.585 F10800
G0 F4800 E2.7249
G1 X134.175 Y89.585 E2.7348 F5400
G1 X133.494 Y89.359 E2.7449
G1 X134.194 Y89.359 E2.7548
G1 X134.257 Y89.563 E2.7578
G1 X134.480 Y89.563 E2.7610
G1 X134.480 Y89.427 E2.7629
G1 X134.280 Y89.370 E2.7659
G1 X134.480 Y89.370 E2.7687
G0 F4800 E1.7687
G0 X133.446 Y90.500 F10800
G0 F4800 E2.7687
G1 X134.146 Y90.500 E2.7786 F5400
G1 X133.475 Y90.285 E2.7885
G1 X134.480 Y90.270 E2.8027
G1 X134.480 Y90.489 E2.8058
G1 X134.303 Y90.489 E2.8083
G1 X134.480 Y90.428 E2.8110
G1 X134.480 Y91.250 E2.8226
G1 X134.303 Y91.189 E2.8252
G1 X134.480 Y91.189 E2.8278
G1 X134.480 Y91.427 E2.8311
G1 X134.289 Y91.427 E2.8338
G1 X134.146 Y91.200 E2.8376
G1 X133.446 Y91.200 E2.8475
G1 X134.118 Y91.415 E2.8575
G1 X133.418 Y91.415 E2.8674
G1 X133.387 Y92.184 E2.8783
G1 X134.480 Y92.145 E2.8937
G1 X134.480 Y92.201 E2.8945
G1 X134.323 Y92.224 E2.8968
G1 X134.480 Y92.224 E2.8990
G1 X134.480 Y92.953 E2.9093
G1 X134.323 Y92.924 E2.9115
G1 X134.480 Y92.924 E2.9138
G0 F4800 E1.9138
G0 X133.349 Y92.956 F10800
G0 F4800 E2.9138
G1 X134.087 Y92.884 E2.9243 F5400
G1 X134.303 Y93.051 E2.9281
G1 X134.480 Y93.051 E2.9306
G0 F4800 E1.9306
G0 X133.349 Y93.656 F10800
G0 F4800 E2.9306
G1 X134.049 Y93.656 E2.9405 F5400
G1 X133.374 Y93.862 E2.9505
G1 X134.480 Y93.911 E2.9661
G1 X134.480 Y93.751 E2.9684
G1 X134.303 Y93.751 E2.9709
G1 X134.480 Y93.800 E2.9735
G1 X134.480 Y94.632 E2.9852
G1 X134.253 Y94.632 E2.9884
G1 X134.480 Y94.708 E2.9918
G1 X134.480 Y95.603 E3.0045
G1 X134.186 Y95.546 E3.0087
G1 X134.480 Y95.546 E3.0129
G1 X134.480 Y94.846 E3.0227
G1 X134.186 Y94.846 E3.0269
G1 X134.074 Y94.562 E3.0312
G1 X133.374 Y94.562 E3.0411
G1 X134.043 Y94.761 E3.0510
G1 X133.343 Y94.761 E3.0609
