; GCode generated by CraftWare

G28 X0 Y0
G28 Z0

M190 S60 ;set bed temp (wait)
M109 S215 ;set head temp (wait)

; ------------------------------------
; Raft Layer #0
; ------------------------------------
G21 ; mm
G90 ; abs
G92 E0 ; reset extr
M106 S0
;segType:Raft
G0 F4800 E-1.0000
G0 F300 Z0.300
G0 X0.000 Y0.000 F10800
G0 F4800 E0.0000
G1 X87.609 Y124.989 E7.6150 F600
G1 X87.609 Y79.389 E9.8900
G1 X91.585 Y79.389 E10.0883
G1 X91.585 Y124.989 E12.3633
G1 X95.560 Y122.951 E12.5862
G1 X95.560 Y81.427 E14.6578
G1 X99.536 Y94.165 E15.3235
G1 X99.536 Y109.959 E16.1115
G1 X103.511 Y109.577 E16.3107
G1 X103.511 Y94.419 E17.0669
G1 X107.487 Y94.419 E17.2653
G1 X107.487 Y109.322 E18.0088
G1 X111.463 Y107.794 E18.2213
G1 X111.463 Y96.330 E18.7932
G1 X127.365 Y90.471 E19.6387
G1 X127.365 Y113.653 E20.7953
G1 X131.341 Y109.577 E21.0793
G1 X131.341 Y93.783 E21.8673
G1 X135.316 Y93.783 E22.0656
G1 X135.316 Y109.577 E22.8536
G1 X139.292 Y109.577 E23.0520
G1 X139.292 Y93.783 E23.8399
G0 F4800 E22.8399
G0 X123.389 Y79.007 F10800
G0 F4800 E23.8399
G1 X123.389 Y124.352 E26.1022 F600
G1 X119.414 Y124.352 E26.3005
G1 X119.414 Y78.625 E28.5819
G1 X115.438 Y79.389 E28.7838
G1 X115.438 Y122.951 E30.9571
G0 F4800 E29.9571
G0 X83.633 Y114.290 F10800
G0 F4800 E30.9571
G1 X83.633 Y90.089 E32.1645 F600



; ------------------------------------
; Raft Layer #1
; ------------------------------------
G21 ; mm
G90 ; abs
G92 E0 ; reset extr
M106 S0
;segType:Raft
G0 F4800 E-1.0000
G0 F300 Z0.600
G0 X83.198 Y90.396 F10800
G0 F4800 E0.0000
G1 X96.701 Y90.396 E0.6737 F3600
G1 X96.701 Y89.121 E0.7373
G1 X83.595 Y89.121 E1.3912
G1 X83.595 Y87.846 E1.4548
G1 X96.701 Y87.846 E2.1087
G1 X96.701 Y86.571 E2.1723
G1 X83.595 Y86.571 E2.8262
G1 X83.595 Y85.296 E2.8898
G1 X96.304 Y85.296 E3.5239
G1 X95.510 Y81.471 E3.7188
G1 X83.992 Y81.471 E4.2934
G1 X83.595 Y82.746 E4.3600
G1 X96.039 Y82.746 E4.9809
G1 X96.039 Y84.021 E5.0445
G1 X83.595 Y84.021 E5.6653
G1 X85.184 Y80.196 E5.8720
G1 X94.186 Y80.196 E6.3211
G0 F4800 E5.3211
G0 X97.893 Y91.671 F10800
G0 F4800 E6.3211
G1 X82.801 Y91.671 E7.0741 F3600
G1 X82.801 Y92.946 E7.1377
G1 X98.290 Y92.946 E7.9104
G1 X100.938 Y94.221 E8.0570
G1 X82.801 Y94.221 E8.9619
G1 X82.801 Y95.496 E9.0255
G1 X110.602 Y95.496 E10.4126
G1 X112.588 Y90.396 E10.6856
G1 X127.283 Y90.396 E11.4187
G1 X128.474 Y91.671 E11.5058
G1 X112.588 Y91.671 E12.2984
G1 X112.588 Y92.946 E12.3620
G1 X128.474 Y92.946 E13.1546
G0 F4800 E12.1546
G0 X126.886 Y81.471 F10800
G0 F4800 E13.1546
G1 X114.044 Y81.471 E13.7953 F3600
G1 X114.044 Y82.746 E13.8589
G1 X126.886 Y82.746 E14.4995
G1 X126.886 Y84.021 E14.5631
G1 X114.044 Y84.021 E15.2038
G1 X114.044 Y85.296 E15.2674
G1 X126.886 Y85.296 E15.9081
G1 X126.886 Y86.571 E15.9717
G1 X114.044 Y86.571 E16.6124
G1 X114.044 Y87.846 E16.6760
G1 X126.886 Y87.846 E17.3167
G1 X126.886 Y89.121 E17.3803
G1 X113.912 Y89.121 E18.0276
G0 F4800 E17.0276
G0 X114.574 Y80.196 F10800
G0 F4800 E18.0276
G1 X126.092 Y80.196 E18.6022 F3600
G1 X122.385 Y78.921 E18.7977
G1 X115.898 Y78.921 E19.1214
G0 F4800 E18.1214
G0 X140.522 Y94.221 F10800
G0 F4800 E19.1214
G1 X112.588 Y94.221 E20.5150 F3600
G1 X112.588 Y95.496 E20.5786
G1 X141.846 Y95.496 E22.0383
G1 X142.110 Y96.771 E22.1033
G1 X112.588 Y96.771 E23.5762
G1 X111.926 Y96.771 E23.6092
G1 X82.801 Y96.771 E25.0623
G1 X82.801 Y98.046 E25.1259
G1 X111.926 Y98.046 E26.5789
G1 X112.588 Y98.046 E26.6120
G1 X142.243 Y98.046 E28.0915
G1 X142.508 Y101.871 E28.2827
G1 X112.853 Y101.871 E29.7622
G1 X112.191 Y101.871 E29.7953
G1 X82.403 Y101.871 E31.2814
G1 X82.403 Y100.596 E31.3450
G1 X112.191 Y100.596 E32.8311
G1 X112.853 Y100.596 E32.8641
G1 X142.508 Y100.596 E34.3436
G1 X142.508 Y99.321 E34.4072
G1 X112.853 Y99.321 E35.8867
G1 X112.191 Y99.321 E35.9197
G1 X82.403 Y99.321 E37.4058
G1 X82.801 Y103.146 E37.5977
G1 X112.191 Y103.146 E39.0639
G1 X112.853 Y103.146 E39.0970
G1 X142.508 Y103.146 E40.5764
G1 X142.508 Y104.421 E40.6401
G1 X112.853 Y104.421 E42.1196
G1 X112.191 Y104.421 E42.1526
G1 X82.801 Y104.421 E43.6189
G1 X82.801 Y105.696 E43.6825
G1 X111.926 Y105.696 E45.1355
G1 X112.720 Y105.696 E45.1752
G1 X142.110 Y105.696 E46.6415
G1 X141.978 Y106.971 E46.7054
G1 X112.588 Y106.971 E48.1717
G1 X111.926 Y106.971 E48.2047
G1 X82.801 Y106.971 E49.6578
G1 X82.801 Y108.246 E49.7214
G1 X110.867 Y108.246 E51.1216
G1 X112.588 Y110.796 E51.2751
G1 X128.077 Y110.796 E52.0479
G1 X128.077 Y112.071 E52.1115
G1 X112.588 Y112.071 E52.8843
G1 X113.117 Y113.346 E52.9531
G1 X127.548 Y113.346 E53.6731
G1 X128.474 Y109.521 E53.8694
G1 X112.588 Y109.521 E54.6620
G1 X112.588 Y108.246 E54.7256
G1 X140.919 Y108.246 E56.1391
G0 F4800 E55.1391
G0 X126.886 Y122.271 F10800
G0 F4800 E56.1391
G1 X114.839 Y122.271 E56.7401 F3600
G1 X114.044 Y120.996 E56.8150
G1 X126.886 Y120.996 E57.4557
G1 X126.886 Y119.721 E57.5193
G1 X114.044 Y119.721 E58.1600
G1 X114.044 Y118.446 E58.2236
G1 X126.886 Y118.446 E58.8643
G1 X126.886 Y117.171 E58.9279
G1 X114.177 Y117.171 E59.5620
G1 X114.177 Y115.896 E59.6256
G1 X126.886 Y115.896 E60.2596
G1 X126.886 Y114.621 E60.3232
G1 X114.044 Y114.621 E60.9639
G0 F4800 E59.9639
G0 X116.162 Y123.546 F10800
G0 F4800 E60.9639
G1 X125.562 Y123.546 E61.4329 F3600
G0 F4800 E60.4329
G0 X101.203 Y109.521 F10800
G0 F4800 E61.4329
G1 X82.801 Y109.521 E62.3509 F3600
G1 X82.801 Y110.796 E62.4145
G1 X97.893 Y110.796 E63.1675
G1 X97.893 Y112.071 E63.2311
G1 X82.801 Y112.071 E63.9841
G1 X82.801 Y113.346 E64.0477
G1 X97.893 Y113.346 E64.8006
G0 F4800 E63.8006
G0 X96.039 Y122.271 F10800
G0 F4800 E64.8006
G1 X83.992 Y122.271 E65.4017 F3600
G1 X83.992 Y120.996 E65.4653
G1 X96.701 Y120.996 E66.0994
G1 X96.701 Y119.721 E66.1630
G1 X83.860 Y119.721 E66.8036
G1 X83.860 Y118.446 E66.8673
G1 X96.701 Y118.446 E67.5079
G1 X96.701 Y117.171 E67.5715
G1 X83.595 Y117.171 E68.2254
G1 X83.595 Y115.896 E68.2890
G1 X96.701 Y115.896 E68.9429
G1 X96.701 Y114.621 E69.0065
G1 X83.595 Y114.621 E69.6604
G0 F4800 E68.6604
G0 X84.654 Y123.546 F10800
G0 F4800 E69.6604
G1 X94.716 Y123.546 E70.1624 F3600
G1 X93.127 Y124.821 E70.2640
G1 X85.978 Y124.821 E70.6207



; ------------------------------------
; Raft Layer #2
; ------------------------------------
G21 ; mm
G90 ; abs
G92 E0 ; reset extr
M106 S0
;segType:Raft
G0 F4800 E-1.0000
G0 F300 Z0.900
G0 X84.429 Y123.333 F10800
G0 F4800 E0.0000
G1 X84.429 Y81.045 E2.1097 F3600
G1 X84.826 Y80.663 E2.1373
G1 X84.826 Y123.715 E4.2851
G1 X85.224 Y124.097 E4.3126
G1 X85.224 Y80.281 E6.4986
G1 X85.621 Y79.899 E6.5262
G1 X85.621 Y124.479 E8.7503
G1 X86.019 Y124.862 E8.7778
G1 X86.019 Y79.517 E11.0401
G1 X86.416 Y79.389 E11.0609
G1 X86.416 Y124.989 E13.3359
G1 X86.814 Y124.989 E13.3557
G1 X86.814 Y79.389 E15.6307
G1 X87.212 Y79.389 E15.6505
G1 X87.212 Y124.989 E17.9255
G1 X87.609 Y124.989 E17.9453
G1 X87.609 Y79.389 E20.2203
G1 X88.007 Y79.389 E20.2401
G1 X88.007 Y124.989 E22.5151
G1 X88.404 Y124.989 E22.5349
G1 X88.404 Y79.389 E24.8099
G1 X88.802 Y79.389 E24.8297
G1 X88.802 Y124.989 E27.1047
G1 X89.199 Y124.989 E27.1245
G1 X89.199 Y79.389 E29.3995
G1 X89.597 Y79.389 E29.4193
G1 X89.597 Y124.989 E31.6943
G1 X89.994 Y124.989 E31.7141
G1 X89.994 Y79.389 E33.9891
G1 X90.392 Y79.389 E34.0089
G1 X90.392 Y124.989 E36.2839
G1 X90.790 Y124.989 E36.3037
G1 X90.790 Y79.389 E38.5787
G1 X91.187 Y79.389 E38.5985
G1 X91.187 Y124.989 E40.8735
G1 X91.585 Y124.989 E40.8933
G1 X91.585 Y79.389 E43.1683
G1 X91.982 Y79.389 E43.1881
G1 X91.982 Y124.989 E45.4631
G1 X92.380 Y124.989 E45.4829
G1 X92.380 Y79.389 E47.7579
G1 X92.777 Y79.389 E47.7777
G1 X92.777 Y124.989 E50.0527
G1 X93.175 Y124.989 E50.0725
G1 X93.175 Y79.772 E52.3284
G1 X93.573 Y80.026 E52.3520
G1 X93.573 Y124.607 E54.5761
G1 X93.970 Y124.352 E54.5997
G1 X93.970 Y80.026 E56.8111
G1 X94.368 Y80.281 E56.8347
G1 X94.368 Y124.097 E59.0207
G1 X94.765 Y123.715 E59.0482
G1 X94.765 Y80.663 E61.1960
G1 X95.163 Y81.045 E61.2236
G1 X95.163 Y123.333 E63.3333
G1 X95.560 Y122.951 E63.3608
G1 X95.560 Y81.427 E65.4324
G1 X95.958 Y81.809 E65.4599
G1 X95.958 Y122.569 E67.4934
G1 X96.355 Y122.059 E67.5257
G1 X96.355 Y84.484 E69.4003
G1 X96.753 Y86.268 E69.4915
G1 X96.753 Y121.677 E71.2581
G0 F4800 E70.2581
G0 X97.151 Y114.417 F10800
G0 F4800 E71.2581
G1 X97.151 Y90.726 E72.4400 F3600
G1 X97.548 Y91.108 E72.4675
G1 X97.548 Y114.035 E73.6114
G1 X97.946 Y113.653 E73.6389
G1 X97.946 Y91.490 E74.7446
G1 X98.343 Y92.127 E74.7820
G1 X98.343 Y110.086 E75.6781
G1 X98.741 Y109.959 E75.6989
G1 X98.741 Y94.165 E76.4869
G1 X99.138 Y94.165 E76.5067
G1 X99.138 Y109.959 E77.2947
G1 X99.536 Y109.959 E77.3145
G1 X99.536 Y94.165 E78.1025
G1 X99.934 Y94.165 E78.1223
G1 X99.934 Y109.959 E78.9103
G1 X100.331 Y109.959 E78.9301
G1 X100.331 Y94.165 E79.7181
G1 X100.729 Y94.165 E79.7380
G1 X100.729 Y109.959 E80.5259
G1 X101.126 Y109.832 E80.5468
G1 X101.126 Y94.292 E81.3220
G1 X101.524 Y94.419 E81.3429
G1 X101.524 Y109.577 E82.0991
G1 X101.921 Y109.577 E82.1189
G1 X101.921 Y94.419 E82.8751
G1 X102.319 Y94.419 E82.8949
G1 X102.319 Y109.577 E83.6511
G1 X102.716 Y109.577 E83.6710
G1 X102.716 Y94.419 E84.4272
G1 X103.114 Y94.419 E84.4470
G1 X103.114 Y109.577 E85.2032
G1 X103.512 Y109.577 E85.2231
G1 X103.512 Y94.419 E85.9793
G1 X103.909 Y94.419 E85.9991
G1 X103.909 Y109.577 E86.7553
G1 X104.307 Y109.577 E86.7751
G1 X104.307 Y94.419 E87.5313
G1 X104.704 Y94.419 E87.5512
G1 X104.704 Y109.577 E88.3074
G1 X105.102 Y109.577 E88.3272
G1 X105.102 Y94.419 E89.0834
G1 X105.499 Y94.419 E89.1033
G1 X105.499 Y109.577 E89.8595
G1 X105.897 Y109.577 E89.8793
G1 X105.897 Y94.419 E90.6355
G1 X106.295 Y94.419 E90.6553
G1 X106.295 Y109.577 E91.4115
G1 X106.692 Y109.449 E91.4324
G1 X106.692 Y94.419 E92.1822
G1 X107.090 Y94.419 E92.2020
G1 X107.090 Y109.322 E92.9455
G1 X107.487 Y109.322 E92.9654
G1 X107.487 Y94.419 E93.7089
G1 X107.885 Y94.419 E93.7287
G1 X107.885 Y109.322 E94.4722
G1 X108.282 Y109.322 E94.4920
G1 X108.282 Y94.419 E95.2355
G1 X108.680 Y94.419 E95.2554
G1 X108.680 Y109.322 E95.9989
G1 X109.077 Y109.322 E96.0187
G1 X109.077 Y94.419 E96.7622
G1 X109.475 Y94.547 E96.7830
G1 X109.475 Y109.322 E97.5202
G1 X109.873 Y109.322 E97.5400
G1 X109.873 Y94.802 E98.2644
G1 X110.270 Y95.056 E98.2880
G1 X110.270 Y109.067 E98.9870
G1 X110.668 Y108.685 E99.0145
G1 X110.668 Y95.438 E99.6754
G1 X111.065 Y95.821 E99.7029
G1 X111.065 Y108.303 E100.3257
G1 X111.463 Y107.794 E100.3579
G1 X111.463 Y96.330 E100.9298
G1 X111.860 Y96.712 E100.9573
G1 X111.860 Y107.411 E101.4911
G1 X112.655 Y105.883 E101.5771
G1 X112.655 Y113.016 E101.9329
G1 X113.053 Y113.398 E101.9605
G1 X113.053 Y89.961 E103.1297
G1 X113.451 Y89.579 E103.1572
G1 X113.451 Y113.780 E104.3646
G1 X113.848 Y114.162 E104.3921
G1 X113.848 Y89.197 E105.6376
G1 X112.655 Y90.343 E105.7202
G1 X112.655 Y98.495 E106.1269
G0 F4800 E105.1269
G0 X114.246 Y115.563 F10800
G0 F4800 E106.1269
G1 X114.246 Y80.536 E107.8744 F3600
G1 X114.643 Y80.154 E107.9019
G1 X114.643 Y121.805 E109.9799
G1 X114.246 Y121.422 E110.0074
G1 X114.246 Y115.945 E110.2806
G0 F4800 E109.2806
G0 X115.041 Y122.569 F10800
G0 F4800 E110.2806
G1 X115.041 Y79.772 E112.4158 F3600
G1 X115.438 Y79.389 E112.4433
G1 X115.438 Y122.951 E114.6166
G1 X115.836 Y123.333 E114.6441
G1 X115.836 Y79.007 E116.8556
G1 X116.234 Y78.753 E116.8791
G1 X116.234 Y123.715 E119.1223
G1 X116.631 Y124.097 E119.1498
G1 X116.631 Y78.753 E121.4121
G1 X117.029 Y78.625 E121.4329
G1 X117.029 Y124.352 E123.7142
G1 X117.426 Y124.352 E123.7341
G1 X117.426 Y78.625 E126.0154
G1 X117.824 Y78.625 E126.0352
G1 X117.824 Y124.352 E128.3165
G1 X118.221 Y124.352 E128.3364
G1 X118.221 Y78.625 E130.6177
G1 X118.619 Y78.625 E130.6375
G1 X118.619 Y124.352 E132.9189
G1 X119.016 Y124.352 E132.9387
G1 X119.016 Y78.625 E135.2200
G1 X119.414 Y78.625 E135.2399
G1 X119.414 Y124.352 E137.5212
G1 X119.812 Y124.352 E137.5410
G1 X119.812 Y78.625 E139.8224
G1 X120.209 Y78.625 E139.8422
G1 X120.209 Y124.352 E142.1235
G1 X120.607 Y124.352 E142.1434
G1 X120.607 Y78.625 E144.4247
G1 X121.004 Y78.625 E144.4445
G1 X121.004 Y124.352 E146.7259
G1 X121.402 Y124.352 E146.7457
G1 X121.402 Y78.625 E149.0270
G1 X121.799 Y78.625 E149.0469
G1 X121.799 Y124.352 E151.3282
G1 X122.197 Y124.352 E151.3480
G1 X122.197 Y78.753 E153.6230
G1 X122.595 Y79.007 E153.6465
G1 X122.595 Y124.352 E155.9088
G1 X122.992 Y124.352 E155.9286
G1 X122.992 Y79.007 E158.1909
G1 X123.390 Y79.007 E158.2107
G1 X123.390 Y124.352 E160.4730
G1 X123.787 Y124.352 E160.4928
G1 X123.787 Y79.007 E162.7551
G1 X124.185 Y79.007 E162.7749
G1 X124.185 Y124.352 E165.0371
G1 X124.582 Y124.352 E165.0570
G1 X124.582 Y79.007 E167.3192
G1 X124.980 Y79.135 E167.3401
G1 X124.980 Y124.225 E169.5896
G1 X125.377 Y123.843 E169.6171
G1 X125.377 Y79.517 E171.8285
G1 X125.775 Y79.899 E171.8561
G1 X125.775 Y123.460 E174.0293
G1 X126.173 Y123.078 E174.0569
G1 X126.173 Y80.281 E176.1920
G1 X126.570 Y80.663 E176.2195
G1 X126.570 Y122.696 E178.3166
G0 F4800 E177.3166
G0 X126.968 Y114.035 F10800
G0 F4800 E178.3166
G1 X126.968 Y90.089 E179.5112 F3600
G1 X127.365 Y90.471 E179.5387
G1 X127.365 Y113.653 E180.6953
G1 X127.763 Y113.271 E180.7228
G1 X127.763 Y90.853 E181.8412
G1 X128.160 Y91.235 E181.8688
G1 X128.160 Y110.341 E182.8220
G1 X128.558 Y109.577 E182.8649
G1 X128.558 Y93.783 E183.6529
G1 X128.955 Y93.783 E183.6728
G1 X128.955 Y109.577 E184.4607
G1 X129.353 Y109.577 E184.4806
G1 X129.353 Y93.783 E185.2685
G1 X129.751 Y93.783 E185.2884
G1 X129.751 Y109.577 E186.0764
G1 X130.148 Y109.577 E186.0962
G1 X130.148 Y93.783 E186.8842
G1 X130.546 Y93.783 E186.9040
G1 X130.546 Y109.577 E187.6920
G1 X130.943 Y109.577 E187.7118
G1 X130.943 Y93.910 E188.4934
G1 X131.341 Y93.783 E188.5143
G1 X131.341 Y109.577 E189.3023
G1 X131.738 Y109.577 E189.3221
G1 X131.738 Y93.783 E190.1101
G1 X132.136 Y93.783 E190.1299
G1 X132.136 Y109.577 E190.9179
G1 X132.534 Y109.577 E190.9377
G1 X132.534 Y93.783 E191.7257
G1 X132.931 Y93.783 E191.7455
G1 X132.931 Y109.577 E192.5335
G1 X133.329 Y109.577 E192.5534
G1 X133.329 Y93.783 E193.3413
G1 X133.726 Y93.783 E193.3612
G1 X133.726 Y109.577 E194.1491
G1 X134.124 Y109.577 E194.1690
G1 X134.124 Y93.783 E194.9570
G1 X134.521 Y93.783 E194.9768
G1 X134.521 Y109.577 E195.7648
G1 X134.919 Y109.577 E195.7846
G1 X134.919 Y93.783 E196.5726
G1 X135.316 Y93.783 E196.5924
G1 X135.316 Y109.577 E197.3804
G1 X135.714 Y109.577 E197.4002
G1 X135.714 Y93.783 E198.1882
G1 X136.112 Y93.783 E198.2081
G1 X136.112 Y109.577 E198.9960
G1 X136.509 Y109.577 E199.0159
G1 X136.509 Y93.783 E199.8039
G1 X136.907 Y93.783 E199.8237
G1 X136.907 Y109.577 E200.6117
G1 X137.304 Y109.577 E200.6315
G1 X137.304 Y93.783 E201.4195
G1 X137.702 Y93.783 E201.4393
G1 X137.702 Y109.577 E202.2273
G1 X138.099 Y109.577 E202.2471
G1 X138.099 Y93.783 E203.0351
G1 X138.497 Y93.783 E203.0550
G1 X138.497 Y109.577 E203.8429
G1 X138.894 Y109.577 E203.8628
G1 X138.894 Y93.783 E204.6507
G1 X139.292 Y93.783 E204.6706
G1 X139.292 Y109.577 E205.4586
G1 X139.690 Y109.577 E205.4784
G1 X139.690 Y93.783 E206.2664
G1 X140.087 Y93.783 E206.2862
G1 X140.087 Y109.195 E207.0551
G1 X140.485 Y108.813 E207.0826
G1 X140.485 Y94.165 E207.8134
G1 X140.882 Y94.547 E207.8409
G1 X140.882 Y108.430 E208.5336
G1 X141.280 Y108.048 E208.5611
G1 X141.280 Y94.929 E209.2156
G1 X141.677 Y95.311 E209.2432
G1 X141.677 Y107.666 E209.8596
G1 X142.075 Y107.029 E209.8970
G1 X142.075 Y95.693 E210.4626
G0 F4800 E209.4626
G0 X142.473 Y98.241 F10800
G0 F4800 E210.4626
G1 X142.473 Y104.737 E210.7867 F3600
G0 F4800 E209.7867
G0 X83.633 Y114.290 F10800
G0 F4800 E210.7867
G1 X83.633 Y90.089 E211.9941 F3600
G1 X83.236 Y90.471 E212.0216
G1 X83.236 Y113.907 E213.1908
G0 F4800 E212.1908
G0 X84.031 Y119.894 F10800
G0 F4800 E213.1908
G1 X84.031 Y81.809 E215.0909 F3600
G0 F4800 E214.0909
G0 X82.838 Y98.241 F10800
G0 F4800 E215.0909
G1 X82.838 Y102.699 E215.3133 F3600



; ------------------------------------
; Raft Layer #3
; ------------------------------------
G21 ; mm
G90 ; abs
G92 E0 ; reset extr
M106 S0
;segType:Raft
G0 F4800 E-1.0000
G0 F300 Z1.200
G0 X98.290 Y109.903 F10800
G0 F4800 E0.0000
G1 X82.801 Y109.903 E0.7728 F3600
G1 X82.801 Y110.286 E0.7919
G1 X97.893 Y110.286 E1.5448
G1 X97.893 Y110.668 E1.5639
G1 X82.801 Y110.668 E2.3168
G1 X82.801 Y111.051 E2.3359
G1 X97.893 Y111.051 E3.0889
G1 X97.893 Y111.433 E3.1080
G1 X82.801 Y111.433 E3.8609
G1 X82.801 Y111.816 E3.8800
G1 X97.893 Y111.816 E4.6330
G1 X97.893 Y112.198 E4.6520
G1 X82.801 Y112.198 E5.4050
G1 X82.801 Y112.581 E5.4241
G1 X97.893 Y112.581 E6.1770
G1 X97.893 Y112.963 E6.1961
G1 X82.801 Y112.963 E6.9491
G1 X82.801 Y113.346 E6.9682
G1 X97.893 Y113.346 E7.7211
G1 X97.628 Y113.728 E7.7443
G1 X83.065 Y113.728 E8.4709
G1 X83.463 Y114.111 E8.4984
G1 X97.231 Y114.111 E9.1853
G1 X96.834 Y114.493 E9.2128
G1 X83.595 Y114.493 E9.8733
G1 X83.595 Y114.876 E9.8924
G1 X96.701 Y114.876 E10.5462
G1 X96.701 Y115.258 E10.5653
G1 X83.595 Y115.258 E11.2192
G1 X83.595 Y115.641 E11.2383
G1 X96.701 Y115.641 E11.8922
G1 X96.701 Y116.023 E11.9113
G1 X83.595 Y116.023 E12.5651
G1 X83.595 Y116.406 E12.5842
G1 X96.701 Y116.406 E13.2381
G1 X96.701 Y116.788 E13.2572
G1 X83.595 Y116.788 E13.9111
G1 X83.595 Y117.171 E13.9302
G1 X96.701 Y117.171 E14.5840
G1 X96.701 Y117.553 E14.6031
G1 X83.595 Y117.553 E15.2570
G1 X83.860 Y117.936 E15.2802
G1 X96.701 Y117.936 E15.9209
G1 X96.701 Y118.318 E15.9400
G1 X83.860 Y118.318 E16.5806
G1 X83.860 Y118.701 E16.5997
G1 X96.701 Y118.701 E17.2404
G1 X96.701 Y119.083 E17.2595
G1 X83.860 Y119.083 E17.9001
G1 X83.860 Y119.466 E17.9192
G1 X96.701 Y119.466 E18.5599
G1 X96.701 Y119.848 E18.5790
G1 X83.992 Y119.848 E19.2131
G1 X83.992 Y120.231 E19.2321
G1 X96.701 Y120.231 E19.8662
G1 X96.701 Y120.613 E19.8853
G1 X83.992 Y120.613 E20.5194
G1 X83.992 Y120.996 E20.5384
G1 X96.701 Y120.996 E21.1725
G1 X96.701 Y121.378 E21.1916
G1 X83.992 Y121.378 E21.8257
G1 X83.992 Y121.761 E21.8447
G1 X96.437 Y121.761 E22.4656
G1 X96.039 Y122.143 E22.4931
G1 X83.992 Y122.143 E23.0941
G1 X83.992 Y122.526 E23.1132
G1 X95.775 Y122.526 E23.7011
G1 X95.377 Y122.908 E23.7286
G1 X83.992 Y122.908 E24.2966
G1 X84.389 Y123.291 E24.3241
G1 X94.980 Y123.291 E24.8525
G1 X94.583 Y123.673 E24.8800
G1 X84.786 Y123.673 E25.3688
G1 X85.184 Y124.056 E25.3963
G1 X94.186 Y124.056 E25.8454
G1 X93.524 Y124.438 E25.8835
G1 X85.581 Y124.438 E26.2798
G1 X85.978 Y124.821 E26.3073
G1 X93.127 Y124.821 E26.6640
G0 F4800 E25.6640
G0 X101.203 Y109.521 F10800
G0 F4800 E26.6640
G1 X82.801 Y109.521 E27.5821 F3600
G1 X82.801 Y109.138 E27.6012
G1 X109.940 Y109.138 E28.9552
G1 X110.337 Y108.756 E28.9827
G1 X82.801 Y108.756 E30.3565
G1 X82.801 Y108.373 E30.3756
G1 X110.734 Y108.373 E31.7692
G1 X111.132 Y107.991 E31.7967
G1 X82.801 Y107.991 E33.2102
G1 X82.801 Y107.608 E33.2292
G1 X111.529 Y107.608 E34.6625
G1 X111.926 Y107.226 E34.6900
G1 X82.801 Y107.226 E36.1431
G1 X82.801 Y106.843 E36.1622
G1 X111.926 Y106.843 E37.6152
G1 X111.926 Y106.461 E37.6343
G1 X82.801 Y106.461 E39.0874
G1 X82.801 Y106.078 E39.1065
G1 X111.926 Y106.078 E40.5595
G1 X111.926 Y105.696 E40.5786
G1 X82.801 Y105.696 E42.0317
G1 X82.801 Y105.313 E42.0508
G1 X112.058 Y105.313 E43.5105
G1 X112.191 Y104.931 E43.5306
G1 X82.801 Y104.931 E44.9969
G1 X82.801 Y104.548 E45.0160
G1 X112.191 Y104.548 E46.4823
G1 X112.191 Y104.166 E46.5014
G1 X82.801 Y104.166 E47.9677
G1 X82.801 Y103.783 E47.9867
G1 X112.191 Y103.783 E49.4530
G1 X112.191 Y103.401 E49.4721
G1 X82.801 Y103.401 E50.9384
G1 X82.801 Y103.018 E50.9575
G1 X112.191 Y103.018 E52.4237
G1 X112.191 Y102.636 E52.4428
G1 X82.801 Y102.636 E53.9091
G1 X82.403 Y102.253 E53.9366
G1 X112.191 Y102.253 E55.4227
G1 X112.191 Y101.871 E55.4418
G1 X82.403 Y101.871 E56.9279
G1 X82.403 Y101.488 E56.9470
G1 X112.191 Y101.488 E58.4331
G1 X112.191 Y101.106 E58.4522
G1 X82.403 Y101.106 E59.9383
G1 X82.403 Y100.723 E59.9573
G1 X112.191 Y100.723 E61.4434
G1 X112.191 Y100.341 E61.4625
G1 X82.403 Y100.341 E62.9486
G1 X82.403 Y99.958 E62.9677
G1 X112.191 Y99.958 E64.4538
G1 X112.191 Y99.576 E64.4729
G1 X82.403 Y99.576 E65.9590
G1 X82.403 Y99.193 E65.9780
G1 X112.191 Y99.193 E67.4641
G1 X112.058 Y98.811 E67.4843
G1 X82.403 Y98.811 E68.9638
G1 X82.536 Y98.428 E68.9840
G1 X111.926 Y98.428 E70.4503
G1 X111.926 Y98.046 E70.4694
G1 X82.801 Y98.046 E71.9225
G1 X82.801 Y97.663 E71.9415
G1 X111.926 Y97.663 E73.3946
G1 X111.926 Y97.281 E73.4137
G1 X82.801 Y97.281 E74.8668
G1 X82.801 Y96.898 E74.8859
G1 X111.926 Y96.898 E76.3389
G1 X112.588 Y96.898 E76.3720
G1 X142.110 Y96.898 E77.8448
G1 X142.110 Y97.281 E77.8639
G1 X112.588 Y97.281 E79.3368
G1 X112.588 Y97.663 E79.3559
G1 X142.110 Y97.663 E80.8288
G1 X142.243 Y98.046 E80.8490
G1 X112.588 Y98.046 E82.3285
G1 X112.588 Y98.428 E82.3475
G1 X142.508 Y98.428 E83.8402
G1 X142.508 Y98.811 E83.8593
G1 X112.853 Y98.811 E85.3388
G1 X112.853 Y99.193 E85.3579
G1 X142.508 Y99.193 E86.8374
G1 X142.508 Y99.576 E86.8565
G1 X112.853 Y99.576 E88.3360
G1 X112.853 Y99.958 E88.3550
G1 X142.508 Y99.958 E89.8345
G1 X142.508 Y100.341 E89.8536
G1 X112.853 Y100.341 E91.3331
G1 X112.853 Y100.723 E91.3522
G1 X142.508 Y100.723 E92.8317
G1 X142.508 Y101.106 E92.8508
G1 X112.853 Y101.106 E94.3302
G1 X112.853 Y101.488 E94.3493
G1 X142.508 Y101.488 E95.8288
G1 X142.508 Y101.871 E95.8479
G1 X112.853 Y101.871 E97.3274
G1 X112.853 Y102.253 E97.3465
G1 X142.508 Y102.253 E98.8260
G1 X142.508 Y102.636 E98.8451
G1 X112.853 Y102.636 E100.3245
G1 X112.853 Y103.018 E100.3436
G1 X142.508 Y103.018 E101.8231
G1 X142.508 Y103.401 E101.8422
G1 X112.853 Y103.401 E103.3217
G1 X112.853 Y103.783 E103.3408
G1 X142.508 Y103.783 E104.8203
G1 X142.508 Y104.166 E104.8393
G1 X112.853 Y104.166 E106.3188
G1 X112.853 Y104.548 E106.3379
G1 X142.508 Y104.548 E107.8174
G1 X142.110 Y104.931 E107.8449
G1 X112.853 Y104.931 E109.3046
G1 X112.853 Y105.313 E109.3237
G1 X142.110 Y105.313 E110.7834
G1 X142.110 Y105.696 E110.8024
G1 X112.720 Y105.696 E112.2687
G1 X112.588 Y106.078 E112.2889
G1 X142.110 Y106.078 E113.7618
G1 X142.110 Y106.461 E113.7809
G1 X112.588 Y106.461 E115.2538
G1 X112.588 Y106.843 E115.2728
G1 X142.110 Y106.843 E116.7457
G1 X141.713 Y107.226 E116.7732
G1 X112.588 Y107.226 E118.2263
G1 X112.588 Y107.608 E118.2454
G1 X141.581 Y107.608 E119.6919
G1 X141.184 Y107.991 E119.7194
G1 X112.588 Y107.991 E121.1460
G1 X112.588 Y108.373 E121.1651
G1 X140.787 Y108.373 E122.5719
G1 X140.389 Y108.756 E122.5995
G1 X112.588 Y108.756 E123.9865
G1 X112.588 Y109.138 E124.0056
G1 X139.992 Y109.138 E125.3728
G0 F4800 E124.3728
G0 X125.032 Y124.056 F10800
G0 F4800 E125.3728
G1 X116.692 Y124.056 E125.7889 F3600
G1 X116.295 Y123.673 E125.8164
G1 X125.430 Y123.673 E126.2721
G1 X125.827 Y123.291 E126.2996
G1 X115.898 Y123.291 E126.7950
G1 X115.500 Y122.908 E126.8225
G1 X126.224 Y122.908 E127.3575
G1 X126.621 Y122.526 E127.3850
G1 X115.103 Y122.526 E127.9596
G1 X114.839 Y122.143 E127.9829
G1 X126.886 Y122.143 E128.5839
G1 X126.886 Y121.761 E128.6030
G1 X114.706 Y121.761 E129.2106
G1 X114.309 Y121.378 E129.2382
G1 X126.886 Y121.378 E129.8656
G1 X126.886 Y120.996 E129.8847
G1 X114.044 Y120.996 E130.5254
G1 X114.044 Y120.613 E130.5445
G1 X126.886 Y120.613 E131.1851
G1 X126.886 Y120.231 E131.2042
G1 X114.044 Y120.231 E131.8449
G1 X114.044 Y119.848 E131.8640
G1 X126.886 Y119.848 E132.5046
G1 X126.886 Y119.466 E132.5237
G1 X114.044 Y119.466 E133.1644
G1 X114.044 Y119.083 E133.1835
G1 X126.886 Y119.083 E133.8242
G1 X126.886 Y118.701 E133.8433
G1 X114.044 Y118.701 E134.4839
G1 X114.044 Y118.318 E134.5030
G1 X126.753 Y118.318 E135.1371
G1 X126.886 Y117.936 E135.1573
G1 X114.044 Y117.936 E135.7979
G1 X114.044 Y117.553 E135.8170
G1 X126.886 Y117.553 E136.4577
G1 X126.886 Y117.171 E136.4768
G1 X114.177 Y117.171 E137.1108
G1 X114.177 Y116.788 E137.1299
G1 X126.886 Y116.788 E137.7640
G1 X126.886 Y116.406 E137.7831
G1 X114.177 Y116.406 E138.4172
G1 X114.177 Y116.023 E138.4362
G1 X126.886 Y116.023 E139.0703
G1 X126.886 Y115.641 E139.0894
G1 X114.441 Y115.641 E139.7103
G1 X114.044 Y115.258 E139.7378
G1 X126.886 Y115.258 E140.3784
G1 X126.886 Y114.876 E140.3975
G1 X114.044 Y114.876 E141.0382
G1 X114.044 Y114.493 E141.0573
G1 X126.886 Y114.493 E141.6980
G1 X126.886 Y114.111 E141.7170
G1 X113.912 Y114.111 E142.3643
G1 X113.515 Y113.728 E142.3918
G1 X127.151 Y113.728 E143.0721
G1 X127.548 Y113.346 E143.0996
G1 X113.117 Y113.346 E143.8196
G1 X112.720 Y112.963 E143.8471
G1 X127.945 Y112.963 E144.6066
G1 X128.077 Y112.581 E144.6268
G1 X112.588 Y112.581 E145.3996
G1 X112.588 Y112.198 E145.4187
G1 X128.077 Y112.198 E146.1915
G1 X128.077 Y111.816 E146.2105
G1 X112.588 Y111.816 E146.9833
G1 X112.588 Y111.433 E147.0024
G1 X128.077 Y111.433 E147.7752
G1 X128.077 Y111.051 E147.7943
G1 X112.588 Y111.051 E148.5670
G1 X112.588 Y110.668 E148.5861
G1 X128.077 Y110.668 E149.3589
G1 X128.077 Y110.286 E149.3780
G1 X112.588 Y110.286 E150.1507
G1 X112.588 Y109.903 E150.1698
G1 X128.474 Y109.903 E150.9624
G1 X128.474 Y109.521 E150.9815
G1 X112.588 Y109.521 E151.7741
G0 F4800 E150.7741
G0 X109.411 Y94.603 F10800
G0 F4800 E151.7741
G1 X82.801 Y94.603 E153.1017 F3600
G1 X82.801 Y94.986 E153.1207
G1 X110.073 Y94.986 E154.4814
G1 X110.470 Y95.368 E154.5089
G1 X82.801 Y95.368 E155.8893
G1 X82.801 Y95.751 E155.9084
G1 X110.867 Y95.751 E157.3086
G1 X111.264 Y96.133 E157.3361
G1 X82.801 Y96.133 E158.7562
G1 X82.801 Y96.516 E158.7753
G1 X111.661 Y96.516 E160.2151
G1 X112.588 Y96.516 E160.2614
G1 X142.110 Y96.516 E161.7342
G1 X142.110 Y96.133 E161.7533
G1 X112.588 Y96.133 E163.2262
G1 X112.588 Y95.751 E163.2453
G1 X142.110 Y95.751 E164.7182
G1 X141.713 Y95.368 E164.7457
G1 X112.588 Y95.368 E166.1988
G1 X112.588 Y94.986 E166.2179
G1 X141.316 Y94.986 E167.6511
G1 X140.919 Y94.603 E167.6786
G1 X112.588 Y94.603 E169.0921
G1 X112.588 Y94.221 E169.1112
G1 X140.522 Y94.221 E170.5048
G1 X140.125 Y93.838 E170.5323
G1 X130.990 Y93.838 E170.9880
G1 X130.857 Y93.838 E170.9947
G1 X112.588 Y93.838 E171.9061
G1 X112.588 Y93.456 E171.9252
G1 X128.474 Y93.456 E172.7178
G1 X128.474 Y93.073 E172.7369
G1 X112.588 Y93.073 E173.5295
G1 X112.588 Y92.691 E173.5486
G1 X128.474 Y92.691 E174.3411
G1 X128.474 Y92.308 E174.3602
G1 X112.588 Y92.308 E175.1528
G1 X112.588 Y91.926 E175.1719
G1 X128.474 Y91.926 E175.9645
G1 X128.474 Y91.543 E175.9836
G1 X112.588 Y91.543 E176.7762
G1 X112.588 Y91.161 E176.7953
G1 X128.077 Y91.161 E177.5680
G1 X127.680 Y90.778 E177.5955
G1 X112.588 Y90.778 E178.3485
G1 X112.588 Y90.396 E178.3676
G1 X127.283 Y90.396 E179.1007
G1 X126.886 Y90.013 E179.1282
G1 X112.985 Y90.013 E179.8218
G1 X113.382 Y89.631 E179.8493
G1 X126.886 Y89.631 E180.5230
G1 X126.886 Y89.248 E180.5420
G1 X113.779 Y89.248 E181.1959
G1 X114.044 Y88.866 E181.2191
G1 X126.886 Y88.866 E181.8598
G1 X126.886 Y88.483 E181.8789
G1 X114.044 Y88.483 E182.5196
G1 X114.044 Y88.101 E182.5387
G1 X126.886 Y88.101 E183.1793
G1 X126.886 Y87.718 E183.1984
G1 X114.044 Y87.718 E183.8391
G1 X114.044 Y87.336 E183.8582
G1 X126.886 Y87.336 E184.4988
G1 X126.886 Y86.953 E184.5179
G1 X114.044 Y86.953 E185.1586
G1 X114.044 Y86.571 E185.1777
G1 X126.886 Y86.571 E185.8184
G1 X126.886 Y86.188 E185.8375
G1 X114.044 Y86.188 E186.4781
G1 X114.044 Y85.806 E186.4972
G1 X126.886 Y85.806 E187.1379
G1 X126.886 Y85.423 E187.1570
G1 X114.044 Y85.423 E187.7976
G1 X114.044 Y85.041 E187.8167
G1 X126.886 Y85.041 E188.4574
G1 X126.886 Y84.658 E188.4765
G1 X114.044 Y84.658 E189.1172
G1 X114.044 Y84.276 E189.1363
G1 X126.886 Y84.276 E189.7769
G1 X126.886 Y83.893 E189.7960
G1 X114.044 Y83.893 E190.4367
G1 X114.044 Y83.511 E190.4558
G1 X126.886 Y83.511 E191.0964
G1 X126.886 Y83.128 E191.1155
G1 X114.044 Y83.128 E191.7562
G1 X114.044 Y82.746 E191.7753
G1 X126.886 Y82.746 E192.4160
G1 X126.886 Y82.363 E192.4350
G1 X114.044 Y82.363 E193.0757
G1 X114.044 Y81.981 E193.0948
G1 X126.886 Y81.981 E193.7355
G1 X126.886 Y81.598 E193.7546
G1 X114.044 Y81.598 E194.3952
G1 X114.044 Y81.216 E194.4143
G1 X126.886 Y81.216 E195.0550
G1 X126.753 Y80.833 E195.0752
G1 X114.044 Y80.833 E195.7093
G1 X114.309 Y80.451 E195.7325
G1 X126.356 Y80.451 E196.3335
G1 X125.959 Y80.068 E196.3610
G1 X114.706 Y80.068 E196.9224
G1 X115.103 Y79.686 E196.9499
G1 X125.562 Y79.686 E197.4717
G1 X125.165 Y79.303 E197.4992
G1 X115.500 Y79.303 E197.9814
G1 X115.898 Y78.921 E198.0089
G1 X122.385 Y78.921 E198.3326
G0 F4800 E197.3326
G0 X100.938 Y94.221 F10800
G0 F4800 E198.3326
G1 X82.801 Y94.221 E199.2374 F3600
G1 X82.801 Y93.838 E199.2565
G1 X98.290 Y93.838 E200.0293
G1 X98.290 Y93.456 E200.0484
G1 X82.801 Y93.456 E200.8211
G1 X82.801 Y93.073 E200.8402
G1 X98.290 Y93.073 E201.6130
G1 X98.290 Y92.691 E201.6321
G1 X82.801 Y92.691 E202.4048
G1 X82.801 Y92.308 E202.4239
G1 X98.290 Y92.308 E203.1967
G1 X98.025 Y91.926 E203.2199
G1 X82.801 Y91.926 E203.9795
G1 X82.801 Y91.543 E203.9986
G1 X97.893 Y91.543 E204.7515
G1 X97.496 Y91.161 E204.7790
G1 X82.801 Y91.161 E205.5122
G1 X82.801 Y90.778 E205.5313
G1 X97.098 Y90.778 E206.2446
G1 X96.701 Y90.396 E206.2721
G1 X83.198 Y90.396 E206.9458
G1 X83.595 Y90.013 E206.9733
G1 X96.701 Y90.013 E207.6272
G1 X96.701 Y89.631 E207.6463
G1 X83.860 Y89.631 E208.2869
G1 X83.595 Y89.248 E208.3102
G1 X96.701 Y89.248 E208.9640
G1 X96.701 Y88.866 E208.9831
G1 X83.595 Y88.866 E209.6370
G1 X83.595 Y88.483 E209.6561
G1 X96.701 Y88.483 E210.3100
G1 X96.701 Y88.101 E210.3291
G1 X83.595 Y88.101 E210.9830
G1 X83.595 Y87.718 E211.0021
G1 X96.701 Y87.718 E211.6559
G1 X96.701 Y87.336 E211.6750
G1 X83.595 Y87.336 E212.3289
G1 X83.595 Y86.953 E212.3480
G1 X96.701 Y86.953 E213.0019
G1 X96.701 Y86.571 E213.0210
G1 X83.595 Y86.571 E213.6749
G1 X83.595 Y86.188 E213.6940
G1 X96.569 Y86.188 E214.3412
G1 X96.304 Y85.806 E214.3644
G1 X83.595 Y85.806 E214.9985
G1 X83.595 Y85.423 E215.0176
G1 X96.304 Y85.423 E215.6517
G1 X96.304 Y85.041 E215.6707
G1 X83.595 Y85.041 E216.3048
G1 X83.595 Y84.658 E216.3239
G1 X96.304 Y84.658 E216.9580
G1 X96.039 Y84.276 E216.9812
G1 X83.595 Y84.276 E217.6020
G1 X83.595 Y83.893 E217.6211
G1 X96.039 Y83.893 E218.2420
G1 X96.039 Y83.511 E218.2611
G1 X83.595 Y83.511 E218.8819
G1 X83.595 Y83.128 E218.9010
G1 X96.039 Y83.128 E219.5219
G1 X96.039 Y82.746 E219.5410
G1 X83.595 Y82.746 E220.1618
G1 X83.595 Y82.363 E220.1809
G1 X96.039 Y82.363 E220.8018
G1 X96.039 Y81.981 E220.8209
G1 X83.727 Y81.981 E221.4351
G1 X83.992 Y81.598 E221.4584
G1 X95.642 Y81.598 E222.0396
G1 X95.245 Y81.216 E222.0671
G1 X84.124 Y81.216 E222.6219
G1 X84.522 Y80.833 E222.6494
G1 X94.848 Y80.833 E223.1646
G1 X94.451 Y80.451 E223.1921
G1 X84.919 Y80.451 E223.6677
G1 X85.316 Y80.068 E223.6952
G1 X94.054 Y80.068 E224.1311
G1 X92.994 Y79.686 E224.1873
G1 X85.713 Y79.686 E224.5505



; ------------------------------------
; Raft Layer #4
; ------------------------------------
G21 ; mm
G90 ; abs
G92 E0 ; reset extr
M106 S255
;segType:Raft
G0 F4800 E-1.0000
G0 F300 Z1.500
G0 X84.031 Y81.809 F10800
G0 F4800 E0.0000
G1 X84.031 Y119.894 E1.9000 F3600
G0 F4800 E0.9000
G0 X84.429 Y123.333 F10800
G0 F4800 E1.9000
G1 X84.429 Y81.045 E4.0098 F3600
G1 X84.826 Y80.663 E4.0373
G1 X84.826 Y123.715 E6.1852
G1 X85.224 Y124.097 E6.2127
G1 X85.224 Y80.281 E8.3987
G1 X85.621 Y79.899 E8.4262
G1 X85.621 Y124.479 E10.6503
G1 X86.019 Y124.862 E10.6778
G1 X86.019 Y79.517 E12.9401
G1 X86.416 Y79.389 E12.9609
G1 X86.416 Y124.989 E15.2359
G1 X86.814 Y124.989 E15.2557
G1 X86.814 Y79.389 E17.5307
G1 X87.212 Y79.389 E17.5505
G1 X87.212 Y124.989 E19.8255
G1 X87.609 Y124.989 E19.8453
G1 X87.609 Y79.389 E22.1203
G1 X88.007 Y79.389 E22.1401
G1 X88.007 Y124.989 E24.4151
G1 X88.404 Y124.989 E24.4349
G1 X88.404 Y79.389 E26.7099
G1 X88.802 Y79.389 E26.7298
G1 X88.802 Y124.989 E29.0047
G1 X89.199 Y124.989 E29.0246
G1 X89.199 Y79.389 E31.2995
G1 X89.597 Y79.389 E31.3194
G1 X89.597 Y124.989 E33.5943
G1 X89.994 Y124.989 E33.6142
G1 X89.994 Y79.389 E35.8891
G1 X90.392 Y79.389 E35.9090
G1 X90.392 Y124.989 E38.1839
G1 X90.790 Y124.989 E38.2038
G1 X90.790 Y79.389 E40.4787
G1 X91.187 Y79.389 E40.4986
G1 X91.187 Y124.989 E42.7735
G1 X91.585 Y124.989 E42.7934
G1 X91.585 Y79.389 E45.0683
G1 X91.982 Y79.389 E45.0882
G1 X91.982 Y124.989 E47.3631
G1 X92.380 Y124.989 E47.3830
G1 X92.380 Y79.389 E49.6579
G1 X92.777 Y79.389 E49.6778
G1 X92.777 Y124.989 E51.9527
G1 X93.175 Y124.989 E51.9726
G1 X93.175 Y79.772 E54.2285
G1 X93.573 Y80.026 E54.2520
G1 X93.573 Y124.607 E56.4762
G1 X93.970 Y124.352 E56.4997
G1 X93.970 Y80.026 E58.7111
G1 X94.368 Y80.281 E58.7347
G1 X94.368 Y124.097 E60.9207
G1 X94.765 Y123.715 E60.9482
G1 X94.765 Y80.663 E63.0961
G1 X95.163 Y81.045 E63.1236
G1 X95.163 Y123.333 E65.2333
G1 X95.560 Y122.951 E65.2609
G1 X95.560 Y81.427 E67.3325
G1 X95.958 Y81.809 E67.3600
G1 X95.958 Y122.569 E69.3935
G1 X96.355 Y122.059 E69.4257
G1 X96.355 Y84.484 E71.3003
G1 X96.753 Y86.268 E71.3915
G1 X96.753 Y121.677 E73.1581
G0 F4800 E72.1581
G0 X97.151 Y114.417 F10800
G0 F4800 E73.1581
G1 X97.151 Y90.726 E74.3401 F3600
G1 X97.548 Y91.108 E74.3676
G1 X97.548 Y114.035 E75.5114
G1 X97.946 Y113.653 E75.5389
G1 X97.946 Y91.490 E76.6446
G1 X98.343 Y92.127 E76.6821
G1 X98.343 Y110.086 E77.5781
G1 X98.741 Y109.959 E77.5989
G1 X98.741 Y94.165 E78.3869
G1 X99.138 Y94.165 E78.4067
G1 X99.138 Y109.959 E79.1947
G1 X99.536 Y109.959 E79.2145
G1 X99.536 Y94.165 E80.0025
G1 X99.934 Y94.165 E80.0224
G1 X99.934 Y109.959 E80.8103
G1 X100.331 Y109.959 E80.8302
G1 X100.331 Y94.165 E81.6182
G1 X100.729 Y94.165 E81.6380
G1 X100.729 Y109.959 E82.4260
G1 X101.126 Y109.832 E82.4468
G1 X101.126 Y94.292 E83.2221
G1 X101.524 Y94.419 E83.2429
G1 X101.524 Y109.577 E83.9991
G1 X101.921 Y109.577 E84.0189
G1 X101.921 Y94.419 E84.7751
G1 X102.319 Y94.419 E84.7950
G1 X102.319 Y109.577 E85.5512
G1 X102.716 Y109.577 E85.5710
G1 X102.716 Y94.419 E86.3272
G1 X103.114 Y94.419 E86.3471
G1 X103.114 Y109.577 E87.1033
G1 X103.512 Y109.577 E87.1231
G1 X103.512 Y94.419 E87.8793
G1 X103.909 Y94.419 E87.8991
G1 X103.909 Y109.577 E88.6553
G1 X104.307 Y109.577 E88.6752
G1 X104.307 Y94.419 E89.4314
G1 X104.704 Y94.419 E89.4512
G1 X104.704 Y109.577 E90.2074
G1 X105.102 Y109.577 E90.2273
G1 X105.102 Y94.419 E90.9835
G1 X105.499 Y94.419 E91.0033
G1 X105.499 Y109.577 E91.7595
G1 X105.897 Y109.577 E91.7793
G1 X105.897 Y94.419 E92.5355
G1 X106.295 Y94.419 E92.5554
G1 X106.295 Y109.577 E93.3116
G1 X106.692 Y109.449 E93.3324
G1 X106.692 Y94.419 E94.0822
G1 X107.090 Y94.419 E94.1021
G1 X107.090 Y109.322 E94.8456
G1 X107.487 Y109.322 E94.8654
G1 X107.487 Y94.419 E95.6089
G1 X107.885 Y94.419 E95.6287
G1 X107.885 Y109.322 E96.3722
G1 X108.282 Y109.322 E96.3921
G1 X108.282 Y94.419 E97.1356
G1 X108.680 Y94.419 E97.1554
G1 X108.680 Y109.322 E97.8989
G1 X109.077 Y109.322 E97.9187
G1 X109.077 Y94.419 E98.6622
G1 X109.475 Y94.547 E98.6830
G1 X109.475 Y109.322 E99.4202
G1 X109.873 Y109.322 E99.4400
G1 X109.873 Y94.802 E100.1645
G1 X110.270 Y95.056 E100.1880
G1 X110.270 Y109.067 E100.8870
G1 X110.668 Y108.685 E100.9145
G1 X110.668 Y95.438 E101.5754
G1 X111.065 Y95.821 E101.6029
G1 X111.065 Y108.303 E102.2257
G1 X111.463 Y107.794 E102.2579
G1 X111.463 Y96.330 E102.8299
G1 X111.860 Y96.712 E102.8574
G1 X111.860 Y107.411 E103.3912
G1 X112.655 Y105.883 E103.4771
G1 X112.655 Y113.016 E103.8330
G1 X113.053 Y113.398 E103.8605
G1 X113.053 Y89.961 E105.0298
G1 X113.451 Y89.579 E105.0573
G1 X113.451 Y113.780 E106.2647
G1 X113.848 Y114.162 E106.2922
G1 X113.848 Y89.197 E107.5377
G1 X112.655 Y90.343 E107.6202
G1 X112.655 Y98.495 E108.0269
G0 F4800 E107.0269
G0 X114.246 Y115.563 F10800
G0 F4800 E108.0269
G1 X114.246 Y80.536 E109.7744 F3600
G1 X114.643 Y80.154 E109.8020
G1 X114.643 Y121.805 E111.8799
G1 X114.246 Y121.422 E111.9074
G1 X114.246 Y115.945 E112.1807
G0 F4800 E111.1807
G0 X115.041 Y122.569 F10800
G0 F4800 E112.1807
G1 X115.041 Y79.772 E114.3158 F3600
G1 X115.438 Y79.389 E114.3434
G1 X115.438 Y122.951 E116.5167
G1 X115.836 Y123.333 E116.5442
G1 X115.836 Y79.007 E118.7556
G1 X116.234 Y78.753 E118.7792
G1 X116.234 Y123.715 E121.0223
G1 X116.631 Y124.097 E121.0499
G1 X116.631 Y78.753 E123.3121
G1 X117.029 Y78.625 E123.3329
G1 X117.029 Y124.352 E125.6143
G1 X117.426 Y124.352 E125.6341
G1 X117.426 Y78.625 E127.9154
G1 X117.824 Y78.625 E127.9353
G1 X117.824 Y124.352 E130.2166
G1 X118.221 Y124.352 E130.2364
G1 X118.221 Y78.625 E132.5178
G1 X118.619 Y78.625 E132.5376
G1 X118.619 Y124.352 E134.8189
G1 X119.016 Y124.352 E134.8388
G1 X119.016 Y78.625 E137.1201
G1 X119.414 Y78.625 E137.1399
G1 X119.414 Y124.352 E139.4212
G1 X119.812 Y124.352 E139.4411
G1 X119.812 Y78.625 E141.7224
G1 X120.209 Y78.625 E141.7422
G1 X120.209 Y124.352 E144.0236
G1 X120.607 Y124.352 E144.0434
G1 X120.607 Y78.625 E146.3247
G1 X121.004 Y78.625 E146.3446
G1 X121.004 Y124.352 E148.6259
G1 X121.402 Y124.352 E148.6457
G1 X121.402 Y78.625 E150.9271
G1 X121.799 Y78.625 E150.9469
G1 X121.799 Y124.352 E153.2282
G1 X122.197 Y124.352 E153.2481
G1 X122.197 Y78.753 E155.5230
G1 X122.595 Y79.007 E155.5466
G1 X122.595 Y124.352 E157.8088
G1 X122.992 Y124.352 E157.8287
G1 X122.992 Y79.007 E160.0909
G1 X123.390 Y79.007 E160.1108
G1 X123.390 Y124.352 E162.3730
G1 X123.787 Y124.352 E162.3928
G1 X123.787 Y79.007 E164.6551
G1 X124.185 Y79.007 E164.6749
G1 X124.185 Y124.352 E166.9372
G1 X124.582 Y124.352 E166.9570
G1 X124.582 Y79.007 E169.2193
G1 X124.980 Y79.135 E169.2401
G1 X124.980 Y124.225 E171.4897
G1 X125.377 Y123.843 E171.5172
G1 X125.377 Y79.517 E173.7286
G1 X125.775 Y79.899 E173.7561
G1 X125.775 Y123.460 E175.9294
G1 X126.173 Y123.078 E175.9569
G1 X126.173 Y80.281 E178.0921
G1 X126.570 Y80.663 E178.1196
G1 X126.570 Y122.696 E180.2166
G0 F4800 E179.2166
G0 X126.968 Y114.035 F10800
G0 F4800 E180.2166
G1 X126.968 Y90.089 E181.4113 F3600
G1 X127.365 Y90.471 E181.4388
G1 X127.365 Y113.653 E182.5954
G1 X127.763 Y113.271 E182.6229
G1 X127.763 Y90.853 E183.7413
G1 X128.160 Y91.235 E183.7688
G1 X128.160 Y110.341 E184.7220
G1 X128.558 Y109.577 E184.7650
G1 X128.558 Y93.783 E185.5530
G1 X128.955 Y93.783 E185.5728
G1 X128.955 Y109.577 E186.3608
G1 X129.353 Y109.577 E186.3806
G1 X129.353 Y93.783 E187.1686
G1 X129.751 Y93.783 E187.1884
G1 X129.751 Y109.577 E187.9764
G1 X130.148 Y109.577 E187.9963
G1 X130.148 Y93.783 E188.7842
G1 X130.546 Y93.783 E188.8041
G1 X130.546 Y109.577 E189.5920
G1 X130.943 Y109.577 E189.6119
G1 X130.943 Y93.910 E190.3935
G1 X131.341 Y93.783 E190.4143
G1 X131.341 Y109.577 E191.2023
G1 X131.738 Y109.577 E191.2221
G1 X131.738 Y93.783 E192.0101
G1 X132.136 Y93.783 E192.0300
G1 X132.136 Y109.577 E192.8179
G1 X132.534 Y109.577 E192.8378
G1 X132.534 Y93.783 E193.6258
G1 X132.931 Y93.783 E193.6456
G1 X132.931 Y109.577 E194.4336
G1 X133.329 Y109.577 E194.4534
G1 X133.329 Y93.783 E195.2414
G1 X133.726 Y93.783 E195.2612
G1 X133.726 Y109.577 E196.0492
G1 X134.124 Y109.577 E196.0690
G1 X134.124 Y93.783 E196.8570
G1 X134.521 Y93.783 E196.8769
G1 X134.521 Y109.577 E197.6648
G1 X134.919 Y109.577 E197.6847
G1 X134.919 Y93.783 E198.4726
G1 X135.316 Y93.783 E198.4925
G1 X135.316 Y109.577 E199.2805
G1 X135.714 Y109.577 E199.3003
G1 X135.714 Y93.783 E200.0883
G1 X136.112 Y93.783 E200.1081
G1 X136.112 Y109.577 E200.8961
G1 X136.509 Y109.577 E200.9159
G1 X136.509 Y93.783 E201.7039
G1 X136.907 Y93.783 E201.7237
G1 X136.907 Y109.577 E202.5117
G1 X137.304 Y109.577 E202.5316
G1 X137.304 Y93.783 E203.3195
G1 X137.702 Y93.783 E203.3394
G1 X137.702 Y109.577 E204.1274
G1 X138.099 Y109.577 E204.1472
G1 X138.099 Y93.783 E204.9352
G1 X138.497 Y93.783 E204.9550
G1 X138.497 Y109.577 E205.7430
G1 X138.894 Y109.577 E205.7628
G1 X138.894 Y93.783 E206.5508
G1 X139.292 Y93.783 E206.5706
G1 X139.292 Y109.577 E207.3586
G1 X139.690 Y109.577 E207.3785
G1 X139.690 Y93.783 E208.1664
G1 X140.087 Y93.783 E208.1863
G1 X140.087 Y109.195 E208.9552
G1 X140.485 Y108.813 E208.9827
G1 X140.485 Y94.165 E209.7135
G1 X140.882 Y94.547 E209.7410
G1 X140.882 Y108.430 E210.4337
G1 X141.280 Y108.048 E210.4612
G1 X141.280 Y94.929 E211.1157
G1 X141.677 Y95.311 E211.1432
G1 X141.677 Y107.666 E211.7596
G1 X142.075 Y107.029 E211.7971
G1 X142.075 Y95.693 E212.3627
G0 F4800 E211.3627
G0 X142.473 Y98.241 F10800
G0 F4800 E212.3627
G1 X142.473 Y104.737 E212.6867 F3600
G0 F4800 E211.6867
G0 X83.633 Y114.290 F10800
G0 F4800 E212.6867
G1 X83.633 Y90.089 E213.8941 F3600
G1 X83.236 Y90.471 E213.9216
G1 X83.236 Y113.907 E215.0909
G0 F4800 E214.0909
G0 X82.838 Y102.699 F10800
G0 F4800 E215.0909
G1 X82.838 Y98.241 E215.3133 F3600


; ------------------------------------
; Layer #0
; ------------------------------------
G21 ; mm
G90 ; abs
G92 E0 ; reset extr
M106 S255
;segType:Support
G0 F4800 E-1.0000
G0 F300 Z1.950
G0 X86.200 Y99.100 F10800
G0 F4800 E0.0000
G1 X86.300 Y99.100 E0.0028 F900
G1 X86.200 Y99.200 E0.0068
G1 X86.300 Y99.200 E0.0097
G0 F4800 E-0.9903
G0 X86.500 Y100.300 F10800
G0 F4800 E0.0097
G1 X86.400 Y100.300 E0.0125 F900
G1 X86.400 Y100.400 E0.0153
G1 X86.500 Y100.400 E0.0181
G0 X86.900 Y101.300 F10800
G1 X86.800 Y101.300 E0.0210 F900
G1 X86.900 Y101.400 E0.0250
G1 X86.800 Y101.400 E0.0278
G0 X86.300 Y101.900 F10800
G1 X86.200 Y101.900 E0.0306 F900
G1 X86.300 Y102.000 E0.0346
G1 X86.200 Y102.000 E0.0374
G0 X86.800 Y102.500 F10800
G1 X86.900 Y102.500 E0.0403 F900
G1 X86.900 Y102.600 E0.0431
G1 X86.800 Y102.600 E0.0459
G0 X86.900 Y103.500 F10800
G1 X86.800 Y103.500 E0.0487 F900
G1 X86.800 Y103.600 E0.0516
G1 X86.900 Y103.600 E0.0544
G0 X87.600 Y104.100 F10800
G1 X87.700 Y104.100 E0.0572 F900
G1 X87.700 Y104.200 E0.0601
G1 X87.600 Y104.200 E0.0629
G0 X86.800 Y104.500 F10800
G1 X86.900 Y104.500 E0.0657 F900
G1 X86.800 Y104.600 E0.0697
G1 X86.900 Y104.600 E0.0725
G0 X87.700 Y105.100 F10800
G1 X87.600 Y105.100 E0.0754 F900
G1 X87.600 Y105.200 E0.0782
G1 X87.700 Y105.200 E0.0810
G0 X87.600 Y106.100 F10800
G1 X87.700 Y106.100 E0.0838 F900
G1 X87.700 Y106.200 E0.0867
G1 X87.600 Y106.200 E0.0895
G0 X87.700 Y107.100 F10800
G1 X87.600 Y107.100 E0.0923 F900
G1 X87.600 Y107.200 E0.0951
G1 X87.700 Y107.200 E0.0980
G0 F4800 E-0.9020
G0 X86.900 Y105.500 F10800
G0 F4800 E0.0980
G1 X86.800 Y105.500 E0.1008 F900
G1 X86.800 Y105.600 E0.1036
G1 X86.900 Y105.600 E0.1065
G0 X86.800 Y106.500 F10800
G1 X86.900 Y106.500 E0.1093 F900
G1 X86.900 Y106.600 E0.1121
G1 X86.800 Y106.600 E0.1149
G0 X86.800 Y107.500 F10800
G1 X86.900 Y107.500 E0.1178 F900
G1 X86.900 Y107.600 E0.1206
G1 X86.800 Y107.600 E0.1234
G0 X87.600 Y108.100 F10800
G1 X87.700 Y108.100 E0.1262 F900
G1 X87.700 Y108.200 E0.1291
G1 X87.600 Y108.200 E0.1319
G0 X86.900 Y108.500 F10800
G1 X86.800 Y108.500 E0.1347 F900
G1 X86.800 Y108.600 E0.1376
G1 X86.900 Y108.600 E0.1404
G0 F4800 E-0.8596
G0 X87.700 Y109.200 F10800
G0 F4800 E0.1404
G1 X87.600 Y109.200 E0.1432 F900
G1 X87.600 Y109.100 E0.1460
G1 X87.700 Y109.100 E0.1489
G0 X86.900 Y109.500 F10800
G1 X86.800 Y109.500 E0.1517 F900
G1 X86.800 Y109.600 E0.1545
G1 X86.900 Y109.600 E0.1573
G0 X87.600 Y110.100 F10800
G1 X87.700 Y110.100 E0.1602 F900
G1 X87.700 Y110.200 E0.1630
G1 X87.600 Y110.200 E0.1658
G0 X86.900 Y110.500 F10800
G1 X86.800 Y110.500 E0.1686 F900
G1 X86.800 Y110.600 E0.1715
G1 X86.900 Y110.600 E0.1743
G0 X87.600 Y111.200 F10800
G1 X87.700 Y111.200 E0.1771 F900
G1 X87.700 Y111.100 E0.1800
G1 X87.600 Y111.100 E0.1828
G0 X86.900 Y111.600 F10800
G1 X86.800 Y111.600 E0.1856 F900
G1 X86.800 Y111.500 E0.1884
G1 X86.900 Y111.500 E0.1913
G0 F4800 E-0.8087
G0 X87.700 Y112.500 F10800
G0 F4800 E0.1913
G1 X87.600 Y112.500 E0.1941 F900
G1 X87.600 Y112.600 E0.1969
G1 X87.700 Y112.600 E0.1997
G0 X88.000 Y113.200 F10800
G1 X88.100 Y113.200 E0.2026 F900
G1 X88.100 Y113.100 E0.2054
G1 X88.000 Y113.100 E0.2082
G0 X88.400 Y112.400 F10800
G1 X88.500 Y112.400 E0.2111 F900
G1 X88.400 Y112.300 E0.2151
G1 X88.500 Y112.300 E0.2179
G0 X89.400 Y112.200 F10800
G1 X89.500 Y112.200 E0.2207 F900
G0 X90.000 Y112.700 F10800
G1 X90.100 Y112.700 E0.2235 F900
G1 X90.000 Y112.800 E0.2275
G1 X90.100 Y112.800 E0.2304
G0 X90.600 Y113.300 F10800
G1 X90.700 Y113.300 E0.2332 F900
G0 X91.100 Y112.400 F10800
G1 X91.000 Y112.400 E0.2360 F900
G1 X91.000 Y112.300 E0.2388
G1 X91.100 Y112.300 E0.2417
G0 F4800 E-0.7583
G0 X91.600 Y113.300 F10800
G0 F4800 E0.2417
G1 X91.700 Y113.300 E0.2445 F900
G1 X91.700 Y113.400 E0.2473
G1 X91.600 Y113.400 E0.2501
G0 X90.700 Y113.400 F10800
G1 X90.600 Y113.400 E0.2530 F900
G0 F4800 E-0.7470
G0 X89.700 Y114.100 F10800
G0 F4800 E0.2530
G1 X89.600 Y114.100 E0.2558 F900
G0 X89.100 Y113.600 F10800
G1 X89.000 Y113.600 E0.2586 F900
G1 X89.100 Y113.500 E0.2626
G1 X89.000 Y113.500 E0.2655
G0 F4800 E-0.7345
G0 X87.900 Y113.900 F10800
G0 F4800 E0.2655
G1 X87.800 Y113.900 E0.2683 F900
G1 X87.800 Y114.000 E0.2711
G1 X87.900 Y114.000 E0.2739
G0 X87.600 Y114.700 F10800
G1 X87.700 Y114.700 E0.2768 F900
G1 X87.700 Y114.800 E0.2796
G1 X87.600 Y114.800 E0.2824
G0 X87.600 Y115.700 F10800
G1 X87.700 Y115.700 E0.2852 F900
G1 X87.700 Y115.800 E0.2881
G1 X87.600 Y115.800 E0.2909
G0 X87.800 Y116.500 F10800
G1 X87.900 Y116.500 E0.2937 F900
G1 X87.800 Y116.600 E0.2977
G1 X87.900 Y116.600 E0.3006
G0 X88.300 Y117.100 F10800
G1 X88.200 Y117.100 E0.3034 F900
G1 X88.200 Y117.200 E0.3062
G1 X88.300 Y117.200 E0.3090
G0 X88.800 Y117.500 F10800
G1 X88.900 Y117.500 E0.3119 F900
G1 X88.900 Y117.600 E0.3147
G1 X88.800 Y117.600 E0.3175
G0 X87.900 Y117.700 F10800
G1 X87.800 Y117.700 E0.3203 F900
G1 X87.800 Y117.800 E0.3232
G1 X87.900 Y117.800 E0.3260
G0 X88.000 Y118.700 F10800
G1 X88.100 Y118.700 E0.3288 F900
G1 X88.100 Y118.800 E0.3316
G1 X88.000 Y118.800 E0.3345
G0 X88.000 Y119.700 F10800
G1 X88.100 Y119.700 E0.3373 F900
G1 X88.000 Y119.800 E0.3413
G1 X88.100 Y119.800 E0.3441
G0 X88.400 Y120.300 F10800
G1 X88.500 Y120.300 E0.3470 F900
G1 X88.500 Y120.400 E0.3498
G1 X88.400 Y120.400 E0.3526
G0 X88.000 Y120.900 F10800
G1 X88.100 Y120.900 E0.3554 F900
G1 X88.000 Y121.000 E0.3594
G1 X88.100 Y121.000 E0.3623
G0 X89.000 Y121.000 F10800
G1 X89.100 Y121.000 E0.3651 F900
G1 X89.000 Y120.900 E0.3691
G1 X89.100 Y120.900 E0.3719
G0 X89.500 Y120.400 F10800
G1 X89.400 Y120.400 E0.3747 F900
G1 X89.400 Y120.300 E0.3776
G1 X89.500 Y120.300 E0.3804
G0 X90.000 Y121.000 F10800
G1 X90.100 Y121.000 E0.3832 F900
G1 X90.000 Y120.900 E0.3872
G1 X90.100 Y120.900 E0.3900
G0 X90.600 Y120.300 F10800
G1 X90.700 Y120.300 E0.3929 F900
G1 X90.700 Y120.400 E0.3957
G1 X90.600 Y120.400 E0.3985
G0 X91.000 Y120.900 F10800
G1 X91.100 Y120.900 E0.4014 F900
G1 X91.000 Y121.000 E0.4054
G1 X91.100 Y121.000 E0.4082
G0 F4800 E-0.5918
G0 X92.400 Y121.000 F10800
G0 F4800 E0.4082
G1 X92.500 Y121.000 E0.4110 F900
G1 X92.500 Y120.900 E0.4138
G1 X92.400 Y120.900 E0.4167
G0 X92.100 Y120.400 F10800
G1 X92.000 Y120.400 E0.4195 F900
G1 X92.000 Y120.300 E0.4223
G1 X92.100 Y120.300 E0.4251
G0 X92.600 Y119.600 F10800
G1 X92.700 Y119.600 E0.4280 F900
G1 X92.700 Y119.500 E0.4308
G1 X92.600 Y119.500 E0.4336
G0 X91.700 Y119.700 F10800
G1 X91.600 Y119.700 E0.4364 F900
G1 X91.700 Y119.800 E0.4404
G1 X91.600 Y119.800 E0.4433
G0 X91.100 Y119.200 F10800
G1 X91.000 Y119.200 E0.4461 F900
G1 X91.100 Y119.100 E0.4501
G1 X91.000 Y119.100 E0.4529
G0 X91.400 Y118.500 F10800
G1 X91.500 Y118.500 E0.4558 F900
G1 X91.400 Y118.600 E0.4598
G1 X91.500 Y118.600 E0.4626
G0 X92.000 Y118.100 F10800
G1 X92.100 Y118.100 E0.4654 F900
G1 X92.100 Y118.200 E0.4682
G1 X92.000 Y118.200 E0.4711
G0 X92.100 Y119.100 F10800
G1 X92.000 Y119.100 E0.4739 F900
G1 X92.000 Y119.200 E0.4767
G1 X92.100 Y119.200 E0.4795
G0 X92.700 Y118.600 F10800
G1 X92.600 Y118.600 E0.4824 F900
G1 X92.600 Y118.500 E0.4852
G1 X92.700 Y118.500 E0.4880
G0 X92.600 Y117.600 F10800
G1 X92.700 Y117.600 E0.4908 F900
G1 X92.700 Y117.500 E0.4937
G1 X92.600 Y117.500 E0.4965
G0 X92.100 Y117.200 F10800
G1 X92.000 Y117.200 E0.4993 F900
G0 X91.500 Y117.500 F10800
G1 X91.400 Y117.500 E0.5022 F900
G1 X91.500 Y117.600 E0.5062
G1 X91.400 Y117.600 E0.5090
G0 X90.900 Y117.200 F10800
G1 X90.800 Y117.200 E0.5118 F900
G1 X90.900 Y117.100 E0.5158
G1 X90.800 Y117.100 E0.5186
G0 X91.400 Y116.600 F10800
G1 X91.500 Y116.600 E0.5215 F900
G1 X91.500 Y116.500 E0.5243
G1 X91.400 Y116.500 E0.5271
G0 X90.900 Y116.200 F10800
G1 X90.800 Y116.200 E0.5299 F900
G1 X90.800 Y116.100 E0.5328
G1 X90.900 Y116.100 E0.5356
G0 F4800 E-0.4644
G0 X91.100 Y115.000 F10800
G0 F4800 E0.5356
G1 X91.000 Y115.000 E0.5384 F900
G1 X91.100 Y114.900 E0.5424
G1 X91.000 Y114.900 E0.5452
G0 X90.300 Y115.100 F10800
G1 X90.200 Y115.100 E0.5481 F900
G1 X90.300 Y115.200 E0.5521
G1 X90.200 Y115.200 E0.5549
G0 X89.700 Y115.700 F10800
G1 X89.600 Y115.700 E0.5577 F900
G1 X89.600 Y115.800 E0.5606
G1 X89.700 Y115.800 E0.5634
G0 X90.200 Y116.500 F10800
G1 X90.300 Y116.500 E0.5662 F900
G1 X90.200 Y116.600 E0.5702
G1 X90.300 Y116.600 E0.5730
G0 F4800 E-0.4270
G0 X90.100 Y117.700 F10800
G0 F4800 E0.5730
G1 X90.000 Y117.700 E0.5759 F900
G1 X90.000 Y117.800 E0.5787
G1 X90.100 Y117.800 E0.5815
G0 X90.800 Y118.100 F10800
G1 X90.900 Y118.100 E0.5843 F900
G1 X90.900 Y118.200 E0.5872
G1 X90.800 Y118.200 E0.5900
G0 X90.100 Y118.700 F10800
G1 X90.000 Y118.700 E0.5928 F900
G1 X90.100 Y118.800 E0.5968
G1 X90.000 Y118.800 E0.5996
G0 X90.100 Y119.700 F10800
G1 X90.000 Y119.700 E0.6025 F900
G1 X90.000 Y119.800 E0.6053
G1 X90.100 Y119.800 E0.6081
G0 F4800 E-0.3919
G0 X89.000 Y119.800 F10800
G0 F4800 E0.6081
G1 X89.100 Y119.800 E0.6110 F900
G1 X89.100 Y119.700 E0.6138
G1 X89.000 Y119.700 E0.6166
G0 X88.900 Y119.000 F10800
G1 X88.800 Y119.000 E0.6194 F900
G1 X88.800 Y118.900 E0.6223
G1 X88.900 Y118.900 E0.6251
G0 X89.200 Y118.200 F10800
G1 X89.300 Y118.200 E0.6279 F900
G1 X89.300 Y118.100 E0.6307
G1 X89.200 Y118.100 E0.6336
G0 X89.500 Y117.200 F10800
G1 X89.400 Y117.200 E0.6364 F900
G1 X89.400 Y117.100 E0.6392
G1 X89.500 Y117.100 E0.6421
G0 X89.100 Y116.600 F10800
G1 X89.000 Y116.600 E0.6449 F900
G1 X89.100 Y116.500 E0.6489
G1 X89.000 Y116.500 E0.6517
G0 X88.700 Y116.000 F10800
G1 X88.600 Y116.000 E0.6545 F900
G1 X88.700 Y115.900 E0.6585
G1 X88.600 Y115.900 E0.6614
G0 X88.200 Y115.200 F10800
G1 X88.300 Y115.200 E0.6642 F900
G1 X88.200 Y115.100 E0.6682
G1 X88.300 Y115.100 E0.6710
G0 X88.600 Y114.400 F10800
G1 X88.700 Y114.400 E0.6738 F900
G1 X88.600 Y114.300 E0.6778
G1 X88.700 Y114.300 E0.6807
G0 X89.200 Y115.000 F10800
G1 X89.300 Y115.000 E0.6835 F900
G1 X89.200 Y114.900 E0.6875
G1 X89.300 Y114.900 E0.6903
G0 X89.600 Y114.200 F10800
G1 X89.700 Y114.200 E0.6931 F900
G0 X90.600 Y114.300 F10800
G1 X90.700 Y114.300 E0.6960 F900
G1 X90.600 Y114.400 E0.7000
G1 X90.700 Y114.400 E0.7028
G0 X91.600 Y114.400 F10800
G1 X91.700 Y114.400 E0.7056 F900
G1 X91.700 Y114.300 E0.7085
G1 X91.600 Y114.300 E0.7113
G0 X92.200 Y114.700 F10800
G1 X92.300 Y114.700 E0.7141 F900
G1 X92.300 Y114.800 E0.7169
G1 X92.200 Y114.800 E0.7198
G0 X91.700 Y115.500 F10800
G1 X91.600 Y115.500 E0.7226 F900
G1 X91.600 Y115.600 E0.7254
G1 X91.700 Y115.600 E0.7282
G0 X92.000 Y116.100 F10800
G1 X92.100 Y116.100 E0.7311 F900
G1 X92.100 Y116.200 E0.7339
G1 X92.000 Y116.200 E0.7367
G0 X92.000 Y117.100 F10800
G1 X92.100 Y117.100 E0.7395 F900
G0 X92.600 Y116.600 F10800
G1 X92.700 Y116.600 E0.7424 F900
G1 X92.700 Y116.500 E0.7452
G1 X92.600 Y116.500 E0.7480
G0 X92.700 Y115.600 F10800
G1 X92.600 Y115.600 E0.7509 F900
G1 X92.600 Y115.500 E0.7537
G1 X92.700 Y115.500 E0.7565
G0 F4800 E-0.2435
G0 X92.500 Y113.800 F10800
G0 F4800 E0.7565
G1 X92.400 Y113.800 E0.7593 F900
G1 X92.400 Y113.700 E0.7622
G1 X92.500 Y113.700 E0.7650
G0 F4800 E-0.2350
G0 X92.400 Y112.700 F10800
G0 F4800 E0.7650
G1 X92.500 Y112.700 E0.7678 F900
G1 X92.500 Y112.800 E0.7706
G1 X92.400 Y112.800 E0.7735
G0 X92.000 Y112.200 F10800
G1 X92.100 Y112.200 E0.7763 F900
G0 X92.400 Y111.600 F10800
G1 X92.500 Y111.600 E0.7791 F900
G1 X92.400 Y111.500 E0.7831
G1 X92.500 Y111.500 E0.7860
G0 X92.500 Y110.600 F10800
G1 X92.400 Y110.600 E0.7888 F900
G1 X92.400 Y110.500 E0.7916
G1 X92.500 Y110.500 E0.7944
G0 F4800 E-0.2056
G0 X93.800 Y111.600 F10800
G0 F4800 E0.7944
G1 X93.900 Y111.600 E0.7973 F900
G1 X93.900 Y111.500 E0.8001
G1 X93.800 Y111.500 E0.8029
G0 X93.900 Y110.600 F10800
G1 X93.800 Y110.600 E0.8057 F900
G1 X93.800 Y110.500 E0.8086
G1 X93.900 Y110.500 E0.8114
G0 X94.100 Y109.800 F10800
G1 X94.000 Y109.800 E0.8142 F900
G1 X94.000 Y109.700 E0.8170
G1 X94.100 Y109.700 E0.8199
G0 X94.100 Y108.800 F10800
G1 X94.000 Y108.800 E0.8227 F900
G1 X94.000 Y108.700 E0.8255
G1 X94.100 Y108.700 E0.8284
G0 X94.200 Y108.000 F10800
G1 X94.300 Y108.000 E0.8312 F900
G1 X94.300 Y107.900 E0.8340
G1 X94.200 Y107.900 E0.8368
G0 F4800 E-0.1632
G0 X92.700 Y108.500 F10800
G0 F4800 E0.8368
G1 X92.600 Y108.500 E0.8397 F900
G1 X92.600 Y108.600 E0.8425
G1 X92.700 Y108.600 E0.8453
G0 X92.700 Y109.500 F10800
G1 X92.600 Y109.500 E0.8481 F900
G1 X92.600 Y109.600 E0.8510
G1 X92.700 Y109.600 E0.8538
G0 X93.200 Y109.200 F10800
G1 X93.300 Y109.200 E0.8566 F900
G1 X93.300 Y109.100 E0.8595
G1 X93.200 Y109.100 E0.8623
G0 F4800 E-0.1377
G0 X92.900 Y107.800 F10800
G0 F4800 E0.8623
G1 X92.800 Y107.800 E0.8651 F900
G1 X92.800 Y107.700 E0.8679
G1 X92.900 Y107.700 E0.8708
G0 X93.600 Y107.400 F10800
G1 X93.700 Y107.400 E0.8736 F900
G1 X93.700 Y107.300 E0.8764
G1 X93.600 Y107.300 E0.8792
G0 X92.800 Y106.800 F10800
G1 X92.900 Y106.800 E0.8821 F900
G1 X92.800 Y106.700 E0.8861
G1 X92.900 Y106.700 E0.8889
G0 X93.100 Y106.000 F10800
G1 X93.000 Y106.000 E0.8917 F900
G1 X93.000 Y105.900 E0.8946
G1 X93.100 Y105.900 E0.8974
G0 X92.800 Y105.200 F10800
G1 X92.900 Y105.200 E0.9002 F900
G1 X92.900 Y105.100 E0.9030
G1 X92.800 Y105.100 E0.9059
G0 X92.400 Y104.300 F10800
G1 X92.500 Y104.300 E0.9087 F900
G1 X92.500 Y104.400 E0.9115
G1 X92.400 Y104.400 E0.9143
G0 F4800 E-0.0857
G0 X93.500 Y104.300 F10800
G0 F4800 E0.9143
G1 X93.400 Y104.300 E0.9172 F900
G1 X93.400 Y104.400 E0.9200
G1 X93.500 Y104.400 E0.9228
G0 F4800 E-0.0772
G0 X93.800 Y105.400 F10800
G0 F4800 E0.9228
G1 X93.900 Y105.400 E0.9256 F900
G1 X93.800 Y105.300 E0.9296
G1 X93.900 Y105.300 E0.9325
G0 X94.800 Y105.400 F10800
G1 X94.900 Y105.400 E0.9353 F900
G1 X94.800 Y105.300 E0.9393
G1 X94.900 Y105.300 E0.9421
G0 F4800 E-0.0579
G0 X96.000 Y106.200 F10800
G0 F4800 E0.9421
G1 X96.100 Y106.200 E0.9450 F900
G1 X96.100 Y106.100 E0.9478
G1 X96.000 Y106.100 E0.9506
G0 X95.100 Y106.100 F10800
G1 X95.000 Y106.100 E0.9534 F900
G1 X95.100 Y106.200 E0.9574
G1 X95.000 Y106.200 E0.9603
G0 F4800 E-0.0397
G0 X94.200 Y107.000 F10800
G0 F4800 E0.9603
G1 X94.300 Y107.000 E0.9631 F900
G1 X94.200 Y106.900 E0.9671
G1 X94.300 Y106.900 E0.9699
G0 X94.100 Y106.200 F10800
G1 X94.000 Y106.200 E0.9727 F900
G1 X94.000 Y106.100 E0.9756
G1 X94.100 Y106.100 E0.9784
G0 F4800 E-0.0216
G0 X94.200 Y104.800 F10800
G0 F4800 E0.9784
G1 X94.300 Y104.800 E0.9812 F900
G1 X94.200 Y104.700 E0.9852
G1 X94.300 Y104.700 E0.9880
G0 X95.200 Y104.800 F10800
G1 X95.300 Y104.800 E0.9909 F900
G1 X95.200 Y104.700 E0.9949
G1 X95.300 Y104.700 E0.9977
G0 X95.800 Y105.400 F10800
G1 X95.900 Y105.400 E1.0005 F900
G1 X95.800 Y105.300 E1.0045
G1 X95.900 Y105.300 E1.0074
G0 X96.200 Y104.800 F10800
G1 X96.300 Y104.800 E1.0102 F900
G1 X96.300 Y104.700 E1.0130
G1 X96.200 Y104.700 E1.0158
G0 X96.400 Y104.000 F10800
G1 X96.500 Y104.000 E1.0187 F900
G0 X95.500 Y104.000 F10800
G1 X95.400 Y104.000 E1.0215 F900
G0 X94.400 Y104.000 F10800
G1 X94.500 Y104.000 E1.0243 F900
;segType:Loop
G0 F4800 E0.0243
G0 X92.409 Y101.195 F10800
G0 F4800 E1.0243
G1 X94.480 Y101.195 E1.0932 F600
G1 X102.264 Y101.246 E1.3521
G1 X107.305 Y101.246 E1.5197
G1 X107.305 Y102.811 E1.5718
G1 X104.937 Y102.824 E1.6506
G1 X90.925 Y102.824 E2.1166
G1 X90.901 Y104.325 E2.1665
G1 X90.901 Y110.957 E2.3871
G1 X89.384 Y110.957 E2.4376
G1 X89.384 Y93.062 E3.0328
G1 X90.906 Y93.062 E3.0834
G1 X90.916 Y93.990 E3.1143
G1 X90.916 Y101.195 E3.3540
G1 X92.210 Y101.195 E3.3970
G0 X91.175 Y100.946 F10800
G0 X90.714 Y100.547
;segType:Perimeter
G1 X91.375 Y100.810 E3.4207 F359
G1 X94.482 Y100.810 E3.5240
G1 X102.265 Y100.861 E3.7829
G1 X107.705 Y100.861 E3.9638
G1 X107.705 Y103.194 E4.0414
G1 X104.938 Y103.208 E4.1334
G1 X91.319 Y103.208 E4.5864
G1 X91.301 Y104.328 E4.6236
G1 X91.301 Y111.342 E4.8569
G1 X88.984 Y111.342 E4.9340
G1 X88.984 Y92.677 E5.5548
G1 X91.303 Y92.677 E5.6319
G1 X91.316 Y93.988 E5.6755
G1 X91.316 Y100.753 E5.9005
G1 X91.590 Y101.389
;segType:Loop
G0 X93.502 Y101.580 F10800
G1 X94.479 Y101.580 E5.9330 F600
G1 X102.263 Y101.631 E6.1919
G1 X106.905 Y101.631 E6.3463
G1 X106.905 Y102.429 E6.3728
G1 X104.936 Y102.439 E6.4383
G1 X90.531 Y102.439 E6.9174
G1 X90.501 Y104.322 E6.9801
G1 X90.501 Y110.572 E7.1880
G1 X89.784 Y110.572 E7.2118
G1 X89.784 Y93.446 E7.7814
G1 X90.510 Y93.446 E7.8056
G1 X90.516 Y93.992 E7.8237
G1 X90.516 Y101.580 E8.0761
G1 X93.304 Y101.580 E8.1688
G0 X94.577 Y101.966 F10800
G1 X102.261 Y102.016 E8.4244 F600
G1 X106.505 Y102.046 E8.5655
G1 X104.934 Y102.054 E8.6178
G1 X90.184 Y102.054 E9.1084
G1 X90.184 Y101.965 E9.1113
G1 X94.378 Y101.965 E9.2508
;segType:Support
G0 F4800 E8.2508
G0 X87.900 Y98.900 F10800
G0 F4800 E9.2508
G1 X87.800 Y98.900 E9.2537 F900
G0 X87.100 Y98.500 F10800
G1 X87.000 Y98.500 E9.2565 F900
G1 X87.000 Y98.600 E9.2593
G1 X87.100 Y98.600 E9.2621
G0 X87.900 Y99.000 F10800
G1 X87.800 Y99.000 E9.2650 F900
G0 X87.100 Y99.500 F10800
G1 X87.000 Y99.500 E9.2678 F900
G1 X87.000 Y99.600 E9.2706
G1 X87.100 Y99.600 E9.2734
G0 X87.800 Y99.900 F10800
G1 X87.900 Y99.900 E9.2763 F900
G1 X87.900 Y100.000 E9.2791
G1 X87.800 Y100.000 E9.2819
G0 X87.300 Y100.800 F10800
G1 X87.200 Y100.800 E9.2848 F900
G1 X87.200 Y100.700 E9.2876
G1 X87.300 Y100.700 E9.2904
G0 X87.800 Y101.300 F10800
G1 X87.900 Y101.300 E9.2932 F900
G1 X87.900 Y101.400 E9.2961
G1 X87.800 Y101.400 E9.2989
G0 X87.900 Y102.300 F10800
G1 X87.800 Y102.300 E9.3017 F900
G1 X87.800 Y102.400 E9.3045
G1 X87.900 Y102.400 E9.3074
G0 X87.700 Y103.200 F10800
G1 X87.600 Y103.200 E9.3102 F900
G1 X87.600 Y103.100 E9.3130
G1 X87.700 Y103.100 E9.3159
G0 F4800 E8.3159
G0 X88.843 Y92.542 F10800
G0 X91.442 Y92.541
G0 X92.800 Y99.300
G0 F4800 E9.3159
G1 X92.900 Y99.300 E9.3187 F900
G0 X93.400 Y98.600 F10800
G1 X93.500 Y98.600 E9.3215 F900
G1 X93.500 Y98.500 E9.3243
G1 X93.400 Y98.500 E9.3272
G0 X92.400 Y98.500 F10800
G1 X92.500 Y98.500 E9.3300 F900
G1 X92.500 Y98.600 E9.3328
G1 X92.400 Y98.600 E9.3356
G0 X92.800 Y99.400 F10800
G1 X92.900 Y99.400 E9.3385 F900
G0 F4800 E8.3385
G0 X94.200 Y99.000 F10800
G0 F4800 E9.3385
G1 X94.300 Y99.000 E9.3413 F900
G1 X94.200 Y98.900 E9.3453
G1 X94.300 Y98.900 E9.3481
G0 F4800 E8.3481
G0 X95.400 Y98.800 F10800
G0 F4800 E9.3481
G1 X95.500 Y98.800 E9.3509 F900
G1 X95.400 Y98.700 E9.3549
G1 X95.500 Y98.700 E9.3578
G0 X96.000 Y99.400 F10800
G1 X96.100 Y99.400 E9.3606 F900
G1 X96.000 Y99.300 E9.3646
G1 X96.100 Y99.300 E9.3674
G0 X96.400 Y98.800 F10800
G1 X96.500 Y98.800 E9.3702 F900
G1 X96.500 Y98.700 E9.3731
G1 X96.400 Y98.700 E9.3759
G0 X97.000 Y99.400 F10800
G1 X97.100 Y99.400 E9.3787 F900
G1 X97.000 Y99.300 E9.3827
G1 X97.100 Y99.300 E9.3856
G0 X97.400 Y98.800 F10800
G1 X97.500 Y98.800 E9.3884 F900
G1 X97.400 Y98.700 E9.3924
G1 X97.500 Y98.700 E9.3952
G0 X98.400 Y99.000 F10800
G1 X98.500 Y99.000 E9.3980 F900
G1 X98.400 Y98.900 E9.4020
G1 X98.500 Y98.900 E9.4049
G0 X99.200 Y98.800 F10800
G1 X99.300 Y98.800 E9.4077 F900
G0 X100.200 Y98.900 F10800
G1 X100.300 Y98.900 E9.4105 F900
G1 X100.200 Y99.000 E9.4145
G1 X100.300 Y99.000 E9.4173
G0 X99.700 Y99.500 F10800
G1 X99.600 Y99.500 E9.4202 F900
G1 X99.700 Y99.600 E9.4242
G1 X99.600 Y99.600 E9.4270
G0 F4800 E8.4270
G0 X107.845 Y100.726 F10800
G0 X107.845 Y103.329
G0 X98.000 Y104.300
G0 F4800 E9.4270
G1 X98.100 Y104.300 E9.4298 F900
G1 X98.000 Y104.400 E9.4338
G1 X98.100 Y104.400 E9.4366
G0 X99.000 Y104.300 F10800
G1 X99.100 Y104.300 E9.4395 F900
G1 X99.000 Y104.400 E9.4435
G1 X99.100 Y104.400 E9.4463
G0 X99.600 Y104.000 F10800
G1 X99.700 Y104.000 E9.4491 F900
G0 X100.200 Y104.500 F10800
G1 X100.300 Y104.500 E9.4519 F900
G1 X100.300 Y104.600 E9.4548
G1 X100.200 Y104.600 E9.4576
G0 X99.700 Y105.200 F10800
G1 X99.600 Y105.200 E9.4604 F900
G1 X99.700 Y105.100 E9.4644
G1 X99.600 Y105.100 E9.4672
G0 X98.700 Y105.100 F10800
G1 X98.600 Y105.100 E9.4701 F900
G1 X98.700 Y105.200 E9.4741
G1 X98.600 Y105.200 E9.4769
G0 X97.800 Y105.400 F10800
G1 X97.900 Y105.400 E9.4797 F900
G1 X97.900 Y105.300 E9.4826
G1 X97.800 Y105.300 E9.4854
G0 X97.300 Y104.800 F10800
G1 X97.200 Y104.800 E9.4882 F900
G1 X97.300 Y104.700 E9.4922
G1 X97.200 Y104.700 E9.4950
G0 X96.800 Y105.300 F10800
G1 X96.900 Y105.300 E9.4979 F900
G1 X96.900 Y105.400 E9.5007
G1 X96.800 Y105.400 E9.5035
G0 X97.100 Y106.100 F10800
G1 X97.000 Y106.100 E9.5063 F900
G1 X97.000 Y106.200 E9.5092
G1 X97.100 Y106.200 E9.5120
G0 X98.000 Y106.100 F10800
G1 X98.100 Y106.100 E9.5148 F900
G1 X98.000 Y106.200 E9.5188
G1 X98.100 Y106.200 E9.5216
G0 X98.800 Y106.000 F10800
G1 X98.900 Y106.000 E9.5245 F900
G1 X98.800 Y105.900 E9.5285
G1 X98.900 Y105.900 E9.5313
G0 X99.800 Y106.100 F10800
G1 X99.900 Y106.100 E9.5341 F900
G1 X99.800 Y106.200 E9.5381
G1 X99.900 Y106.200 E9.5409
G0 X100.800 Y106.200 F10800
G1 X100.900 Y106.200 E9.5438 F900
G0 X101.800 Y106.200 F10800
G1 X101.900 Y106.200 E9.5466 F900
G1 X101.900 Y106.100 E9.5494
G1 X101.800 Y106.100 E9.5523
G0 X100.900 Y106.100 F10800
G1 X100.800 Y106.100 E9.5551 F900
G0 X100.400 Y105.600 F10800
G1 X100.500 Y105.600 E9.5579 F900
G1 X100.400 Y105.500 E9.5619
G1 X100.500 Y105.500 E9.5647
G0 X100.900 Y105.000 F10800
G1 X100.800 Y105.000 E9.5676 F900
G1 X100.800 Y104.900 E9.5704
G1 X100.900 Y104.900 E9.5732
G0 X101.200 Y104.400 F10800
G1 X101.300 Y104.400 E9.5760 F900
G1 X101.200 Y104.300 E9.5800
G1 X101.300 Y104.300 E9.5829
G0 X101.800 Y104.900 F10800
G1 X101.900 Y104.900 E9.5857 F900
G1 X101.900 Y105.000 E9.5885
G1 X101.800 Y105.000 E9.5913
G0 X101.500 Y105.500 F10800
G1 X101.400 Y105.500 E9.5942 F900
G1 X101.400 Y105.600 E9.5970
G1 X101.500 Y105.600 E9.5998
G0 X102.400 Y105.600 F10800
G1 X102.500 Y105.600 E9.6027 F900
G1 X102.400 Y105.500 E9.6066
G1 X102.500 Y105.500 E9.6095
G0 X102.800 Y105.000 F10800
G1 X102.900 Y105.000 E9.6123 F900
G1 X102.900 Y104.900 E9.6151
G1 X102.800 Y104.900 E9.6180
G0 X102.300 Y104.400 F10800
G1 X102.200 Y104.400 E9.6208 F900
G1 X102.200 Y104.300 E9.6236
G1 X102.300 Y104.300 E9.6264
G0 X103.200 Y104.400 F10800
G1 X103.300 Y104.400 E9.6293 F900
G1 X103.200 Y104.300 E9.6333
G1 X103.300 Y104.300 E9.6361
G0 X104.200 Y104.300 F10800
G1 X104.300 Y104.300 E9.6389 F900
G1 X104.200 Y104.400 E9.6429
G1 X104.300 Y104.400 E9.6457
G0 X105.200 Y104.300 F10800
G1 X105.300 Y104.300 E9.6486 F900
G0 X105.900 Y104.000 F10800
G1 X105.800 Y104.000 E9.6514 F900
G0 X105.300 Y104.400 F10800
G1 X105.200 Y104.400 E9.6542 F900
G0 X105.000 Y105.100 F10800
G1 X105.100 Y105.100 E9.6571 F900
G1 X105.100 Y105.200 E9.6599
G1 X105.000 Y105.200 E9.6627
G0 F4800 E8.6627
G0 X103.900 Y104.900 F10800
G0 F4800 E9.6627
G1 X103.800 Y104.900 E9.6655 F900
G1 X103.900 Y105.000 E9.6695
G1 X103.800 Y105.000 E9.6724
G0 X103.500 Y105.500 F10800
G1 X103.400 Y105.500 E9.6752 F900
G1 X103.500 Y105.600 E9.6792
G1 X103.400 Y105.600 E9.6820
G0 X102.900 Y106.100 F10800
G1 X102.800 Y106.100 E9.6848 F900
G1 X102.900 Y106.200 E9.6888
G1 X102.800 Y106.200 E9.6917
G0 X103.800 Y106.200 F10800
G1 X103.900 Y106.200 E9.6945 F900
G1 X103.800 Y106.100 E9.6985
G1 X103.900 Y106.100 E9.7013
G0 X104.400 Y105.500 F10800
G1 X104.500 Y105.500 E9.7041 F900
G1 X104.400 Y105.600 E9.7081
G1 X104.500 Y105.600 E9.7110
G0 X104.900 Y106.100 F10800
G1 X104.800 Y106.100 E9.7138 F900
G1 X104.800 Y106.200 E9.7166
G1 X104.900 Y106.200 E9.7194
G0 X105.600 Y105.800 F10800
G1 X105.700 Y105.800 E9.7223 F900
G1 X105.600 Y105.700 E9.7263
G1 X105.700 Y105.700 E9.7291
G0 X106.300 Y106.100 F10800
G1 X106.200 Y106.100 E9.7319 F900
G1 X106.200 Y106.200 E9.7347
G1 X106.300 Y106.200 E9.7376
G0 X106.800 Y105.800 F10800
G1 X106.900 Y105.800 E9.7404 F900
G0 X107.700 Y106.200 F10800
G1 X107.600 Y106.200 E9.7432 F900
G1 X107.600 Y106.100 E9.7461
G1 X107.700 Y106.100 E9.7489
G0 X107.900 Y105.400 F10800
G1 X107.800 Y105.400 E9.7517 F900
G1 X107.900 Y105.300 E9.7557
G1 X107.800 Y105.300 E9.7585
G0 X107.300 Y104.900 F10800
G1 X107.200 Y104.900 E9.7614 F900
G1 X107.300 Y105.000 E9.7654
G1 X107.200 Y105.000 E9.7682
G0 X106.900 Y105.700 F10800
G1 X106.800 Y105.700 E9.7710 F900
G0 X106.300 Y105.200 F10800
G1 X106.200 Y105.200 E9.7738 F900
G1 X106.200 Y105.100 E9.7767
G1 X106.300 Y105.100 E9.7795
G0 X106.700 Y104.400 F10800
G1 X106.600 Y104.400 E9.7823 F900
G1 X106.600 Y104.300 E9.7851
G1 X106.700 Y104.300 E9.7880
G0 X107.600 Y104.400 F10800
G1 X107.700 Y104.400 E9.7908 F900
G1 X107.600 Y104.300 E9.7948
G1 X107.700 Y104.300 E9.7976
G0 F4800 E8.7976
G0 X116.800 Y101.900 F10800
G0 F4800 E9.7976
G1 X116.900 Y101.900 E9.8005 F900
G1 X116.800 Y102.000 E9.8045
G1 X116.900 Y102.000 E9.8073
G0 X117.400 Y102.500 F10800
G1 X117.500 Y102.500 E9.8101 F900
G1 X117.500 Y102.600 E9.8129
G1 X117.400 Y102.600 E9.8158
G0 X116.900 Y102.900 F10800
G1 X116.800 Y102.900 E9.8186 F900
G1 X116.800 Y103.000 E9.8214
G1 X116.900 Y103.000 E9.8242
G0 X116.900 Y104.000 F10800
G1 X116.800 Y104.000 E9.8271 F900
G1 X116.800 Y103.900 E9.8299
G1 X116.900 Y103.900 E9.8327
G0 X117.800 Y103.500 F10800
G1 X117.900 Y103.500 E9.8355 F900
G1 X117.900 Y103.600 E9.8384
G1 X117.800 Y103.600 E9.8412
G0 F4800 E8.8412
G0 X117.900 Y104.600 F10800
G0 F4800 E9.8412
G1 X117.800 Y104.600 E9.8440 F900
G1 X117.800 Y104.500 E9.8469
G1 X117.900 Y104.500 E9.8497
G0 F4800 E8.8497
G0 X117.800 Y105.500 F10800
G0 F4800 E9.8497
G1 X117.900 Y105.500 E9.8525 F900
G1 X117.900 Y105.600 E9.8553
G1 X117.800 Y105.600 E9.8582
G0 X117.100 Y105.100 F10800
G1 X117.000 Y105.100 E9.8610 F900
G1 X117.100 Y105.200 E9.8650
G1 X117.000 Y105.200 E9.8678
G0 X117.100 Y106.100 F10800
G1 X117.000 Y106.100 E9.8706 F900
G1 X117.000 Y106.200 E9.8735
G1 X117.100 Y106.200 E9.8763
G0 F4800 E8.8763
G0 X116.700 Y107.700 F10800
G0 F4800 E9.8763
G1 X116.600 Y107.700 E9.8791 F900
G1 X116.600 Y107.800 E9.8819
G1 X116.700 Y107.800 E9.8848
G0 X116.700 Y108.700 F10800
G1 X116.600 Y108.700 E9.8876 F900
G1 X116.600 Y108.800 E9.8904
G1 X116.700 Y108.800 E9.8933
G0 X116.700 Y109.700 F10800
G1 X116.600 Y109.700 E9.8961 F900
G1 X116.600 Y109.800 E9.8989
G1 X116.700 Y109.800 E9.9017
G0 F4800 E8.9017
G0 X116.700 Y110.900 F10800
G0 F4800 E9.9017
G1 X116.600 Y110.900 E9.9046 F900
G1 X116.600 Y111.000 E9.9074
G1 X116.700 Y111.000 E9.9102
G0 F4800 E8.9102
G0 X118.400 Y111.800 F10800
G0 F4800 E9.9102
G1 X118.500 Y111.800 E9.9130 F900
G0 X118.800 Y112.500 F10800
G1 X118.900 Y112.500 E9.9159 F900
G1 X118.900 Y112.600 E9.9187
G1 X118.800 Y112.600 E9.9215
G0 X118.100 Y113.300 F10800
G1 X118.000 Y113.300 E9.9243 F900
G1 X118.000 Y113.400 E9.9272
G1 X118.100 Y113.400 E9.9300
G0 X118.800 Y113.700 F10800
G1 X118.900 Y113.700 E9.9328 F900
G1 X118.800 Y113.800 E9.9368
G1 X118.900 Y113.800 E9.9397
G0 X119.800 Y113.700 F10800
G1 X119.900 Y113.700 E9.9425 F900
G1 X119.800 Y113.800 E9.9465
G1 X119.900 Y113.800 E9.9493
G0 X120.200 Y113.200 F10800
G1 X120.300 Y113.200 E9.9521 F900
G0 X120.800 Y113.700 F10800
G1 X120.900 Y113.700 E9.9550 F900
G1 X120.800 Y113.800 E9.9590
G1 X120.900 Y113.800 E9.9618
G0 X121.500 Y114.100 F10800
G1 X121.400 Y114.100 E9.9646 F900
G1 X121.500 Y114.200 E9.9686
G1 X121.400 Y114.200 E9.9714
G0 F4800 E8.9714
G0 X120.800 Y115.000 F10800
G0 F4800 E9.9714
G1 X120.900 Y115.000 E9.9743 F900
G1 X120.900 Y114.900 E9.9771
G1 X120.800 Y114.900 E9.9799
G0 X120.300 Y115.400 F10800
G1 X120.200 Y115.400 E9.9827 F900
G1 X120.200 Y115.300 E9.9856
G1 X120.300 Y115.300 E9.9884
G0 X120.200 Y114.400 F10800
G1 X120.300 Y114.400 E9.9912 F900
G1 X120.300 Y114.300 E9.9941
G1 X120.200 Y114.300 E9.9969
G0 X119.400 Y114.700 F10800
G1 X119.500 Y114.700 E9.9997 F900
G1 X119.500 Y114.800 E10.0025
G1 X119.400 Y114.800 E10.0054
G0 X118.500 Y114.800 F10800
G1 X118.400 Y114.800 E10.0082 F900
G1 X118.400 Y114.700 E10.0110
G1 X118.500 Y114.700 E10.0138
G0 X118.900 Y115.300 F10800
G1 X118.800 Y115.300 E10.0167 F900
G1 X118.900 Y115.400 E10.0207
G1 X118.800 Y115.400 E10.0235
G0 X118.500 Y116.100 F10800
G1 X118.400 Y116.100 E10.0263 F900
G1 X118.400 Y116.200 E10.0291
G1 X118.500 Y116.200 E10.0320
G0 X118.600 Y116.900 F10800
G1 X118.700 Y116.900 E10.0348 F900
G1 X118.700 Y117.000 E10.0376
G1 X118.600 Y117.000 E10.0405
G0 X118.200 Y117.700 F10800
G1 X118.300 Y117.700 E10.0433 F900
G1 X118.200 Y117.800 E10.0473
G1 X118.300 Y117.800 E10.0501
G0 X118.600 Y118.300 F10800
G1 X118.700 Y118.300 E10.0529 F900
G1 X118.700 Y118.400 E10.0558
G1 X118.600 Y118.400 E10.0586
G0 X118.100 Y119.100 F10800
G1 X118.000 Y119.100 E10.0614 F900
G1 X118.000 Y119.200 E10.0642
G1 X118.100 Y119.200 E10.0671
G0 X118.000 Y120.100 F10800
G1 X118.100 Y120.100 E10.0699 F900
G1 X118.000 Y120.200 E10.0739
G1 X118.100 Y120.200 E10.0767
G0 F4800 E9.0767
G0 X118.800 Y119.400 F10800
G0 F4800 E10.0767
G1 X118.900 Y119.400 E10.0795 F900
G1 X118.900 Y119.300 E10.0824
G1 X118.800 Y119.300 E10.0852
G0 X119.200 Y118.800 F10800
G1 X119.300 Y118.800 E10.0880 F900
G1 X119.200 Y118.700 E10.0920
G1 X119.300 Y118.700 E10.0948
G0 X119.800 Y118.200 F10800
G1 X119.900 Y118.200 E10.0977 F900
G1 X119.800 Y118.100 E10.1017
G1 X119.900 Y118.100 E10.1045
G0 X119.300 Y117.600 F10800
G1 X119.200 Y117.600 E10.1073 F900
G1 X119.200 Y117.500 E10.1102
G1 X119.300 Y117.500 E10.1130
G0 X119.300 Y116.600 F10800
G1 X119.200 Y116.600 E10.1158 F900
G1 X119.200 Y116.500 E10.1186
G1 X119.300 Y116.500 E10.1215
G0 X119.400 Y115.800 F10800
G1 X119.500 Y115.800 E10.1243 F900
G1 X119.400 Y115.700 E10.1283
G1 X119.500 Y115.700 E10.1311
G0 X120.200 Y116.300 F10800
G1 X120.300 Y116.300 E10.1339 F900
G1 X120.300 Y116.400 E10.1368
G1 X120.200 Y116.400 E10.1396
G0 X119.900 Y117.100 F10800
G1 X119.800 Y117.100 E10.1424 F900
G1 X119.800 Y117.200 E10.1453
G1 X119.900 Y117.200 E10.1481
G0 X120.800 Y116.900 F10800
G1 X120.900 Y116.900 E10.1509 F900
G1 X120.800 Y117.000 E10.1549
G1 X120.900 Y117.000 E10.1577
G0 X120.800 Y117.900 F10800
G1 X120.900 Y117.900 E10.1606 F900
G1 X120.800 Y118.000 E10.1646
G1 X120.900 Y118.000 E10.1674
G0 X121.400 Y118.400 F10800
G1 X121.500 Y118.400 E10.1702 F900
G1 X121.400 Y118.300 E10.1742
G1 X121.500 Y118.300 E10.1770
G0 F4800 E9.1770
G0 X120.300 Y118.700 F10800
G0 F4800 E10.1770
G1 X120.200 Y118.700 E10.1799 F900
G1 X120.300 Y118.800 E10.1839
G1 X120.200 Y118.800 E10.1867
G0 X119.900 Y119.300 F10800
G1 X119.800 Y119.300 E10.1895 F900
G1 X119.900 Y119.400 E10.1935
G1 X119.800 Y119.400 E10.1963
G0 F4800 E9.1963
G0 X118.900 Y120.300 F10800
G0 F4800 E10.1963
G1 X118.800 Y120.300 E10.1992 F900
G1 X118.800 Y120.400 E10.2020
G1 X118.900 Y120.400 E10.2048
G0 X119.800 Y120.400 F10800
G1 X119.900 Y120.400 E10.2076 F900
G1 X119.800 Y120.300 E10.2116
G1 X119.900 Y120.300 E10.2145
G0 X120.800 Y120.400 F10800
G1 X120.900 Y120.400 E10.2173 F900
G1 X120.900 Y120.300 E10.2201
G1 X120.800 Y120.300 E10.2229
G0 X120.900 Y119.400 F10800
G1 X120.800 Y119.400 E10.2258 F900
G1 X120.800 Y119.300 E10.2286
G1 X120.900 Y119.300 E10.2314
G0 F4800 E9.2314
G0 X121.800 Y120.400 F10800
G0 F4800 E10.2314
G1 X121.900 Y120.400 E10.2343 F900
G1 X121.800 Y120.300 E10.2383
G1 X121.900 Y120.300 E10.2411
G0 X122.800 Y120.400 F10800
G1 X122.900 Y120.400 E10.2439 F900
G1 X122.900 Y120.300 E10.2467
G1 X122.800 Y120.300 E10.2496
G0 X122.500 Y119.800 F10800
G1 X122.400 Y119.800 E10.2524 F900
G1 X122.500 Y119.700 E10.2564
G1 X122.400 Y119.700 E10.2592
G0 X121.900 Y119.400 F10800
G1 X121.800 Y119.400 E10.2620 F900
G1 X121.800 Y119.300 E10.2649
G1 X121.900 Y119.300 E10.2677
G0 X122.200 Y118.800 F10800
G1 X122.300 Y118.800 E10.2705 F900
G1 X122.200 Y118.700 E10.2745
G1 X122.300 Y118.700 E10.2773
G0 X123.000 Y119.000 F10800
G1 X123.100 Y119.000 E10.2802 F900
G1 X123.100 Y118.900 E10.2830
G1 X123.000 Y118.900 E10.2858
G0 X123.100 Y118.000 F10800
G1 X123.000 Y118.000 E10.2886 F900
G1 X123.100 Y117.900 E10.2926
G1 X123.000 Y117.900 E10.2955
G0 X122.300 Y117.800 F10800
G1 X122.200 Y117.800 E10.2983 F900
G1 X122.300 Y117.700 E10.3023
G1 X122.200 Y117.700 E10.3051
G0 X121.700 Y117.400 F10800
G1 X121.600 Y117.400 E10.3080 F900
G1 X121.600 Y117.300 E10.3108
G1 X121.700 Y117.300 E10.3136
G0 X121.500 Y116.400 F10800
G1 X121.400 Y116.400 E10.3164 F900
G0 X121.100 Y115.800 F10800
G1 X121.000 Y115.800 E10.3193 F900
G1 X121.000 Y115.700 E10.3221
G1 X121.100 Y115.700 E10.3249
G0 X121.400 Y116.300 F10800
G1 X121.500 Y116.300 E10.3277 F900
G0 X122.200 Y116.800 F10800
G1 X122.300 Y116.800 E10.3306 F900
G1 X122.200 Y116.700 E10.3346
G1 X122.300 Y116.700 E10.3374
G0 X123.000 Y117.000 F10800
G1 X123.100 Y117.000 E10.3402 F900
G1 X123.100 Y116.900 E10.3430
G1 X123.000 Y116.900 E10.3459
G0 X122.800 Y116.200 F10800
G1 X122.900 Y116.200 E10.3487 F900
G1 X122.900 Y116.100 E10.3515
G1 X122.800 Y116.100 E10.3544
G0 X122.100 Y116.000 F10800
G1 X122.000 Y116.000 E10.3572 F900
G1 X122.000 Y115.900 E10.3600
G1 X122.100 Y115.900 E10.3628
G0 X121.800 Y115.000 F10800
G1 X121.900 Y115.000 E10.3657 F900
G1 X121.800 Y114.900 E10.3697
G1 X121.900 Y114.900 E10.3725
G0 X122.800 Y115.000 F10800
G1 X122.900 Y115.000 E10.3753 F900
G1 X122.900 Y114.900 E10.3781
G1 X122.800 Y114.900 E10.3810
G0 X122.500 Y114.200 F10800
G1 X122.400 Y114.200 E10.3838 F900
G1 X122.500 Y114.100 E10.3878
G1 X122.400 Y114.100 E10.3906
G0 X122.000 Y113.600 F10800
G1 X122.100 Y113.600 E10.3934 F900
G1 X122.100 Y113.500 E10.3963
G1 X122.000 Y113.500 E10.3991
G0 X121.500 Y113.000 F10800
G1 X121.400 Y113.000 E10.4019 F900
G1 X121.500 Y112.900 E10.4059
G1 X121.400 Y112.900 E10.4087
G0 F4800 E9.4087
G0 X122.800 Y113.400 F10800
G0 F4800 E10.4087
G1 X122.900 Y113.400 E10.4116 F900
G1 X122.900 Y113.300 E10.4144
G1 X122.800 Y113.300 E10.4172
G0 X122.900 Y112.400 F10800
G1 X122.800 Y112.400 E10.4201 F900
G1 X122.800 Y112.300 E10.4229
G1 X122.900 Y112.300 E10.4257
G0 F4800 E9.4257
G0 X124.000 Y111.000 F10800
G0 F4800 E10.4257
G1 X124.100 Y111.000 E10.4285 F900
G1 X124.100 Y110.900 E10.4314
G1 X124.000 Y110.900 E10.4342
G0 X123.500 Y110.400 F10800
G1 X123.400 Y110.400 E10.4370 F900
G1 X123.400 Y110.300 E10.4398
G1 X123.500 Y110.300 E10.4427
G0 X124.200 Y110.000 F10800
G1 X124.300 Y110.000 E10.4455 F900
G1 X124.300 Y109.900 E10.4483
G1 X124.200 Y109.900 E10.4512
G0 F4800 E9.4512
G0 X122.900 Y109.900 F10800
G0 F4800 E10.4512
G1 X122.800 Y109.900 E10.4540 F900
G1 X122.900 Y110.000 E10.4580
G1 X122.800 Y110.000 E10.4608
G0 X122.700 Y110.700 F10800
G1 X122.600 Y110.700 E10.4636 F900
G1 X122.600 Y110.800 E10.4665
G1 X122.700 Y110.800 E10.4693
G0 X123.000 Y111.500 F10800
G1 X123.100 Y111.500 E10.4721 F900
G1 X123.100 Y111.600 E10.4749
G1 X123.000 Y111.600 E10.4778
G0 F4800 E9.4778
G0 X121.900 Y111.900 F10800
G0 F4800 E10.4778
G1 X121.800 Y111.900 E10.4806 F900
G1 X121.800 Y112.000 E10.4834
G1 X121.900 Y112.000 E10.4863
G0 F4800 E9.4863
G0 X120.900 Y112.400 F10800
G0 F4800 E10.4863
G1 X120.800 Y112.400 E10.4891 F900
G1 X120.900 Y112.300 E10.4931
G1 X120.800 Y112.300 E10.4959
G0 X120.300 Y112.000 F10800
G1 X120.200 Y112.000 E10.4987 F900
G1 X120.300 Y111.900 E10.5027
G1 X120.200 Y111.900 E10.5056
G0 X119.900 Y112.500 F10800
G1 X119.800 Y112.500 E10.5084 F900
G1 X119.800 Y112.600 E10.5112
G1 X119.900 Y112.600 E10.5140
G0 X120.300 Y113.100 F10800
G1 X120.200 Y113.100 E10.5169 F900
G0 X119.300 Y113.200 F10800
G1 X119.200 Y113.200 E10.5197 F900
G1 X119.200 Y113.100 E10.5225
G1 X119.300 Y113.100 E10.5253
G0 F4800 E9.5253
G0 X119.300 Y112.000 F10800
G0 F4800 E10.5253
G1 X119.200 Y112.000 E10.5282 F900
G1 X119.300 Y111.900 E10.5322
G1 X119.200 Y111.900 E10.5350
G0 X118.500 Y111.700 F10800
G1 X118.400 Y111.700 E10.5378 F900
G0 F4800 E9.5378
G0 X117.800 Y110.800 F10800
G0 F4800 E10.5378
G1 X117.900 Y110.800 E10.5407 F900
G1 X117.900 Y110.700 E10.5435
G1 X117.800 Y110.700 E10.5463
G0 X117.300 Y110.200 F10800
G1 X117.200 Y110.200 E10.5491 F900
G1 X117.200 Y110.100 E10.5520
G1 X117.300 Y110.100 E10.5548
G0 X117.800 Y109.700 F10800
G1 X117.900 Y109.700 E10.5576 F900
G1 X117.900 Y109.800 E10.5604
G1 X117.800 Y109.800 E10.5633
G0 X117.300 Y109.200 F10800
G1 X117.200 Y109.200 E10.5661 F900
G1 X117.200 Y109.100 E10.5689
G1 X117.300 Y109.100 E10.5718
G0 X117.800 Y108.800 F10800
G1 X117.900 Y108.800 E10.5746 F900
G1 X117.900 Y108.700 E10.5774
G1 X117.800 Y108.700 E10.5802
G0 X117.300 Y108.200 F10800
G1 X117.200 Y108.200 E10.5831 F900
G1 X117.200 Y108.100 E10.5859
G1 X117.300 Y108.100 E10.5887
G0 X117.100 Y107.200 F10800
G1 X117.000 Y107.200 E10.5915 F900
G1 X117.000 Y107.100 E10.5944
G1 X117.100 Y107.100 E10.5972
G0 X117.800 Y106.500 F10800
G1 X117.900 Y106.500 E10.6000 F900
G1 X117.900 Y106.600 E10.6028
G1 X117.800 Y106.600 E10.6057
G0 X117.800 Y107.500 F10800
G1 X117.900 Y107.500 E10.6085 F900
G1 X117.800 Y107.600 E10.6125
G1 X117.900 Y107.600 E10.6153
G0 F4800 E9.6153
G0 X119.137 Y110.876 F10800
G0 X121.735 Y110.876
G0 X122.400 Y107.400
G0 F4800 E10.6153
G1 X122.500 Y107.400 E10.6182 F900
G1 X122.400 Y107.300 E10.6221
G1 X122.500 Y107.300 E10.6250
G0 X122.700 Y106.600 F10800
G1 X122.600 Y106.600 E10.6278 F900
G1 X122.600 Y106.500 E10.6306
G1 X122.700 Y106.500 E10.6335
G0 X123.200 Y106.100 F10800
G1 X123.300 Y106.100 E10.6363 F900
G1 X123.300 Y106.200 E10.6391
G1 X123.200 Y106.200 E10.6419
G0 X123.200 Y107.100 F10800
G1 X123.300 Y107.100 E10.6448 F900
G1 X123.300 Y107.200 E10.6476
G1 X123.200 Y107.200 E10.6504
G0 X123.800 Y107.600 F10800
G1 X123.900 Y107.600 E10.6532 F900
G1 X123.900 Y107.500 E10.6561
G1 X123.800 Y107.500 E10.6589
G0 X123.000 Y107.900 F10800
G1 X123.100 Y107.900 E10.6617 F900
G1 X123.100 Y108.000 E10.6646
G1 X123.000 Y108.000 E10.6674
G0 X122.900 Y108.900 F10800
G1 X122.800 Y108.900 E10.6702 F900
G1 X122.800 Y109.000 E10.6730
G1 X122.900 Y109.000 E10.6759
G0 X123.600 Y109.400 F10800
G1 X123.700 Y109.400 E10.6787 F900
G1 X123.600 Y109.300 E10.6827
G1 X123.700 Y109.300 E10.6855
G0 X124.200 Y108.900 F10800
G1 X124.300 Y108.900 E10.6883 F900
G1 X124.200 Y109.000 E10.6923
G1 X124.300 Y109.000 E10.6952
G0 X123.700 Y108.400 F10800
G1 X123.600 Y108.400 E10.6980 F900
G1 X123.700 Y108.300 E10.7020
G1 X123.600 Y108.300 E10.7048
G0 X124.400 Y108.000 F10800
G1 X124.500 Y108.000 E10.7076 F900
G1 X124.500 Y107.900 E10.7105
G1 X124.400 Y107.900 E10.7133
G0 X124.500 Y107.000 F10800
G1 X124.400 Y107.000 E10.7161 F900
G1 X124.400 Y106.900 E10.7190
G1 X124.500 Y106.900 E10.7218
G0 X124.200 Y106.200 F10800
G1 X124.300 Y106.200 E10.7246 F900
G1 X124.300 Y106.100 E10.7274
G1 X124.200 Y106.100 E10.7303
G0 X124.500 Y105.300 F10800
G1 X124.400 Y105.300 E10.7331 F900
G1 X124.400 Y105.400 E10.7359
G1 X124.500 Y105.400 E10.7387
G0 X125.200 Y105.600 F10800
G1 X125.300 Y105.600 E10.7416 F900
G1 X125.300 Y105.500 E10.7444
G1 X125.200 Y105.500 E10.7472
G0 X124.800 Y104.800 F10800
G1 X124.900 Y104.800 E10.7500 F900
G1 X124.800 Y104.700 E10.7540
G1 X124.900 Y104.700 E10.7569
G0 X125.400 Y104.300 F10800
G1 X125.500 Y104.300 E10.7597 F900
G1 X125.500 Y104.400 E10.7625
G1 X125.400 Y104.400 E10.7654
G0 X124.900 Y103.700 F10800
G1 X124.800 Y103.700 E10.7682 F900
G1 X124.900 Y103.800 E10.7722
G1 X124.800 Y103.800 E10.7750
G0 X124.300 Y104.100 F10800
G1 X124.200 Y104.100 E10.7778 F900
G1 X124.200 Y104.200 E10.7807
G1 X124.300 Y104.200 E10.7835
G0 X123.500 Y103.700 F10800
G1 X123.400 Y103.700 E10.7863 F900
G1 X123.400 Y103.800 E10.7891
G1 X123.500 Y103.800 E10.7920
G0 X123.900 Y104.700 F10800
G1 X123.800 Y104.700 E10.7948 F900
G1 X123.800 Y104.800 E10.7976
G1 X123.900 Y104.800 E10.8005
G0 X123.100 Y105.400 F10800
G1 X123.000 Y105.400 E10.8033 F900
G1 X123.000 Y105.300 E10.8061
G1 X123.100 Y105.300 E10.8089
G0 X123.000 Y104.400 F10800
G1 X123.100 Y104.400 E10.8118 F900
G1 X123.100 Y104.300 E10.8146
G1 X123.000 Y104.300 E10.8174
G0 F4800 E9.8174
G0 X122.500 Y103.400 F10800
G0 F4800 E10.8174
G1 X122.400 Y103.400 E10.8202 F900
;segType:Loop
G0 F4800 E9.8202
G0 X122.703 Y100.594 F10800
G0 F4800 E10.8202
G1 X124.774 Y100.594 E10.8891 F600
G1 X132.557 Y100.644 E11.1480
G1 X137.598 Y100.644 E11.3157
G1 X137.598 Y102.210 E11.3677
G1 X135.230 Y102.222 E11.4465
G1 X121.219 Y102.222 E11.9125
G1 X121.194 Y103.723 E11.9624
G1 X121.194 Y110.355 E12.1830
G1 X119.677 Y110.355 E12.2335
G1 X119.677 Y92.460 E12.8287
G1 X121.200 Y92.460 E12.8794
G1 X121.209 Y93.388 E12.9103
G1 X121.209 Y100.594 E13.1499
G1 X122.504 Y100.594 E13.1930
G0 X121.469 Y100.344 F10800
G0 X121.008 Y99.945
;segType:Perimeter
G1 X121.669 Y100.209 E13.2166 F359
G1 X124.775 Y100.209 E13.3199
G1 X132.559 Y100.259 E13.5788
G1 X137.998 Y100.259 E13.7597
G1 X137.998 Y102.592 E13.8373
G1 X135.231 Y102.607 E13.9294
G1 X121.613 Y102.607 E14.3823
G1 X121.594 Y103.726 E14.4196
G1 X121.594 Y110.740 E14.6529
G1 X119.277 Y110.740 E14.7299
G1 X119.277 Y92.075 E15.3507
G1 X121.596 Y92.075 E15.4279
G1 X121.609 Y93.386 E15.4715
G1 X121.609 Y100.151 E15.6965
G1 X121.884 Y100.787
;segType:Loop
G0 X123.796 Y100.978 F10800
G1 X124.772 Y100.978 E15.7290 F600
G1 X132.556 Y101.029 E15.9879
G1 X137.198 Y101.029 E16.1423
G1 X137.198 Y101.827 E16.1688
G1 X135.229 Y101.837 E16.2343
G1 X120.825 Y101.837 E16.7134
G1 X120.794 Y103.720 E16.7760
G1 X120.794 Y109.971 E16.9839
G1 X120.077 Y109.971 E17.0077
G1 X120.077 Y92.845 E17.5773
G1 X120.804 Y92.845 E17.6015
G1 X120.809 Y93.390 E17.6197
G1 X120.809 Y100.978 E17.8721
G1 X123.597 Y100.978 E17.9648
G0 X124.870 Y101.364 F10800
G1 X132.555 Y101.414 E18.2204 F600
G1 X136.798 Y101.444 E18.3615
G1 X135.228 Y101.452 E18.4137
G1 X120.477 Y101.452 E18.9043
G1 X120.477 Y101.363 E18.9073
G1 X124.672 Y101.363 E19.0468
;segType:Support
G0 F4800 E18.0468
G0 X124.000 Y99.000 F10800
G0 F4800 E19.0468
G1 X124.100 Y99.000 E19.0496 F900
G1 X124.100 Y98.900 E19.0525
G1 X124.000 Y98.900 E19.0553
G0 F4800 E18.0553
G0 X122.700 Y97.900 F10800
G0 F4800 E19.0553
G1 X122.600 Y97.900 E19.0581 F900
G1 X122.600 Y98.000 E19.0609
G1 X122.700 Y98.000 E19.0638
G0 X123.000 Y98.700 F10800
G1 X123.100 Y98.700 E19.0666 F900
G1 X123.100 Y98.800 E19.0694
G1 X123.000 Y98.800 E19.0722
G0 F4800 E18.0722
G0 X123.900 Y98.000 F10800
G0 F4800 E19.0722
G1 X123.800 Y98.000 E19.0751 F900
G1 X123.900 Y97.900 E19.0791
G1 X123.800 Y97.900 E19.0819
G0 X123.400 Y97.400 F10800
G1 X123.500 Y97.400 E19.0847 F900
G1 X123.500 Y97.300 E19.0876
G1 X123.400 Y97.300 E19.0904
G0 X122.700 Y96.900 F10800
G1 X122.600 Y96.900 E19.0932 F900
G0 X122.600 Y96.000 F10800
G1 X122.700 Y96.000 E19.0960 F900
G0 X122.700 Y97.000 F10800
G1 X122.600 Y97.000 E19.0989 F900
G0 F4800 E18.0989
G0 X122.700 Y95.900 F10800
G0 F4800 E19.0989
G1 X122.600 Y95.900 E19.1017 F900
G0 X122.500 Y95.000 F10800
G1 X122.409 Y95.000 E19.1043 F900
G1 X122.409 Y94.900 E19.1071
G1 X122.500 Y94.900 E19.1096
G0 X122.800 Y94.400 F10800
G1 X122.900 Y94.400 E19.1125 F900
G1 X122.800 Y94.300 E19.1165
G1 X122.900 Y94.300 E19.1193
G0 X122.900 Y93.300 F10800
G1 X122.800 Y93.300 E19.1221 F900
G1 X122.800 Y93.400 E19.1250
G1 X122.900 Y93.400 E19.1278
G0 X123.400 Y93.900 F10800
G1 X123.500 Y93.900 E19.1306 F900
G1 X123.500 Y94.000 E19.1334
G1 X123.400 Y94.000 E19.1363
G0 X123.800 Y94.700 F10800
G1 X123.900 Y94.700 E19.1391 F900
G1 X123.900 Y94.800 E19.1419
G1 X123.800 Y94.800 E19.1447
G0 X123.200 Y95.300 F10800
G1 X123.300 Y95.300 E19.1476 F900
G1 X123.300 Y95.400 E19.1504
G1 X123.200 Y95.400 E19.1532
G0 X123.800 Y95.700 F10800
G1 X123.900 Y95.700 E19.1560 F900
G0 X123.300 Y96.300 F10800
G1 X123.200 Y96.300 E19.1589 F900
G1 X123.200 Y96.400 E19.1617
G1 X123.300 Y96.400 E19.1645
G0 X123.800 Y96.800 F10800
G1 X123.900 Y96.800 E19.1674 F900
G1 X123.800 Y96.700 E19.1713
G1 X123.900 Y96.700 E19.1742
G0 X124.400 Y97.300 F10800
G1 X124.500 Y97.300 E19.1770 F900
G1 X124.500 Y97.400 E19.1798
G1 X124.400 Y97.400 E19.1827
G0 X124.700 Y98.300 F10800
G1 X124.600 Y98.300 E19.1855 F900
G1 X124.600 Y98.400 E19.1883
G1 X124.700 Y98.400 E19.1911
G0 X125.400 Y98.800 F10800
G1 X125.500 Y98.800 E19.1940 F900
G1 X125.500 Y98.700 E19.1968
G1 X125.400 Y98.700 E19.1996
G0 X125.800 Y98.200 F10800
G1 X125.900 Y98.200 E19.2024 F900
G1 X125.800 Y98.100 E19.2064
G1 X125.900 Y98.100 E19.2093
G0 X126.800 Y98.200 F10800
G1 X126.900 Y98.200 E19.2121 F900
G1 X126.800 Y98.100 E19.2161
G1 X126.900 Y98.100 E19.2189
G0 X127.200 Y98.800 F10800
G1 X127.300 Y98.800 E19.2217 F900
G1 X127.200 Y98.700 E19.2257
G1 X127.300 Y98.700 E19.2286
G0 X127.900 Y98.200 F10800
G1 X127.800 Y98.200 E19.2314 F900
G1 X127.800 Y98.100 E19.2342
G1 X127.900 Y98.100 E19.2370
G0 X128.600 Y98.300 F10800
G1 X128.700 Y98.300 E19.2399 F900
G1 X128.600 Y98.400 E19.2439
G1 X128.700 Y98.400 E19.2467
G0 X129.400 Y98.100 F10800
G1 X129.500 Y98.100 E19.2495 F900
G1 X129.500 Y98.200 E19.2524
G1 X129.400 Y98.200 E19.2552
G0 X129.700 Y98.900 F10800
G1 X129.600 Y98.900 E19.2580 F900
G1 X129.600 Y99.000 E19.2608
G1 X129.700 Y99.000 E19.2637
G0 F4800 E18.2637
G0 X138.139 Y100.124 F10800
G0 X138.139 Y102.727
G0 X128.500 Y103.500
G0 F4800 E19.2637
G1 X128.400 Y103.500 E19.2665 F900
G1 X128.400 Y103.600 E19.2693
G1 X128.500 Y103.600 E19.2721
G0 X128.600 Y104.300 F10800
G1 X128.700 Y104.300 E19.2750 F900
G1 X128.700 Y104.400 E19.2778
G1 X128.600 Y104.400 E19.2806
G0 X127.800 Y104.000 F10800
G1 X127.900 Y104.000 E19.2834 F900
G1 X127.900 Y103.900 E19.2863
G1 X127.800 Y103.900 E19.2891
G0 X127.100 Y104.300 F10800
G1 X127.000 Y104.300 E19.2919 F900
G0 F4800 E18.2919
G0 X126.500 Y103.400 F10800
G0 F4800 E19.2919
G1 X126.400 Y103.400 E19.2948 F900
G0 X126.000 Y103.900 F10800
G1 X126.100 Y103.900 E19.2976 F900
G1 X126.100 Y104.000 E19.3004
G1 X126.000 Y104.000 E19.3032
G0 X126.400 Y104.700 F10800
G1 X126.500 Y104.700 E19.3061 F900
G1 X126.500 Y104.800 E19.3089
G1 X126.400 Y104.800 E19.3117
G0 X126.100 Y105.300 F10800
G1 X126.000 Y105.300 E19.3145 F900
G1 X126.000 Y105.400 E19.3174
G1 X126.100 Y105.400 E19.3202
G0 X126.800 Y105.600 F10800
G1 X126.900 Y105.600 E19.3230 F900
G1 X126.900 Y105.500 E19.3258
G1 X126.800 Y105.500 E19.3287
G0 F4800 E18.3287
G0 X127.000 Y104.400 F10800
G0 F4800 E19.3287
G1 X127.100 Y104.400 E19.3315 F900
G0 X128.000 Y104.700 F10800
G1 X128.100 Y104.700 E19.3343 F900
G1 X128.100 Y104.800 E19.3372
G1 X128.000 Y104.800 E19.3400
G0 X127.700 Y105.300 F10800
G1 X127.600 Y105.300 E19.3428 F900
G1 X127.600 Y105.400 E19.3456
G1 X127.700 Y105.400 E19.3485
G0 X128.500 Y105.600 F10800
G1 X128.400 Y105.600 E19.3513 F900
G1 X128.400 Y105.500 E19.3541
G1 X128.500 Y105.500 E19.3569
G0 X129.200 Y105.400 F10800
G1 X129.300 Y105.400 E19.3598 F900
G1 X129.200 Y105.300 E19.3638
G1 X129.300 Y105.300 E19.3666
G0 X130.000 Y105.600 F10800
G1 X130.100 Y105.600 E19.3694 F900
G1 X130.000 Y105.500 E19.3734
G1 X130.100 Y105.500 E19.3762
G0 F4800 E18.3762
G0 X129.600 Y104.600 F10800
G0 F4800 E19.3762
G1 X129.700 Y104.600 E19.3791 F900
G1 X129.600 Y104.500 E19.3831
G1 X129.700 Y104.500 E19.3859
G0 X129.300 Y103.800 F10800
G1 X129.200 Y103.800 E19.3887 F900
G1 X129.200 Y103.700 E19.3915
G1 X129.300 Y103.700 E19.3944
G0 X130.000 Y104.000 F10800
G1 X130.100 Y104.000 E19.3972 F900
G1 X130.000 Y103.900 E19.4012
G1 X130.100 Y103.900 E19.4040
G0 X130.600 Y103.600 F10800
G1 X130.700 Y103.600 E19.4069 F900
G1 X130.600 Y103.500 E19.4109
G1 X130.700 Y103.500 E19.4137
G0 F4800 E18.4137
G0 X131.800 Y103.500 F10800
G0 F4800 E19.4137
G1 X131.900 Y103.500 E19.4165 F900
G1 X131.900 Y103.600 E19.4193
G1 X131.800 Y103.600 E19.4222
G0 F4800 E18.4222
G0 X131.700 Y105.100 F10800
G0 F4800 E19.4222
G1 X131.600 Y105.100 E19.4250 F900
G1 X131.600 Y105.200 E19.4278
G1 X131.700 Y105.200 E19.4306
G0 X132.200 Y105.500 F10800
G1 X132.300 Y105.500 E19.4335 F900
G1 X132.300 Y105.600 E19.4363
G1 X132.200 Y105.600 E19.4391
G0 F4800 E18.4391
G0 X131.100 Y105.600 F10800
G0 F4800 E19.4391
G1 X131.000 Y105.600 E19.4419 F900
G1 X131.100 Y105.500 E19.4459
G1 X131.000 Y105.500 E19.4488
G0 X130.700 Y104.800 F10800
G1 X130.600 Y104.800 E19.4516 F900
G1 X130.600 Y104.700 E19.4544
G1 X130.700 Y104.700 E19.4572
G0 X131.200 Y104.400 F10800
G1 X131.300 Y104.400 E19.4601 F900
G1 X131.200 Y104.300 E19.4641
G1 X131.300 Y104.300 E19.4669
G0 X132.200 Y104.400 F10800
G1 X132.300 Y104.400 E19.4697 F900
G1 X132.200 Y104.300 E19.4737
G1 X132.300 Y104.300 E19.4766
G0 X132.600 Y103.800 F10800
G1 X132.700 Y103.800 E19.4794 F900
G1 X132.600 Y103.700 E19.4834
G1 X132.700 Y103.700 E19.4862
G0 X133.600 Y103.700 F10800
G1 X133.700 Y103.700 E19.4890 F900
G1 X133.700 Y103.800 E19.4919
G1 X133.600 Y103.800 E19.4947
G0 X133.200 Y104.300 F10800
G1 X133.300 Y104.300 E19.4975 F900
G1 X133.300 Y104.400 E19.5003
G1 X133.200 Y104.400 E19.5032
G0 X132.700 Y104.900 F10800
G1 X132.600 Y104.900 E19.5060 F900
G1 X132.600 Y105.000 E19.5088
G1 X132.700 Y105.000 E19.5116
G0 X133.200 Y105.600 F10800
G1 X133.300 Y105.600 E19.5145 F900
G1 X133.200 Y105.500 E19.5185
G1 X133.300 Y105.500 E19.5213
G0 X133.700 Y105.000 F10800
G1 X133.600 Y105.000 E19.5241 F900
G1 X133.600 Y104.900 E19.5269
G1 X133.700 Y104.900 E19.5298
G0 X134.300 Y104.400 F10800
G1 X134.200 Y104.400 E19.5326 F900
G1 X134.200 Y104.300 E19.5354
G1 X134.300 Y104.300 E19.5383
G0 X134.600 Y103.700 F10800
G1 X134.700 Y103.700 E19.5411 F900
G1 X134.600 Y103.800 E19.5451
G1 X134.700 Y103.800 E19.5479
G0 X135.200 Y104.500 F10800
G1 X135.300 Y104.500 E19.5507 F900
G1 X135.300 Y104.600 E19.5536
G1 X135.200 Y104.600 E19.5564
G0 X134.700 Y104.900 F10800
G1 X134.600 Y104.900 E19.5592 F900
G1 X134.700 Y105.000 E19.5632
G1 X134.600 Y105.000 E19.5660
G0 X134.300 Y105.500 F10800
G1 X134.200 Y105.500 E19.5689 F900
G1 X134.200 Y105.600 E19.5717
G1 X134.300 Y105.600 E19.5745
G0 X135.200 Y105.600 F10800
G1 X135.300 Y105.600 E19.5773 F900
G1 X135.200 Y105.500 E19.5813
G1 X135.300 Y105.500 E19.5842
G0 X135.800 Y105.100 F10800
G1 X135.900 Y105.100 E19.5870 F900
G1 X135.800 Y105.200 E19.5910
G1 X135.900 Y105.200 E19.5938
G0 X136.400 Y105.600 F10800
G1 X136.500 Y105.600 E19.5966 F900
G1 X136.500 Y105.500 E19.5995
G1 X136.400 Y105.500 E19.6023
G0 X136.300 Y104.600 F10800
G1 X136.200 Y104.600 E19.6051 F900
G1 X136.200 Y104.500 E19.6080
G1 X136.300 Y104.500 E19.6108
G0 X137.000 Y105.200 F10800
G1 X137.100 Y105.200 E19.6136 F900
G1 X137.000 Y105.100 E19.6176
G1 X137.100 Y105.100 E19.6204
G0 X137.600 Y105.500 F10800
G1 X137.700 Y105.500 E19.6233 F900
G1 X137.600 Y105.600 E19.6273
G1 X137.700 Y105.600 E19.6301
G0 X138.000 Y105.000 F10800
G1 X138.100 Y105.000 E19.6329 F900
G1 X138.100 Y104.900 E19.6357
G1 X138.000 Y104.900 E19.6386
G0 X137.500 Y104.600 F10800
G1 X137.400 Y104.600 E19.6414 F900
G1 X137.400 Y104.500 E19.6442
G1 X137.500 Y104.500 E19.6470
G0 X137.700 Y103.800 F10800
G1 X137.600 Y103.800 E19.6499 F900
G1 X137.700 Y103.700 E19.6539
G1 X137.600 Y103.700 E19.6567
G0 F4800 E18.6567
G0 X136.500 Y103.700 F10800
G0 F4800 E19.6567
G1 X136.400 Y103.700 E19.6595 F900
G1 X136.500 Y103.800 E19.6635
G1 X136.400 Y103.800 E19.6663
G0 X135.700 Y104.000 F10800
G1 X135.600 Y104.000 E19.6692 F900
G1 X135.600 Y103.900 E19.6720
G1 X135.700 Y103.900 E19.6748
G0 F4800 E18.6748
G0 X138.139 Y102.727 F10800
G0 X138.139 Y100.124
G0 X135.500 Y98.600
G0 F4800 E19.6748
G1 X135.400 Y98.600 E19.6777 F900
G1 X135.400 Y98.500 E19.6805
G1 X135.500 Y98.500 E19.6833
G0 F4800 E18.6833
G0 X137.000 Y98.700 F10800
G0 F4800 E19.6833
G1 X137.100 Y98.700 E19.6861 F900
G1 X137.000 Y98.800 E19.6901
G1 X137.100 Y98.800 E19.6930
G0 F4800 E18.6930
G0 X138.100 Y98.700 F10800
G0 F4800 E19.6930
G1 X138.000 Y98.700 E19.6958 F900
G1 X138.000 Y98.800 E19.6986
G1 X138.100 Y98.800 E19.7014
G0 X137.500 Y98.200 F10800
G1 X137.400 Y98.200 E19.7043 F900
G1 X137.500 Y98.100 E19.7083
G1 X137.400 Y98.100 E19.7111
G0 X138.000 Y97.600 F10800
G1 X138.100 Y97.600 E19.7139 F900
G1 X138.100 Y97.500 E19.7167
G1 X138.000 Y97.500 E19.7196
G0 F4800 E18.7196
G0 X136.700 Y97.500 F10800
G0 F4800 E19.7196
G1 X136.600 Y97.500 E19.7224 F900
G1 X136.700 Y97.600 E19.7264
G1 X136.600 Y97.600 E19.7292
G0 X136.300 Y98.200 F10800
G1 X136.200 Y98.200 E19.7320 F900
G1 X136.300 Y98.100 E19.7360
G1 X136.200 Y98.100 E19.7389
G0 F4800 E18.7389
G0 X135.300 Y97.600 F10800
G0 F4800 E19.7389
G1 X135.200 Y97.600 E19.7417 F900
G1 X135.300 Y97.500 E19.7457
G1 X135.200 Y97.500 E19.7485
G0 X134.800 Y98.200 F10800
G1 X134.900 Y98.200 E19.7513 F900
G1 X134.900 Y98.100 E19.7542
G1 X134.800 Y98.100 E19.7570
G0 X134.000 Y98.500 F10800
G1 X134.100 Y98.500 E19.7598 F900
G1 X134.100 Y98.600 E19.7627
G1 X134.000 Y98.600 E19.7655
G0 X133.500 Y98.200 F10800
G1 X133.400 Y98.200 E19.7683 F900
G1 X133.400 Y98.100 E19.7711
G1 X133.500 Y98.100 E19.7740
G0 X134.100 Y97.600 F10800
G1 X134.000 Y97.600 E19.7768 F900
G1 X134.100 Y97.500 E19.7808
G1 X134.000 Y97.500 E19.7836
G0 F4800 E18.7836
G0 X133.000 Y97.600 F10800
G0 F4800 E19.7836
G1 X133.100 Y97.600 E19.7864 F900
G1 X133.000 Y97.500 E19.7904
G1 X133.100 Y97.500 E19.7933
G0 F4800 E18.7933
G0 X132.100 Y97.600 F10800
G0 F4800 E19.7933
G1 X132.000 Y97.600 E19.7961 F900
G1 X132.100 Y97.500 E19.8001
G1 X132.000 Y97.500 E19.8029
G0 X131.300 Y97.300 F10800
G1 X131.200 Y97.300 E19.8057 F900
G1 X131.200 Y97.400 E19.8086
G1 X131.300 Y97.400 E19.8114
G0 X131.100 Y98.100 F10800
G1 X131.000 Y98.100 E19.8142 F900
G1 X131.000 Y98.200 E19.8170
G1 X131.100 Y98.200 E19.8199
G0 F4800 E18.8199
G0 X132.600 Y98.600 F10800
G0 F4800 E19.8199
G1 X132.700 Y98.600 E19.8227 F900
G1 X132.700 Y98.500 E19.8255
G1 X132.600 Y98.500 E19.8284
G0 X131.900 Y98.300 F10800
G1 X131.800 Y98.300 E19.8312 F900
G1 X131.900 Y98.400 E19.8352
G1 X131.800 Y98.400 E19.8380
G0 F4800 E18.8380
G0 X130.900 Y98.900 F10800
G0 F4800 E19.8380
G1 X130.800 Y98.900 E19.8408 F900
G1 X130.900 Y99.000 E19.8448
G1 X130.800 Y99.000 E19.8477
G0 X130.300 Y98.400 F10800
G1 X130.200 Y98.400 E19.8505 F900
G1 X130.200 Y98.300 E19.8533
G1 X130.300 Y98.300 E19.8561
G0 X130.400 Y97.600 F10800
G1 X130.500 Y97.600 E19.8590 F900
G1 X130.500 Y97.500 E19.8618
G1 X130.400 Y97.500 E19.8646
G0 X129.700 Y97.400 F10800
G1 X129.600 Y97.400 E19.8674 F900
G1 X129.600 Y97.300 E19.8703
G1 X129.700 Y97.300 E19.8731
G0 X128.900 Y97.500 F10800
G1 X128.800 Y97.500 E19.8759 F900
G1 X128.900 Y97.600 E19.8799
G1 X128.800 Y97.600 E19.8827
G0 X128.100 Y97.400 F10800
G1 X128.000 Y97.400 E19.8856 F900
G1 X128.100 Y97.300 E19.8896
G1 X128.000 Y97.300 E19.8924
G0 X127.100 Y97.300 F10800
G1 X127.000 Y97.300 E19.8952 F900
G1 X127.000 Y97.400 E19.8981
G1 X127.100 Y97.400 E19.9009
G0 F4800 E18.9009
G0 X126.100 Y97.300 F10800
G0 F4800 E19.9009
G1 X126.000 Y97.300 E19.9037 F900
G1 X126.000 Y97.400 E19.9065
G1 X126.100 Y97.400 E19.9094
G0 X125.300 Y97.600 F10800
G1 X125.200 Y97.600 E19.9122 F900
G1 X125.300 Y97.500 E19.9162
G1 X125.200 Y97.500 E19.9190
G0 F4800 E18.9190
G0 X124.400 Y96.400 F10800
G0 F4800 E19.9190
G1 X124.500 Y96.400 E19.9218 F900
G1 X124.400 Y96.300 E19.9258
G1 X124.500 Y96.300 E19.9287
G0 X123.800 Y95.800 F10800
G1 X123.900 Y95.800 E19.9315 F900
G0 X124.400 Y95.400 F10800
G1 X124.500 Y95.400 E19.9343 F900
G1 X124.400 Y95.300 E19.9383
G1 X124.500 Y95.300 E19.9411
G0 X124.400 Y94.400 F10800
G1 X124.500 Y94.400 E19.9440 F900
G1 X124.500 Y94.300 E19.9468
G1 X124.400 Y94.300 E19.9496
G0 X124.400 Y93.400 F10800
G1 X124.500 Y93.400 E19.9524 F900
G1 X124.500 Y93.300 E19.9553
G1 X124.400 Y93.300 E19.9581
G0 X124.100 Y92.800 F10800
G1 X124.000 Y92.800 E19.9609 F900
G1 X124.000 Y92.700 E19.9638
G1 X124.100 Y92.700 E19.9666
G0 X124.200 Y91.900 F10800
G1 X124.300 Y91.900 E19.9694 F900
G1 X124.300 Y92.000 E19.9722
G1 X124.200 Y92.000 E19.9751
G0 X123.500 Y92.300 F10800
G1 X123.400 Y92.300 E19.9779 F900
G1 X123.400 Y92.400 E19.9807
G1 X123.500 Y92.400 E19.9835
G0 X122.700 Y91.900 F10800
G1 X122.600 Y91.900 E19.9864 F900
G1 X122.600 Y92.000 E19.9892
G1 X122.700 Y92.000 E19.9920
G0 X122.500 Y91.200 F10800
G1 X122.400 Y91.200 E19.9948 F900
G1 X122.400 Y91.100 E19.9977
G1 X122.500 Y91.100 E20.0005
G0 X121.900 Y90.800 F10800
G1 X121.800 Y90.800 E20.0033 F900
G1 X121.900 Y90.700 E20.0073
G1 X121.800 Y90.700 E20.0102
G0 X121.300 Y90.400 F10800
G1 X121.200 Y90.400 E20.0130 F900
G1 X121.300 Y90.300 E20.0170
G1 X121.200 Y90.300 E20.0198
G0 X120.700 Y89.700 F10800
G1 X120.600 Y89.700 E20.0226 F900
G1 X120.600 Y89.800 E20.0255
G1 X120.700 Y89.800 E20.0283
G0 F4800 E19.0283
G0 X120.300 Y91.300 F10800
G0 F4800 E20.0283
G1 X120.200 Y91.300 E20.0311 F900
G0 X119.900 Y90.800 F10800
G1 X119.800 Y90.800 E20.0339 F900
G1 X119.900 Y90.700 E20.0379
G1 X119.800 Y90.700 E20.0408
G0 X119.300 Y90.400 F10800
G1 X119.200 Y90.400 E20.0436 F900
G1 X119.300 Y90.300 E20.0476
G1 X119.200 Y90.300 E20.0504
G0 X118.900 Y89.800 F10800
G1 X118.800 Y89.800 E20.0532 F900
G1 X118.800 Y89.700 E20.0561
G1 X118.900 Y89.700 E20.0589
G0 X119.800 Y89.600 F10800
G1 X119.900 Y89.600 E20.0617 F900
G1 X119.900 Y89.500 E20.0645
G1 X119.800 Y89.500 E20.0674
G0 X119.700 Y88.800 F10800
G1 X119.600 Y88.800 E20.0702 F900
G1 X119.600 Y88.700 E20.0730
G1 X119.700 Y88.700 E20.0759
G0 F4800 E19.0759
G0 X120.800 Y88.700 F10800
G0 F4800 E20.0759
G1 X120.900 Y88.700 E20.0787 F900
G1 X120.900 Y88.800 E20.0815
G1 X120.800 Y88.800 E20.0843
G0 X121.200 Y89.300 F10800
G1 X121.300 Y89.300 E20.0872 F900
G1 X121.200 Y89.400 E20.0912
G1 X121.300 Y89.400 E20.0940
G0 X121.800 Y89.700 F10800
G1 X121.900 Y89.700 E20.0968 F900
G1 X121.800 Y89.800 E20.1008
G1 X121.900 Y89.800 E20.1036
G0 X122.400 Y90.200 F10800
G1 X122.500 Y90.200 E20.1065 F900
G1 X122.400 Y90.100 E20.1105
G1 X122.500 Y90.100 E20.1133
G0 X123.000 Y90.600 F10800
G1 X123.100 Y90.600 E20.1161 F900
G1 X123.100 Y90.500 E20.1189
G1 X123.000 Y90.500 E20.1218
G0 X123.100 Y89.600 F10800
G1 X123.000 Y89.600 E20.1246 F900
G1 X123.100 Y89.500 E20.1286
G1 X123.000 Y89.500 E20.1314
G0 X122.400 Y89.100 F10800
G1 X122.500 Y89.100 E20.1342 F900
G1 X122.500 Y89.200 E20.1371
G1 X122.400 Y89.200 E20.1399
G0 X123.000 Y88.600 F10800
G1 X123.100 Y88.600 E20.1427 F900
G1 X123.100 Y88.500 E20.1456
G1 X123.000 Y88.500 E20.1484
G0 F4800 E19.1484
G0 X121.900 Y88.800 F10800
G0 F4800 E20.1484
G1 X121.800 Y88.800 E20.1512 F900
G1 X121.800 Y88.700 E20.1540
G1 X121.900 Y88.700 E20.1569
G0 X121.500 Y88.200 F10800
G1 X121.400 Y88.200 E20.1597 F900
G1 X121.400 Y88.100 E20.1625
G1 X121.500 Y88.100 E20.1653
G0 X121.500 Y87.200 F10800
G1 X121.400 Y87.200 E20.1682 F900
G1 X121.400 Y87.100 E20.1710
G1 X121.500 Y87.100 E20.1738
G0 X122.000 Y87.500 F10800
G1 X122.100 Y87.500 E20.1766 F900
G1 X122.000 Y87.600 E20.1806
G1 X122.100 Y87.600 E20.1835
G0 X122.800 Y87.800 F10800
G1 X122.900 Y87.800 E20.1863 F900
G1 X122.800 Y87.700 E20.1903
G1 X122.900 Y87.700 E20.1931
G0 X122.800 Y86.800 F10800
G1 X122.900 Y86.800 E20.1959 F900
G1 X122.900 Y86.700 E20.1988
G1 X122.800 Y86.700 E20.2016
G0 X122.000 Y86.600 F10800
G1 X122.100 Y86.600 E20.2044 F900
G1 X122.000 Y86.500 E20.2084
G1 X122.100 Y86.500 E20.2113
G0 X122.800 Y85.800 F10800
G1 X122.900 Y85.800 E20.2141 F900
G1 X122.900 Y85.700 E20.2169
G1 X122.800 Y85.700 E20.2197
G0 X122.100 Y85.600 F10800
G1 X122.000 Y85.600 E20.2226 F900
G1 X122.000 Y85.500 E20.2254
G1 X122.100 Y85.500 E20.2282
G0 X122.100 Y84.600 F10800
G1 X122.000 Y84.600 E20.2310 F900
G1 X122.000 Y84.500 E20.2339
G1 X122.100 Y84.500 E20.2367
G0 X122.900 Y84.800 F10800
G1 X122.800 Y84.800 E20.2395 F900
G1 X122.800 Y84.700 E20.2423
G1 X122.900 Y84.700 E20.2452
G0 X122.900 Y83.800 F10800
G1 X122.800 Y83.800 E20.2480 F900
G1 X122.800 Y83.700 E20.2508
G1 X122.900 Y83.700 E20.2537
G0 X122.900 Y82.800 F10800
G1 X122.800 Y82.800 E20.2565 F900
G1 X122.900 Y82.700 E20.2605
G1 X122.800 Y82.700 E20.2633
G0 X121.900 Y82.300 F10800
G1 X121.800 Y82.300 E20.2661 F900
G1 X121.900 Y82.400 E20.2701
G1 X121.800 Y82.400 E20.2730
G0 X121.900 Y83.300 F10800
G1 X121.800 Y83.300 E20.2758 F900
G1 X121.900 Y83.400 E20.2798
G1 X121.800 Y83.400 E20.2826
G0 X121.500 Y84.100 F10800
G1 X121.400 Y84.100 E20.2854 F900
G1 X121.500 Y84.200 E20.2894
G1 X121.400 Y84.200 E20.2923
G0 X120.900 Y83.800 F10800
G1 X120.800 Y83.800 E20.2951 F900
G1 X120.800 Y83.700 E20.2979
G1 X120.900 Y83.700 E20.3007
G0 X120.800 Y82.800 F10800
G1 X120.900 Y82.800 E20.3036 F900
G1 X120.900 Y82.700 E20.3064
G1 X120.800 Y82.700 E20.3092
G0 X120.100 Y82.300 F10800
G1 X120.000 Y82.300 E20.3120 F900
G1 X120.000 Y82.400 E20.3149
G1 X120.100 Y82.400 E20.3177
G0 X119.800 Y83.100 F10800
G1 X119.900 Y83.100 E20.3205 F900
G1 X119.900 Y83.200 E20.3233
G1 X119.800 Y83.200 E20.3262
G0 X118.900 Y83.200 F10800
G1 X118.800 Y83.200 E20.3290 F900
G1 X118.800 Y83.100 E20.3318
G1 X118.900 Y83.100 E20.3347
G0 X119.000 Y82.400 F10800
G1 X119.100 Y82.400 E20.3375 F900
G1 X119.100 Y82.300 E20.3403
G1 X119.000 Y82.300 E20.3431
G0 X118.100 Y82.500 F10800
G1 X118.000 Y82.500 E20.3460 F900
G1 X118.000 Y82.600 E20.3488
G1 X118.100 Y82.600 E20.3516
G0 X118.000 Y83.500 F10800
G1 X118.100 Y83.500 E20.3544 F900
G1 X118.100 Y83.600 E20.3573
G1 X118.000 Y83.600 E20.3601
G0 X118.400 Y84.100 F10800
G1 X118.500 Y84.100 E20.3629 F900
G1 X118.400 Y84.200 E20.3669
G1 X118.500 Y84.200 E20.3697
G0 X119.400 Y84.100 F10800
G1 X119.500 Y84.100 E20.3726 F900
G1 X119.500 Y84.200 E20.3754
G1 X119.400 Y84.200 E20.3782
G0 X119.400 Y85.100 F10800
G1 X119.500 Y85.100 E20.3811 F900
G1 X119.500 Y85.200 E20.3839
G1 X119.400 Y85.200 E20.3867
G0 X118.800 Y84.700 F10800
G1 X118.900 Y84.700 E20.3895 F900
G1 X118.900 Y84.800 E20.3924
G1 X118.800 Y84.800 E20.3952
G0 X118.100 Y85.300 F10800
G1 X118.000 Y85.300 E20.3980 F900
G1 X118.000 Y85.400 E20.4008
G1 X118.100 Y85.400 E20.4037
G0 X118.400 Y85.900 F10800
G1 X118.500 Y85.900 E20.4065 F900
G1 X118.400 Y86.000 E20.4105
G1 X118.500 Y86.000 E20.4133
