; GCode generated by CraftWare

G28 X0 Y0
G28 Z0

M190 S60 ;set bed temp (wait)
M109 S215 ;set head temp (wait)

; ------------------------------------
; Raft Layer #0
; ------------------------------------
G21 ; mm
G90 ; abs
G92 E0 ; reset extr
M106 S0
;segType:Raft
G0 F4800 E-1.0000
G0 F300 Z0.300
G0 X0.000 Y0.000 F10800
G0 F4800 E0.0000
G1 X119.189 Y121.932 E8.5067 F600
G1 X119.189 Y78.645 E10.6663
G1 X123.047 Y77.265 E10.8708
G1 X123.047 Y122.936 E13.1493
G1 X126.906 Y122.936 E13.3418
G1 X126.906 Y77.265 E15.6203
G1 X130.764 Y87.805 E16.1802
G1 X130.764 Y108.507 E17.2131
G1 X134.622 Y108.130 E17.4065
G1 X134.622 Y92.447 E18.1889
G1 X138.481 Y92.447 E18.3814
G1 X138.481 Y108.130 E19.1639
G1 X142.339 Y108.130 E19.3564
G1 X142.339 Y93.074 E20.1075
G1 X150.056 Y88.934 E20.5444
G1 X150.056 Y112.647 E21.7275
G1 X153.914 Y122.936 E22.2757
G1 X153.914 Y77.265 E24.5542
G1 X157.772 Y77.265 E24.7467
G1 X157.772 Y122.936 E27.0252
G1 X161.631 Y121.932 E27.2241
G1 X161.631 Y78.645 E29.3837
G1 X165.489 Y92.447 E30.0987
G1 X165.489 Y108.130 E30.8812
G1 X169.347 Y108.130 E31.0736
G1 X169.347 Y92.447 E31.8561
G1 X173.206 Y92.447 E32.0486
G1 X173.206 Y108.130 E32.8311
G1 X177.064 Y106.499 E33.0400
G1 X177.064 Y93.827 E33.6723



; ------------------------------------
; Raft Layer #1
; ------------------------------------
G21 ; mm
G90 ; abs
G92 E0 ; reset extr
M106 S0
;segType:Raft
G0 F4800 E-1.0000
G0 F300 Z0.600
G0 X177.097 Y93.883 F10800
G0 F4800 E0.0000
G1 X148.703 Y93.883 E1.4166 F3600
G1 X148.703 Y92.628 E1.4793
G1 X175.812 Y92.628 E2.8318
G1 X177.611 Y95.139 E2.9859
G1 X148.703 Y95.139 E4.4282
G1 X148.703 Y96.395 E4.4908
G1 X177.740 Y96.395 E5.9395
G1 X178.254 Y97.651 E6.0072
G1 X148.574 Y97.651 E7.4879
G1 X148.574 Y98.907 E7.5506
G1 X178.254 Y98.907 E9.0313
G1 X178.254 Y100.163 E9.0939
G1 X148.574 Y100.163 E10.5746
G1 X148.574 Y101.419 E10.6373
G1 X178.254 Y101.419 E12.1180
G1 X178.254 Y102.675 E12.1807
G1 X148.574 Y102.675 E13.6614
G1 X148.574 Y103.931 E13.7240
G1 X177.740 Y103.931 E15.1791
G1 X177.740 Y105.187 E15.2418
G1 X148.574 Y105.187 E16.6968
G1 X148.574 Y106.443 E16.7595
G1 X176.969 Y106.443 E18.1761
G1 X175.684 Y107.699 E18.2657
G1 X148.574 Y107.699 E19.6183
G1 X148.574 Y108.955 E19.6809
G1 X164.121 Y108.955 E20.4565
G1 X164.121 Y110.211 E20.5192
G1 X148.574 Y110.211 E21.2948
G1 X148.960 Y111.467 E21.3603
G1 X163.735 Y111.467 E22.0975
G1 X162.964 Y112.723 E22.1710
G1 X150.116 Y112.723 E22.8120
G1 X150.116 Y113.979 E22.8747
G1 X162.964 Y113.979 E23.5157
G1 X162.964 Y115.235 E23.5783
G1 X150.116 Y115.235 E24.2193
G1 X151.015 Y121.514 E24.5358
G1 X161.936 Y121.514 E25.0807
G1 X162.964 Y120.258 E25.1616
G1 X150.373 Y120.258 E25.7898
G1 X150.373 Y119.002 E25.8525
G1 X162.964 Y119.002 E26.4807
G1 X162.964 Y117.746 E26.5433
G1 X150.373 Y117.746 E27.1715
G1 X150.373 Y116.490 E27.2342
G1 X162.964 Y116.490 E27.8623
G0 F4800 E26.8623
G0 X160.652 Y122.770 F10800
G0 F4800 E27.8623
G1 X152.300 Y122.770 E28.2790 F3600
G0 F4800 E27.2790
G0 X142.664 Y107.699 F10800
G0 F4800 E28.2790
G1 X115.940 Y107.699 E29.6123 F3600
G1 X115.940 Y106.443 E29.6749
G1 X143.949 Y106.443 E31.0723
G1 X144.334 Y105.187 E31.1379
G1 X115.940 Y105.187 E32.5545
G1 X115.940 Y103.931 E32.6171
G1 X144.720 Y103.931 E34.0530
G1 X145.491 Y102.675 E34.1265
G1 X115.940 Y102.675 E35.6008
G1 X115.940 Y101.419 E35.6634
G1 X145.491 Y101.419 E37.1378
G1 X145.491 Y100.163 E37.2004
G1 X115.940 Y100.163 E38.6747
G1 X115.940 Y98.907 E38.7374
G1 X145.491 Y98.907 E40.2117
G1 X145.491 Y97.651 E40.2743
G1 X115.940 Y97.651 E41.7486
G1 X115.940 Y96.395 E41.8113
G1 X144.977 Y96.395 E43.2600
G1 X144.720 Y95.139 E43.3239
G1 X115.940 Y95.139 E44.7598
G1 X116.711 Y88.860 E45.0754
G1 X131.615 Y88.860 E45.8190
G1 X131.615 Y90.116 E45.8816
G1 X115.940 Y90.116 E46.6636
G1 X115.940 Y91.372 E46.7263
G1 X131.615 Y91.372 E47.5083
G1 X130.458 Y87.604 E47.7050
G1 X117.353 Y87.604 E48.3588
G1 X117.353 Y86.348 E48.4214
G1 X130.201 Y86.348 E49.0624
G1 X130.201 Y85.092 E49.1251
G1 X117.353 Y85.092 E49.7661
G1 X117.353 Y83.836 E49.8288
G1 X130.201 Y83.836 E50.4698
G1 X130.201 Y82.580 E50.5324
G1 X117.353 Y82.580 E51.1734
G1 X117.353 Y81.324 E51.2361
G1 X130.201 Y81.324 E51.8771
G1 X130.201 Y80.068 E51.9397
G1 X117.867 Y80.068 E52.5551
G1 X118.895 Y78.812 E52.6361
G1 X129.816 Y78.812 E53.1809
G1 X128.531 Y77.556 E53.2705
G1 X120.180 Y77.556 E53.6872
G0 F4800 E52.6872
G0 X140.737 Y92.628 F10800
G0 F4800 E53.6872
G1 X115.940 Y92.628 E54.9243 F3600
G1 X115.940 Y93.883 E54.9870
G1 X143.563 Y93.883 E56.3651
G1 X148.703 Y91.372 E56.6505
G1 X164.378 Y91.372 E57.4325
G1 X164.378 Y90.116 E57.4952
G1 X148.960 Y90.116 E58.2644
G1 X150.116 Y88.860 E58.3496
G1 X164.378 Y88.860 E59.0611
G1 X163.221 Y87.604 E59.1463
G1 X150.373 Y87.604 E59.7873
G1 X150.373 Y86.348 E59.8499
G1 X162.964 Y86.348 E60.4781
G1 X162.964 Y85.092 E60.5408
G1 X150.373 Y85.092 E61.1689
G1 X150.373 Y83.836 E61.2316
G1 X162.964 Y83.836 E61.8598
G1 X162.579 Y82.580 E61.9253
G1 X150.116 Y82.580 E62.5471
G1 X150.116 Y81.324 E62.6098
G1 X162.579 Y81.324 E63.2315
G1 X162.579 Y80.068 E63.2942
G1 X150.116 Y80.068 E63.9160
G1 X150.501 Y78.812 E63.9815
G1 X161.808 Y78.812 E64.5456
G1 X159.110 Y77.556 E64.6941
G1 X151.786 Y77.556 E65.0594
G0 F4800 E64.0594
G0 X130.073 Y108.955 F10800
G0 F4800 E65.0594
G1 X115.940 Y108.955 E65.7645 F3600
G1 X115.940 Y110.211 E65.8272
G1 X129.944 Y110.211 E66.5259
G1 X129.559 Y111.467 E66.5914
G1 X116.325 Y111.467 E67.2517
G1 X117.353 Y115.235 E67.4465
G1 X130.201 Y115.235 E68.0875
G1 X130.201 Y116.490 E68.1502
G1 X117.353 Y116.490 E68.7912
G1 X117.353 Y117.746 E68.8538
G1 X130.201 Y117.746 E69.4948
G1 X130.201 Y119.002 E69.5575
G1 X117.482 Y119.002 E70.1921
G1 X117.482 Y120.258 E70.2547
G1 X129.944 Y120.258 E70.8765
G1 X129.302 Y121.514 E70.9469
G1 X118.766 Y121.514 E71.4725
G1 X120.051 Y122.770 E71.5621
G1 X128.017 Y122.770 E71.9596
G0 F4800 E70.9596
G0 X130.073 Y113.979 F10800
G0 F4800 E71.9596
G1 X117.482 Y113.979 E72.5877 F3600
G1 X117.482 Y112.723 E72.6504
G1 X129.944 Y112.723 E73.2722



; ------------------------------------
; Raft Layer #2
; ------------------------------------
G21 ; mm
G90 ; abs
G92 E0 ; reset extr
M106 S0
;segType:Raft
G0 F4800 E-1.0000
G0 F300 Z0.900
G0 X129.993 Y112.145 F10800
G0 F4800 E0.0000
G1 X129.993 Y121.054 E0.4444 F3600
G0 F4800 E-0.5556
G0 X129.993 Y110.640 F10800
G0 F4800 E0.4444
G1 X129.993 Y78.896 E2.0281 F3600
G1 X129.607 Y78.520 E2.0550
G1 X129.607 Y111.644 E3.7076
G1 X129.607 Y111.769 E3.7138
G1 X129.607 Y121.430 E4.1958
G1 X129.221 Y121.807 E4.2227
G1 X129.221 Y78.143 E6.4011
G1 X128.835 Y77.767 E6.4280
G1 X128.835 Y122.183 E8.6439
G1 X128.449 Y122.559 E8.6708
G1 X128.449 Y77.391 E10.9243
G1 X128.063 Y77.265 E10.9445
G1 X128.063 Y122.936 E13.2230
G1 X127.678 Y122.936 E13.2423
G1 X127.678 Y77.265 E15.5208
G1 X127.292 Y77.265 E15.5400
G1 X127.292 Y122.936 E17.8186
G1 X126.906 Y122.936 E17.8378
G1 X126.906 Y77.265 E20.1163
G1 X126.520 Y77.265 E20.1356
G1 X126.520 Y122.936 E22.4141
G1 X126.134 Y122.936 E22.4333
G1 X126.134 Y77.265 E24.7119
G1 X125.748 Y77.265 E24.7311
G1 X125.748 Y122.936 E27.0096
G1 X125.363 Y122.936 E27.0289
G1 X125.363 Y77.265 E29.3074
G1 X124.977 Y77.265 E29.3266
G1 X124.977 Y122.936 E31.6052
G1 X124.591 Y122.936 E31.6244
G1 X124.591 Y77.265 E33.9029
G1 X124.205 Y77.265 E33.9222
G1 X124.205 Y122.936 E36.2007
G1 X123.819 Y122.936 E36.2199
G1 X123.819 Y77.265 E38.4985
G1 X123.433 Y77.265 E38.5177
G1 X123.433 Y122.936 E40.7962
G1 X123.048 Y122.936 E40.8155
G1 X123.048 Y77.265 E43.0940
G1 X122.662 Y77.265 E43.1132
G1 X122.662 Y122.936 E45.3918
G1 X122.276 Y122.936 E45.4110
G1 X122.276 Y77.265 E47.6895
G1 X121.890 Y77.265 E47.7088
G1 X121.890 Y122.936 E49.9873
G1 X121.504 Y122.936 E50.0065
G1 X121.504 Y77.265 E52.2851
G1 X121.118 Y77.265 E52.3043
G1 X121.118 Y122.936 E54.5828
G1 X120.733 Y122.936 E54.6021
G1 X120.733 Y77.265 E56.8806
G1 X120.347 Y77.516 E56.9036
G1 X120.347 Y122.936 E59.1696
G1 X119.961 Y122.685 E59.1925
G1 X119.961 Y77.893 E61.4272
G1 X119.575 Y78.269 E61.4541
G1 X119.575 Y122.308 E63.6513
G1 X119.189 Y121.932 E63.6781
G1 X119.189 Y78.645 E65.8377
G1 X118.803 Y79.022 E65.8646
G1 X118.803 Y121.556 E67.9866
G1 X118.418 Y121.179 E68.0135
G1 X118.418 Y79.649 E70.0855
G1 X118.032 Y80.025 E70.1124
G1 X118.032 Y120.803 E72.1468
G1 X117.646 Y120.426 E72.1737
G1 X117.646 Y80.402 E74.1705
G0 F4800 E73.1705
G0 X117.260 Y88.432 F10800
G0 F4800 E74.1705
G1 X117.260 Y112.396 E75.3661 F3600
G1 X116.874 Y112.020 E75.3930
G1 X116.874 Y88.808 E76.5510
G1 X116.488 Y89.185 E76.5779
G1 X116.488 Y111.644 E77.6984
G1 X116.103 Y111.267 E77.7253
G1 X116.103 Y89.561 E78.8082
G0 F4800 E77.8082
G0 X130.378 Y87.428 F10800
G0 F4800 E78.8082
G1 X130.378 Y108.883 E79.8786 F3600
G1 X130.764 Y108.507 E79.9055
G1 X130.764 Y87.805 E80.9383
G1 X131.150 Y88.181 E80.9652
G1 X131.150 Y108.130 E81.9605
G1 X131.536 Y108.130 E81.9798
G1 X131.536 Y88.557 E82.9563
G0 F4800 E81.9563
G0 X131.922 Y92.447 F10800
G0 F4800 E82.9563
G1 X131.922 Y108.130 E83.7387 F3600
G1 X132.308 Y108.130 E83.7580
G1 X132.308 Y92.447 E84.5404
G1 X132.693 Y92.447 E84.5597
G1 X132.693 Y108.130 E85.3422
G1 X133.079 Y108.130 E85.3614
G1 X133.079 Y92.447 E86.1439
G1 X133.465 Y92.447 E86.1631
G1 X133.465 Y108.130 E86.9456
G1 X133.851 Y108.130 E86.9648
G1 X133.851 Y92.447 E87.7473
G1 X134.237 Y92.447 E87.7665
G1 X134.237 Y108.130 E88.5490
G1 X134.623 Y108.130 E88.5682
G1 X134.623 Y92.447 E89.3507
G1 X135.008 Y92.447 E89.3699
G1 X135.008 Y108.130 E90.1524
G1 X135.394 Y108.130 E90.1716
G1 X135.394 Y92.447 E90.9541
G1 X135.780 Y92.447 E90.9733
G1 X135.780 Y108.130 E91.7558
G1 X136.166 Y108.130 E91.7750
G1 X136.166 Y92.447 E92.5575
G1 X136.552 Y92.447 E92.5767
G1 X136.552 Y108.130 E93.3592
G1 X136.938 Y108.130 E93.3784
G1 X136.938 Y92.447 E94.1609
G1 X137.323 Y92.447 E94.1801
G1 X137.323 Y108.130 E94.9626
G1 X137.709 Y108.130 E94.9819
G1 X137.709 Y92.447 E95.7643
G1 X138.095 Y92.447 E95.7836
G1 X138.095 Y108.130 E96.5660
G1 X138.481 Y108.130 E96.5853
G1 X138.481 Y92.447 E97.3677
G1 X138.867 Y92.447 E97.3870
G1 X138.867 Y108.130 E98.1694
G1 X139.253 Y108.130 E98.1887
G1 X139.253 Y92.447 E98.9711
G1 X139.638 Y92.447 E98.9904
G1 X139.638 Y108.130 E99.7728
G1 X140.024 Y108.130 E99.7921
G1 X140.024 Y92.447 E100.5745
G1 X140.410 Y92.447 E100.5938
G1 X140.410 Y108.130 E101.3762
G1 X140.796 Y108.130 E101.3955
G1 X140.796 Y92.572 E102.1717
G1 X141.182 Y92.949 E102.1986
G1 X141.182 Y108.130 E102.9560
G1 X141.568 Y108.130 E102.9752
G1 X141.568 Y93.074 E103.7264
G1 X141.953 Y93.074 E103.7457
G1 X141.953 Y108.130 E104.4968
G1 X142.339 Y108.130 E104.5161
G1 X142.339 Y93.074 E105.2672
G1 X142.725 Y93.074 E105.2865
G1 X142.725 Y107.880 E106.0251
G1 X143.111 Y107.503 E106.0520
G1 X143.111 Y93.325 E106.7594
G1 X143.497 Y93.702 E106.7862
G1 X143.497 Y107.127 E107.4560
G1 X143.882 Y106.750 E107.4829
G1 X143.882 Y94.078 E108.1151
G1 X144.268 Y94.454 E108.1420
G1 X144.268 Y106.374 E108.7367
G0 F4800 E107.7367
G0 X145.426 Y103.488 F10800
G0 F4800 E108.7367
G1 X145.426 Y96.713 E109.0747 F3600
G1 X145.040 Y95.960 E109.1169
G1 X145.040 Y103.865 E109.5113
G1 X144.654 Y104.617 E109.5535
G1 X144.654 Y94.831 E110.0417
G0 F4800 E109.0417
G0 X148.898 Y90.188 F10800
G0 F4800 E110.0417
G1 X148.898 Y111.518 E111.1059 F3600
G1 X149.284 Y111.895 E111.1328
G1 X149.284 Y89.812 E112.2345
G1 X149.670 Y89.310 E112.2661
G1 X149.670 Y112.271 E113.4116
G1 X150.056 Y112.647 E113.4385
G1 X150.056 Y88.934 E114.6216
G0 F4800 E113.6216
G0 X163.174 Y87.554 F10800
G0 F4800 E114.6216
G1 X163.174 Y112.145 E115.8484 F3600
G1 X163.560 Y111.769 E115.8753
G1 X163.560 Y87.930 E117.0647
G1 X163.946 Y88.306 E117.0916
G1 X163.946 Y111.393 E118.2433
G0 F4800 E117.2433
G0 X177.450 Y105.872 F10800
G0 F4800 E118.2433
G1 X177.450 Y94.203 E118.8255 F3600
G1 X177.064 Y93.827 E118.8524
G1 X177.064 Y106.499 E119.4846
G1 X176.678 Y106.876 E119.5115
G1 X176.678 Y93.451 E120.1813
G1 X176.292 Y93.074 E120.2082
G1 X176.292 Y107.252 E120.9155
G1 X175.906 Y107.629 E120.9424
G1 X175.906 Y92.698 E121.6873
G1 X175.521 Y92.447 E121.7103
G1 X175.521 Y108.005 E122.4865
G1 X175.135 Y108.130 E122.5067
G1 X175.135 Y92.447 E123.2892
G1 X174.749 Y92.447 E123.3084
G1 X174.749 Y108.130 E124.0909
G1 X174.363 Y108.130 E124.1101
G1 X174.363 Y92.447 E124.8926
G1 X173.977 Y92.447 E124.9118
G1 X173.977 Y108.130 E125.6943
G1 X173.591 Y108.130 E125.7135
G1 X173.591 Y92.447 E126.4960
G1 X173.206 Y92.447 E126.5152
G1 X173.206 Y108.130 E127.2977
G1 X172.820 Y108.130 E127.3169
G1 X172.820 Y92.447 E128.0994
G1 X172.434 Y92.447 E128.1187
G1 X172.434 Y108.130 E128.9011
G1 X172.048 Y108.130 E128.9204
G1 X172.048 Y92.447 E129.7028
G1 X171.662 Y92.447 E129.7221
G1 X171.662 Y108.130 E130.5045
G1 X171.276 Y108.130 E130.5238
G1 X171.276 Y92.447 E131.3063
G1 X170.891 Y92.447 E131.3255
G1 X170.891 Y108.130 E132.1080
G1 X170.505 Y108.130 E132.1272
G1 X170.505 Y92.447 E132.9097
G1 X170.119 Y92.447 E132.9289
G1 X170.119 Y108.130 E133.7114
G1 X169.733 Y108.130 E133.7306
G1 X169.733 Y92.447 E134.5131
G1 X169.347 Y92.447 E134.5323
G1 X169.347 Y108.130 E135.3148
G1 X168.961 Y108.130 E135.3340
G1 X168.961 Y92.447 E136.1165
G1 X168.576 Y92.447 E136.1357
G1 X168.576 Y108.130 E136.9182
G1 X168.190 Y108.130 E136.9375
G1 X168.190 Y92.447 E137.7199
G1 X167.804 Y92.447 E137.7392
G1 X167.804 Y108.130 E138.5216
G1 X167.418 Y108.130 E138.5409
G1 X167.418 Y92.447 E139.3233
G1 X167.032 Y92.447 E139.3426
G1 X167.032 Y108.130 E140.1251
G1 X166.647 Y108.130 E140.1443
G1 X166.647 Y92.447 E140.9267
G1 X166.261 Y92.447 E140.9460
G1 X166.261 Y108.130 E141.7285
G1 X165.875 Y108.130 E141.7477
G1 X165.875 Y92.447 E142.5302
G1 X165.489 Y92.447 E142.5494
G1 X165.489 Y108.130 E143.3319
G1 X165.103 Y108.130 E143.3511
G1 X165.103 Y92.447 E144.1336
G1 X164.717 Y92.447 E144.1528
G1 X164.717 Y108.130 E144.9353
G1 X164.332 Y108.632 E144.9669
G1 X164.332 Y88.683 E145.9622
G0 F4800 E144.9622
G0 X162.788 Y83.162 F10800
G0 F4800 E145.9622
G1 X162.788 Y120.552 E147.8276 F3600
G1 X162.402 Y121.179 E147.8643
G1 X162.402 Y79.398 E149.9488
G1 X162.017 Y79.022 E149.9757
G1 X162.017 Y121.556 E152.0977
G1 X161.631 Y121.932 E152.1246
G1 X161.631 Y78.645 E154.2841
G1 X161.245 Y78.269 E154.3110
G1 X161.245 Y122.308 E156.5082
G1 X160.859 Y122.685 E156.5351
G1 X160.859 Y77.893 E158.7698
G1 X160.473 Y77.642 E158.7927
G1 X160.473 Y122.936 E161.0525
G1 X160.087 Y122.936 E161.0717
G1 X160.087 Y77.642 E163.3314
G1 X159.702 Y77.642 E163.3507
G1 X159.702 Y122.936 E165.6104
G1 X159.316 Y122.936 E165.6297
G1 X159.316 Y77.642 E167.8894
G1 X158.930 Y77.391 E167.9124
G1 X158.930 Y122.936 E170.1847
G1 X158.544 Y122.936 E170.2039
G1 X158.544 Y77.265 E172.4824
G1 X158.158 Y77.265 E172.5017
G1 X158.158 Y122.936 E174.7802
G1 X157.772 Y122.936 E174.7994
G1 X157.772 Y77.265 E177.0780
G1 X157.387 Y77.265 E177.0972
G1 X157.387 Y122.936 E179.3757
G1 X157.001 Y122.936 E179.3950
G1 X157.001 Y77.265 E181.6735
G1 X156.615 Y77.265 E181.6928
G1 X156.615 Y122.936 E183.9713
G1 X156.229 Y122.936 E183.9905
G1 X156.229 Y77.265 E186.2691
G1 X155.843 Y77.265 E186.2883
G1 X155.843 Y122.936 E188.5668
G1 X155.457 Y122.936 E188.5861
G1 X155.457 Y77.265 E190.8646
G1 X155.072 Y77.265 E190.8839
G1 X155.072 Y122.936 E193.1624
G1 X154.686 Y122.936 E193.1816
G1 X154.686 Y77.265 E195.4602
G1 X154.300 Y77.265 E195.4794
G1 X154.300 Y122.936 E197.7579
G1 X153.914 Y122.936 E197.7772
G1 X153.914 Y77.265 E200.0557
G1 X153.528 Y77.265 E200.0749
G1 X153.528 Y122.936 E202.3535
G1 X153.142 Y122.936 E202.3727
G1 X153.142 Y77.265 E204.6512
G1 X152.757 Y77.265 E204.6705
G1 X152.757 Y122.936 E206.9490
G1 X152.371 Y122.936 E206.9683
G1 X152.371 Y77.265 E209.2468
G1 X151.985 Y77.391 E209.2670
G1 X151.985 Y122.559 E211.5205
G1 X151.599 Y122.183 E211.5474
G1 X151.599 Y77.767 E213.7633
G1 X151.213 Y78.143 E213.7902
G1 X151.213 Y121.807 E215.9686
G1 X150.827 Y121.430 E215.9955
G1 X150.827 Y78.520 E218.1363
G1 X150.442 Y78.896 E218.1632
G1 X150.442 Y121.054 E220.2664
G0 F4800 E219.2664
G0 X177.836 Y96.462 F10800
G0 F4800 E220.2664
G1 X177.836 Y103.739 E220.6295 F3600
G1 X178.221 Y103.363 E220.6564
G1 X178.221 Y96.838 E220.9819



; ------------------------------------
; Raft Layer #3
; ------------------------------------
G21 ; mm
G90 ; abs
G92 E0 ; reset extr
M106 S0
;segType:Raft
G0 F4800 E-1.0000
G0 F300 Z1.200
G0 X175.684 Y107.699 F10800
G0 F4800 E0.0000
G1 X148.574 Y107.699 E1.3525 F3600
G1 X148.574 Y107.322 E1.3713
G1 X176.069 Y107.322 E2.7430
G1 X176.455 Y106.945 E2.7699
G1 X148.574 Y106.945 E4.1609
G1 X148.574 Y106.569 E4.1797
G1 X176.840 Y106.569 E5.5899
G1 X177.226 Y106.192 E5.6168
G1 X148.574 Y106.192 E7.0462
G1 X148.574 Y105.815 E7.0650
G1 X177.354 Y105.815 E8.5009
G1 X177.740 Y105.438 E8.5278
G1 X148.574 Y105.438 E9.9828
G1 X148.574 Y105.061 E10.0016
G1 X177.740 Y105.061 E11.4567
G1 X177.740 Y104.685 E11.4755
G1 X148.574 Y104.685 E12.9306
G1 X148.574 Y104.308 E12.9494
G1 X177.740 Y104.308 E14.4044
G1 X177.740 Y103.931 E14.4232
G1 X148.574 Y103.931 E15.8783
G1 X148.574 Y103.554 E15.8971
G1 X177.868 Y103.554 E17.3586
G1 X178.254 Y103.177 E17.3855
G1 X148.574 Y103.177 E18.8662
G1 X148.574 Y102.801 E18.8850
G1 X178.254 Y102.801 E20.3657
G1 X178.254 Y102.424 E20.3845
G1 X148.574 Y102.424 E21.8652
G1 X148.574 Y102.047 E21.8840
G1 X178.254 Y102.047 E23.3647
G1 X178.254 Y101.670 E23.3835
G1 X148.574 Y101.670 E24.8642
G1 X148.574 Y101.294 E24.8830
G1 X178.254 Y101.294 E26.3637
G1 X178.254 Y100.917 E26.3825
G1 X148.574 Y100.917 E27.8632
G1 X148.574 Y100.540 E27.8820
G1 X178.254 Y100.540 E29.3627
G1 X178.254 Y100.163 E29.3815
G1 X148.574 Y100.163 E30.8623
G1 X148.574 Y99.786 E30.8811
G1 X178.254 Y99.786 E32.3618
G1 X178.254 Y99.410 E32.3806
G1 X148.574 Y99.410 E33.8613
G1 X148.574 Y99.033 E33.8801
G1 X178.254 Y99.033 E35.3608
G1 X178.254 Y98.656 E35.3796
G1 X148.574 Y98.656 E36.8603
G1 X148.574 Y98.279 E36.8791
G1 X178.254 Y98.279 E38.3598
G1 X178.254 Y97.902 E38.3786
G1 X148.574 Y97.902 E39.8593
G1 X148.574 Y97.526 E39.8781
G1 X178.254 Y97.526 E41.3588
G1 X178.254 Y97.149 E41.3776
G1 X148.574 Y97.149 E42.8583
G1 X148.703 Y96.772 E42.8782
G1 X178.125 Y96.772 E44.3461
G1 X177.740 Y96.395 E44.3730
G1 X148.703 Y96.395 E45.8216
G1 X148.703 Y96.019 E45.8404
G1 X177.611 Y96.019 E47.2827
G1 X177.611 Y95.642 E47.3015
G1 X148.703 Y95.642 E48.7437
G1 X148.703 Y95.265 E48.7625
G1 X177.611 Y95.265 E50.2048
G1 X177.611 Y94.888 E50.2236
G1 X148.703 Y94.888 E51.6658
G1 X148.703 Y94.511 E51.6846
G1 X177.611 Y94.511 E53.1269
G1 X177.354 Y94.135 E53.1496
G1 X148.703 Y94.135 E54.5791
G1 X148.703 Y93.758 E54.5979
G1 X176.969 Y93.758 E56.0080
G1 X176.583 Y93.381 E56.0349
G1 X148.703 Y93.381 E57.4259
G1 X148.703 Y93.004 E57.4447
G1 X176.198 Y93.004 E58.8164
G1 X175.812 Y92.628 E58.8433
G1 X148.703 Y92.628 E60.1958
G1 X148.703 Y92.251 E60.2146
G1 X164.378 Y92.251 E60.9967
G1 X164.378 Y91.874 E61.0155
G1 X148.703 Y91.874 E61.7975
G1 X148.703 Y91.497 E61.8163
G1 X164.378 Y91.497 E62.5983
G1 X164.378 Y91.120 E62.6171
G1 X148.703 Y91.120 E63.3991
G1 X148.703 Y90.744 E63.4179
G1 X164.378 Y90.744 E64.1999
G1 X164.378 Y90.367 E64.2187
G1 X148.703 Y90.367 E65.0008
G1 X149.088 Y89.990 E65.0277
G1 X164.378 Y89.990 E65.7904
G1 X164.378 Y89.613 E65.8092
G1 X149.345 Y89.613 E66.5592
G1 X149.731 Y89.236 E66.5861
G1 X164.378 Y89.236 E67.3168
G1 X164.378 Y88.860 E67.3356
G1 X150.116 Y88.860 E68.0472
G1 X150.373 Y88.483 E68.0699
G1 X164.121 Y88.483 E68.7558
G1 X163.735 Y88.106 E68.7827
G1 X150.373 Y88.106 E69.4493
G1 X150.373 Y87.729 E69.4681
G1 X163.350 Y87.729 E70.1155
G1 X162.964 Y87.353 E70.1424
G1 X150.373 Y87.353 E70.7706
G1 X150.373 Y86.976 E70.7894
G1 X162.964 Y86.976 E71.4176
G1 X162.964 Y86.599 E71.4364
G1 X150.373 Y86.599 E72.0645
G1 X150.373 Y86.222 E72.0833
G1 X162.964 Y86.222 E72.7115
G1 X162.964 Y85.845 E72.7303
G1 X150.373 Y85.845 E73.3585
G1 X150.373 Y85.469 E73.3773
G1 X162.964 Y85.469 E74.0055
G1 X162.964 Y85.092 E74.0243
G1 X150.373 Y85.092 E74.6525
G1 X150.373 Y84.715 E74.6713
G1 X162.964 Y84.715 E75.2994
G1 X162.964 Y84.338 E75.3182
G1 X150.373 Y84.338 E75.9464
G1 X150.373 Y83.962 E75.9652
G1 X162.964 Y83.962 E76.5934
G1 X162.964 Y83.585 E76.6122
G1 X150.373 Y83.585 E77.2404
G1 X150.373 Y83.208 E77.2592
G1 X162.836 Y83.208 E77.8810
G1 X162.579 Y82.831 E77.9037
G1 X150.116 Y82.831 E78.5255
G1 X150.116 Y82.454 E78.5443
G1 X162.579 Y82.454 E79.1661
G1 X162.579 Y82.078 E79.1849
G1 X150.116 Y82.078 E79.8066
G1 X150.116 Y81.701 E79.8254
G1 X162.579 Y81.701 E80.4472
G1 X162.579 Y81.324 E80.4660
G1 X150.116 Y81.324 E81.0878
G1 X150.116 Y80.947 E81.1066
G1 X162.579 Y80.947 E81.7283
G1 X162.579 Y80.571 E81.7471
G1 X150.116 Y80.571 E82.3689
G1 X150.116 Y80.194 E82.3877
G1 X162.579 Y80.194 E83.0095
G1 X162.579 Y79.817 E83.0283
G1 X150.116 Y79.817 E83.6501
G1 X150.116 Y79.440 E83.6689
G1 X162.450 Y79.440 E84.2842
G1 X162.065 Y79.063 E84.3111
G1 X150.244 Y79.063 E84.9008
G1 X150.630 Y78.687 E84.9277
G1 X161.679 Y78.687 E85.4790
G1 X161.294 Y78.310 E85.5059
G1 X151.015 Y78.310 E86.0187
G1 X151.401 Y77.933 E86.0456
G1 X160.908 Y77.933 E86.5199
G1 X159.110 Y77.556 E86.6116
G1 X151.786 Y77.556 E86.9770
G0 F4800 E85.9770
G0 X143.049 Y93.381 F10800
G0 F4800 E86.9770
G1 X115.940 Y93.381 E88.3295 F3600
G1 X115.940 Y93.758 E88.3483
G1 X143.435 Y93.758 E89.7200
G1 X143.820 Y94.135 E89.7469
G1 X115.940 Y94.135 E91.1379
G1 X115.940 Y94.511 E91.1567
G1 X144.206 Y94.511 E92.5669
G1 X144.591 Y94.888 E92.5938
G1 X115.940 Y94.888 E94.0232
G1 X115.940 Y95.265 E94.0420
G1 X144.720 Y95.265 E95.4778
G1 X144.720 Y95.642 E95.4966
G1 X115.940 Y95.642 E96.9325
G1 X115.940 Y96.019 E96.9513
G1 X144.977 Y96.019 E98.3999
G1 X144.977 Y96.395 E98.4187
G1 X115.940 Y96.395 E99.8674
G1 X115.940 Y96.772 E99.8862
G1 X145.362 Y96.772 E101.3541
G1 X145.491 Y97.149 E101.3740
G1 X115.940 Y97.149 E102.8482
G1 X115.940 Y97.526 E102.8670
G1 X145.491 Y97.526 E104.3413
G1 X145.491 Y97.902 E104.3601
G1 X115.940 Y97.902 E105.8344
G1 X115.940 Y98.279 E105.8532
G1 X145.491 Y98.279 E107.3275
G1 X145.491 Y98.656 E107.3463
G1 X115.940 Y98.656 E108.8206
G1 X115.940 Y99.033 E108.8394
G1 X145.491 Y99.033 E110.3137
G1 X145.491 Y99.410 E110.3325
G1 X115.940 Y99.410 E111.8068
G1 X115.940 Y99.786 E111.8256
G1 X145.491 Y99.786 E113.2999
G1 X145.491 Y100.163 E113.3187
G1 X115.940 Y100.163 E114.7930
G1 X115.940 Y100.540 E114.8118
G1 X145.491 Y100.540 E116.2861
G1 X145.491 Y100.917 E116.3049
G1 X115.940 Y100.917 E117.7792
G1 X115.940 Y101.294 E117.7980
G1 X145.491 Y101.294 E119.2723
G1 X145.491 Y101.670 E119.2911
G1 X115.940 Y101.670 E120.7654
G1 X115.940 Y102.047 E120.7842
G1 X145.491 Y102.047 E122.2585
G1 X145.491 Y102.424 E122.2773
G1 X115.940 Y102.424 E123.7516
G1 X115.940 Y102.801 E123.7704
G1 X145.491 Y102.801 E125.2447
G1 X145.491 Y103.177 E125.2635
G1 X115.940 Y103.177 E126.7378
G1 X115.940 Y103.554 E126.7566
G1 X145.105 Y103.554 E128.2116
G1 X144.720 Y103.931 E128.2385
G1 X115.940 Y103.931 E129.6744
G1 X115.940 Y104.308 E129.6932
G1 X144.591 Y104.308 E131.1226
G1 X144.334 Y104.685 E131.1453
G1 X115.940 Y104.685 E132.5620
G1 X115.940 Y105.061 E132.5808
G1 X144.334 Y105.061 E133.9974
G1 X144.334 Y105.438 E134.0162
G1 X115.940 Y105.438 E135.4328
G1 X115.940 Y105.815 E135.4516
G1 X144.334 Y105.815 E136.8682
G1 X144.206 Y106.192 E136.8881
G1 X115.940 Y106.192 E138.2983
G1 X115.940 Y106.569 E138.3171
G1 X143.820 Y106.569 E139.7080
G1 X143.435 Y106.945 E139.7349
G1 X115.940 Y106.945 E141.1066
G1 X115.940 Y107.322 E141.1254
G1 X143.049 Y107.322 E142.4780
G1 X142.664 Y107.699 E142.5048
G1 X115.940 Y107.699 E143.8381
G0 F4800 E142.8381
G0 X130.972 Y108.076 F10800
G0 F4800 E143.8381
G1 X115.940 Y108.076 E144.5881 F3600
G1 X115.940 Y108.452 E144.6069
G1 X130.587 Y108.452 E145.3376
G1 X130.201 Y108.829 E145.3645
G1 X115.940 Y108.829 E146.0760
G1 X115.940 Y109.206 E146.0948
G1 X129.944 Y109.206 E146.7935
G1 X129.944 Y109.583 E146.8123
G1 X115.940 Y109.583 E147.5110
G1 X115.940 Y109.960 E147.5298
G1 X129.944 Y109.960 E148.2285
G1 X129.944 Y110.336 E148.2473
G1 X115.940 Y110.336 E148.9460
G1 X115.940 Y110.713 E148.9648
G1 X129.816 Y110.713 E149.6570
G1 X129.816 Y111.090 E149.6758
G1 X115.940 Y111.090 E150.3681
G1 X116.325 Y111.467 E150.3950
G1 X129.559 Y111.467 E151.0552
G1 X129.687 Y111.843 E151.0751
G1 X116.711 Y111.843 E151.7225
G1 X117.096 Y112.220 E151.7494
G1 X129.944 Y112.220 E152.3904
G1 X129.944 Y112.597 E152.4092
G1 X117.482 Y112.597 E153.0310
G1 X117.482 Y112.974 E153.0498
G1 X129.944 Y112.974 E153.6715
G1 X129.944 Y113.351 E153.6903
G1 X117.482 Y113.351 E154.3121
G1 X117.482 Y113.727 E154.3309
G1 X129.944 Y113.727 E154.9527
G1 X130.201 Y114.104 E154.9754
G1 X117.482 Y114.104 E155.6100
G1 X117.353 Y114.481 E155.6299
G1 X130.201 Y114.481 E156.2709
G1 X130.201 Y114.858 E156.2897
G1 X117.353 Y114.858 E156.9307
G1 X117.353 Y115.235 E156.9495
G1 X130.201 Y115.235 E157.5905
G1 X130.201 Y115.611 E157.6093
G1 X117.353 Y115.611 E158.2503
G1 X117.353 Y115.988 E158.2691
G1 X130.201 Y115.988 E158.9101
G1 X130.201 Y116.365 E158.9289
G1 X117.353 Y116.365 E159.5699
G1 X117.353 Y116.742 E159.5887
G1 X130.201 Y116.742 E160.2297
G1 X130.201 Y117.118 E160.2485
G1 X117.353 Y117.118 E160.8895
G1 X117.353 Y117.495 E160.9083
G1 X130.201 Y117.495 E161.5493
G1 X130.201 Y117.872 E161.5681
G1 X117.353 Y117.872 E162.2091
G1 X117.353 Y118.249 E162.2279
G1 X130.201 Y118.249 E162.8689
G1 X130.201 Y118.626 E162.8877
G1 X117.482 Y118.626 E163.5223
G1 X117.482 Y119.002 E163.5411
G1 X130.201 Y119.002 E164.1757
G1 X130.201 Y119.379 E164.1945
G1 X117.482 Y119.379 E164.8291
G1 X117.482 Y119.756 E164.8479
G1 X130.201 Y119.756 E165.4825
G1 X129.944 Y120.133 E165.5052
G1 X117.482 Y120.133 E166.1270
G1 X117.738 Y120.509 E166.1497
G1 X129.944 Y120.509 E166.7587
G1 X129.944 Y120.886 E166.7775
G1 X118.124 Y120.886 E167.3672
G1 X118.509 Y121.263 E167.3941
G1 X129.559 Y121.263 E167.9453
G1 X129.173 Y121.640 E167.9722
G1 X118.895 Y121.640 E168.4850
G1 X119.280 Y122.017 E168.5119
G1 X128.788 Y122.017 E168.9862
G1 X128.403 Y122.393 E169.0131
G1 X119.666 Y122.393 E169.4490
G1 X120.051 Y122.770 E169.4759
G1 X128.017 Y122.770 E169.8733
G0 F4800 E168.8733
G0 X160.652 Y122.770 F10800
G0 F4800 E169.8733
G1 X152.300 Y122.770 E170.2900 F3600
G1 X151.915 Y122.393 E170.3169
G1 X161.037 Y122.393 E170.7720
G1 X161.422 Y122.017 E170.7988
G1 X151.529 Y122.017 E171.2924
G1 X151.144 Y121.640 E171.3193
G1 X161.808 Y121.640 E171.8513
G1 X162.193 Y121.263 E171.8782
G1 X150.758 Y121.263 E172.4487
G1 X150.373 Y120.886 E172.4756
G1 X162.579 Y120.886 E173.0846
G1 X162.707 Y120.509 E173.1044
G1 X150.373 Y120.509 E173.7198
G1 X150.373 Y120.133 E173.7386
G1 X162.964 Y120.133 E174.3668
G1 X162.964 Y119.756 E174.3856
G1 X150.373 Y119.756 E175.0137
G1 X150.373 Y119.379 E175.0325
G1 X162.964 Y119.379 E175.6607
G1 X162.964 Y119.002 E175.6795
G1 X150.373 Y119.002 E176.3077
G1 X150.373 Y118.626 E176.3265
G1 X162.964 Y118.626 E176.9546
G1 X162.964 Y118.249 E176.9734
G1 X150.373 Y118.249 E177.6016
G1 X150.373 Y117.872 E177.6204
G1 X162.964 Y117.872 E178.2486
G1 X162.964 Y117.495 E178.2674
G1 X150.373 Y117.495 E178.8956
G1 X150.373 Y117.118 E178.9144
G1 X162.964 Y117.118 E179.5425
G1 X162.964 Y116.742 E179.5613
G1 X150.373 Y116.742 E180.1895
G1 X150.373 Y116.365 E180.2083
G1 X162.964 Y116.365 E180.8365
G1 X162.964 Y115.988 E180.8553
G1 X150.244 Y115.988 E181.4899
G1 X150.116 Y115.611 E181.5097
G1 X162.964 Y115.611 E182.1507
G1 X162.964 Y115.235 E182.1695
G1 X150.116 Y115.235 E182.8106
G1 X150.116 Y114.858 E182.8294
G1 X162.964 Y114.858 E183.4704
G1 X162.964 Y114.481 E183.4892
G1 X150.116 Y114.481 E184.1302
G1 X150.116 Y114.104 E184.1490
G1 X162.964 Y114.104 E184.7900
G1 X162.964 Y113.727 E184.8088
G1 X150.116 Y113.727 E185.4498
G1 X150.116 Y113.351 E185.4686
G1 X162.964 Y113.351 E186.1096
G1 X162.964 Y112.974 E186.1284
G1 X150.116 Y112.974 E186.7694
G1 X150.116 Y112.597 E186.7882
G1 X162.964 Y112.597 E187.4292
G1 X162.964 Y112.220 E187.4480
G1 X149.731 Y112.220 E188.1082
G1 X149.345 Y111.843 E188.1351
G1 X163.350 Y111.843 E188.8338
G1 X163.735 Y111.467 E188.8607
G1 X148.960 Y111.467 E189.5978
G1 X148.574 Y111.090 E189.6247
G1 X163.992 Y111.090 E190.3939
G1 X163.992 Y110.713 E190.4127
G1 X148.574 Y110.713 E191.1819
G1 X148.574 Y110.336 E191.2007
G1 X163.992 Y110.336 E191.9699
G1 X164.121 Y109.960 E191.9898
G1 X148.574 Y109.960 E192.7654
G1 X148.574 Y109.583 E192.7842
G1 X164.121 Y109.583 E193.5598
G1 X164.121 Y109.206 E193.5786
G1 X148.574 Y109.206 E194.3542
G1 X148.574 Y108.829 E194.3730
G1 X164.121 Y108.829 E195.1486
G1 X164.378 Y108.452 E195.1713
G1 X148.574 Y108.452 E195.9598
G1 X148.574 Y108.076 E195.9786
G1 X164.378 Y108.076 E196.7670
G0 F4800 E195.7670
G0 X115.940 Y93.004 F10800
G0 F4800 E196.7670
G1 X141.122 Y93.004 E198.0234 F3600
G1 X140.737 Y92.628 E198.0503
G1 X115.940 Y92.628 E199.2874
G1 X115.940 Y92.251 E199.3062
G1 X131.615 Y92.251 E200.0882
G1 X131.615 Y91.874 E200.1070
G1 X115.940 Y91.874 E200.8890
G1 X115.940 Y91.497 E200.9078
G1 X131.615 Y91.497 E201.6898
G1 X131.615 Y91.120 E201.7086
G1 X115.940 Y91.120 E202.4906
G1 X115.940 Y90.744 E202.5094
G1 X131.615 Y90.744 E203.2914
G1 X131.615 Y90.367 E203.3102
G1 X115.940 Y90.367 E204.0923
G1 X115.940 Y89.990 E204.1111
G1 X131.615 Y89.990 E204.8931
G1 X131.615 Y89.613 E204.9119
G1 X115.940 Y89.613 E205.6939
G1 X116.325 Y89.236 E205.7208
G1 X131.615 Y89.236 E206.4836
G1 X131.615 Y88.860 E206.5024
G1 X116.711 Y88.860 E207.2459
G1 X117.096 Y88.483 E207.2728
G1 X131.358 Y88.483 E207.9843
G1 X130.972 Y88.106 E208.0112
G1 X117.353 Y88.106 E208.6907
G1 X117.353 Y87.729 E208.7095
G1 X130.587 Y87.729 E209.3697
G1 X130.201 Y87.353 E209.3966
G1 X117.353 Y87.353 E210.0376
G1 X117.353 Y86.976 E210.0564
G1 X130.201 Y86.976 E210.6974
G1 X130.201 Y86.599 E210.7162
G1 X117.353 Y86.599 E211.3572
G1 X117.353 Y86.222 E211.3760
G1 X130.201 Y86.222 E212.0170
G1 X130.201 Y85.845 E212.0358
G1 X117.353 Y85.845 E212.6768
G1 X117.353 Y85.469 E212.6956
G1 X130.201 Y85.469 E213.3366
G1 X130.201 Y85.092 E213.3554
G1 X117.353 Y85.092 E213.9964
G1 X117.353 Y84.715 E214.0152
G1 X130.201 Y84.715 E214.6562
G1 X130.201 Y84.338 E214.6750
G1 X117.353 Y84.338 E215.3160
G1 X117.353 Y83.962 E215.3348
G1 X130.201 Y83.962 E215.9758
G1 X130.201 Y83.585 E215.9946
G1 X117.353 Y83.585 E216.6356
G1 X117.353 Y83.208 E216.6544
G1 X130.201 Y83.208 E217.2955
G1 X130.201 Y82.831 E217.3143
G1 X117.353 Y82.831 E217.9553
G1 X117.353 Y82.454 E217.9741
G1 X130.201 Y82.454 E218.6151
G1 X130.201 Y82.078 E218.6339
G1 X117.353 Y82.078 E219.2749
G1 X117.353 Y81.701 E219.2937
G1 X130.201 Y81.701 E219.9347
G1 X130.201 Y81.324 E219.9535
G1 X117.353 Y81.324 E220.5945
G1 X117.353 Y80.947 E220.6133
G1 X130.201 Y80.947 E221.2543
G1 X130.201 Y80.571 E221.2731
G1 X117.353 Y80.571 E221.9141
G1 X117.738 Y80.194 E221.9410
G1 X130.201 Y80.194 E222.5627
G1 X130.201 Y79.817 E222.5815
G1 X118.124 Y79.817 E223.1841
G1 X118.509 Y79.440 E223.2110
G1 X130.201 Y79.440 E223.7943
G1 X130.073 Y79.063 E223.8141
G1 X118.638 Y79.063 E224.3846
G1 X119.023 Y78.687 E224.4115
G1 X129.687 Y78.687 E224.9436
G1 X129.302 Y78.310 E224.9704
G1 X119.409 Y78.310 E225.4640
G1 X119.794 Y77.933 E225.4909
G1 X128.916 Y77.933 E225.9460
G1 X128.531 Y77.556 E225.9729
G1 X120.180 Y77.556 E226.3896



; ------------------------------------
; Raft Layer #4
; ------------------------------------
G21 ; mm
G90 ; abs
G92 E0 ; reset extr
M106 S255
;segType:Raft
G0 F4800 E-1.0000
G0 F300 Z1.500
G0 X117.646 Y80.402 F10800
G0 F4800 E0.0000
G1 X117.646 Y120.426 E1.9968 F3600
G1 X118.032 Y120.803 E2.0237
G1 X118.032 Y80.025 E4.0581
G1 X118.418 Y79.649 E4.0850
G1 X118.418 Y121.179 E6.1570
G1 X118.803 Y121.556 E6.1838
G1 X118.803 Y79.022 E8.3059
G1 X119.189 Y78.645 E8.3328
G1 X119.189 Y121.932 E10.4923
G1 X119.575 Y122.308 E10.5192
G1 X119.575 Y78.269 E12.7164
G1 X119.961 Y77.893 E12.7433
G1 X119.961 Y122.685 E14.9780
G1 X120.347 Y122.936 E15.0009
G1 X120.347 Y77.516 E17.2669
G1 X120.733 Y77.265 E17.2899
G1 X120.733 Y122.936 E19.5684
G1 X121.118 Y122.936 E19.5877
G1 X121.118 Y77.265 E21.8662
G1 X121.504 Y77.265 E21.8854
G1 X121.504 Y122.936 E24.1639
G1 X121.890 Y122.936 E24.1832
G1 X121.890 Y77.265 E26.4617
G1 X122.276 Y77.265 E26.4810
G1 X122.276 Y122.936 E28.7595
G1 X122.662 Y122.936 E28.7787
G1 X122.662 Y77.265 E31.0572
G1 X123.048 Y77.265 E31.0765
G1 X123.048 Y122.936 E33.3550
G1 X123.433 Y122.936 E33.3743
G1 X123.433 Y77.265 E35.6528
G1 X123.819 Y77.265 E35.6720
G1 X123.819 Y122.936 E37.9505
G1 X124.205 Y122.936 E37.9698
G1 X124.205 Y77.265 E40.2483
G1 X124.591 Y77.265 E40.2676
G1 X124.591 Y122.936 E42.5461
G1 X124.977 Y122.936 E42.5653
G1 X124.977 Y77.265 E44.8438
G1 X125.363 Y77.265 E44.8631
G1 X125.363 Y122.936 E47.1416
G1 X125.748 Y122.936 E47.1609
G1 X125.748 Y77.265 E49.4394
G1 X126.134 Y77.265 E49.4586
G1 X126.134 Y122.936 E51.7371
G1 X126.520 Y122.936 E51.7564
G1 X126.520 Y77.265 E54.0349
G1 X126.906 Y77.265 E54.0542
G1 X126.906 Y122.936 E56.3327
G1 X127.292 Y122.936 E56.3519
G1 X127.292 Y77.265 E58.6305
G1 X127.678 Y77.265 E58.6497
G1 X127.678 Y122.936 E60.9282
G1 X128.063 Y122.936 E60.9475
G1 X128.063 Y77.265 E63.2260
G1 X128.449 Y77.391 E63.2462
G1 X128.449 Y122.559 E65.4997
G1 X128.835 Y122.183 E65.5266
G1 X128.835 Y77.767 E67.7425
G1 X129.221 Y78.143 E67.7694
G1 X129.221 Y121.807 E69.9478
G1 X129.607 Y121.430 E69.9747
G1 X129.607 Y111.769 E70.4567
G1 X129.607 Y111.644 E70.4629
G1 X129.607 Y78.520 E72.1155
G1 X129.993 Y78.896 E72.1424
G1 X129.993 Y110.640 E73.7261
G1 X129.993 Y112.145 E73.8012
G1 X129.993 Y121.054 E74.2456
G0 F4800 E73.2456
G0 X150.442 Y121.054 F10800
G0 F4800 E74.2456
G1 X150.442 Y78.896 E76.3489 F3600
G1 X150.827 Y78.520 E76.3758
G1 X150.827 Y121.430 E78.5166
G1 X151.213 Y121.807 E78.5435
G1 X151.213 Y78.143 E80.7218
G1 X151.599 Y77.767 E80.7487
G1 X151.599 Y122.183 E82.9646
G1 X151.985 Y122.559 E82.9915
G1 X151.985 Y77.391 E85.2450
G1 X152.371 Y77.265 E85.2652
G1 X152.371 Y122.936 E87.5438
G1 X152.757 Y122.936 E87.5630
G1 X152.757 Y77.265 E89.8415
G1 X153.142 Y77.265 E89.8608
G1 X153.142 Y122.936 E92.1393
G1 X153.528 Y122.936 E92.1585
G1 X153.528 Y77.265 E94.4371
G1 X153.914 Y77.265 E94.4563
G1 X153.914 Y122.936 E96.7348
G1 X154.300 Y122.936 E96.7541
G1 X154.300 Y77.265 E99.0326
G1 X154.686 Y77.265 E99.0518
G1 X154.686 Y122.936 E101.3304
G1 X155.072 Y122.936 E101.3496
G1 X155.072 Y77.265 E103.6281
G1 X155.457 Y77.265 E103.6474
G1 X155.457 Y122.936 E105.9259
G1 X155.843 Y122.936 E105.9452
G1 X155.843 Y77.265 E108.2237
G1 X156.229 Y77.265 E108.2429
G1 X156.229 Y122.936 E110.5214
G1 X156.615 Y122.936 E110.5407
G1 X156.615 Y77.265 E112.8192
G1 X157.001 Y77.265 E112.8385
G1 X157.001 Y122.936 E115.1170
G1 X157.387 Y122.936 E115.1362
G1 X157.387 Y77.265 E117.4147
G1 X157.772 Y77.265 E117.4340
G1 X157.772 Y122.936 E119.7125
G1 X158.158 Y122.936 E119.7318
G1 X158.158 Y77.265 E122.0103
G1 X158.544 Y77.265 E122.0295
G1 X158.544 Y122.936 E124.3080
G1 X158.930 Y122.936 E124.3273
G1 X158.930 Y77.391 E126.5995
G1 X159.316 Y77.642 E126.6225
G1 X159.316 Y122.936 E128.8823
G1 X159.702 Y122.936 E128.9015
G1 X159.702 Y77.642 E131.1612
G1 X160.087 Y77.642 E131.1805
G1 X160.087 Y122.936 E133.4402
G1 X160.473 Y122.936 E133.4595
G1 X160.473 Y77.642 E135.7192
G1 X160.859 Y77.893 E135.7422
G1 X160.859 Y122.685 E137.9769
G1 X161.245 Y122.308 E138.0038
G1 X161.245 Y78.269 E140.2009
G1 X161.631 Y78.645 E140.2278
G1 X161.631 Y121.932 E142.3874
G1 X162.017 Y121.556 E142.4143
G1 X162.017 Y79.022 E144.5363
G1 X162.402 Y79.398 E144.5632
G1 X162.402 Y121.179 E146.6477
G1 X162.788 Y120.552 E146.6844
G1 X162.788 Y83.162 E148.5498
G0 F4800 E147.5498
G0 X163.174 Y87.554 F10800
G0 F4800 E148.5498
G1 X163.174 Y112.145 E149.7767 F3600
G1 X163.560 Y111.769 E149.8036
G1 X163.560 Y87.930 E150.9929
G1 X163.946 Y88.306 E151.0198
G1 X163.946 Y111.393 E152.1716
G0 F4800 E151.1716
G0 X177.450 Y105.872 F10800
G0 F4800 E152.1716
G1 X177.450 Y94.203 E152.7537 F3600
G1 X177.064 Y93.827 E152.7806
G1 X177.064 Y106.499 E153.4128
G1 X176.678 Y106.876 E153.4397
G1 X176.678 Y93.451 E154.1095
G1 X176.292 Y93.074 E154.1364
G1 X176.292 Y107.252 E154.8437
G1 X175.906 Y107.629 E154.8706
G1 X175.906 Y92.698 E155.6155
G1 X175.521 Y92.447 E155.6385
G1 X175.521 Y108.005 E156.4147
G1 X175.135 Y108.130 E156.4349
G1 X175.135 Y92.447 E157.2174
G1 X174.749 Y92.447 E157.2366
G1 X174.749 Y108.130 E158.0191
G1 X174.363 Y108.130 E158.0383
G1 X174.363 Y92.447 E158.8208
G1 X173.977 Y92.447 E158.8400
G1 X173.977 Y108.130 E159.6225
G1 X173.591 Y108.130 E159.6418
G1 X173.591 Y92.447 E160.4242
G1 X173.206 Y92.447 E160.4435
G1 X173.206 Y108.130 E161.2259
G1 X172.820 Y108.130 E161.2452
G1 X172.820 Y92.447 E162.0276
G1 X172.434 Y92.447 E162.0469
G1 X172.434 Y108.130 E162.8293
G1 X172.048 Y108.130 E162.8486
G1 X172.048 Y92.447 E163.6310
G1 X171.662 Y92.447 E163.6503
G1 X171.662 Y108.130 E164.4328
G1 X171.276 Y108.130 E164.4520
G1 X171.276 Y92.447 E165.2345
G1 X170.891 Y92.447 E165.2537
G1 X170.891 Y108.130 E166.0362
G1 X170.505 Y108.130 E166.0554
G1 X170.505 Y92.447 E166.8379
G1 X170.119 Y92.447 E166.8571
G1 X170.119 Y108.130 E167.6396
G1 X169.733 Y108.130 E167.6589
G1 X169.733 Y92.447 E168.4413
G1 X169.347 Y92.447 E168.4606
G1 X169.347 Y108.130 E169.2430
G1 X168.961 Y108.130 E169.2623
G1 X168.961 Y92.447 E170.0447
G1 X168.576 Y92.447 E170.0640
G1 X168.576 Y108.130 E170.8464
G1 X168.190 Y108.130 E170.8657
G1 X168.190 Y92.447 E171.6481
G1 X167.804 Y92.447 E171.6674
G1 X167.804 Y108.130 E172.4499
G1 X167.418 Y108.130 E172.4691
G1 X167.418 Y92.447 E173.2516
G1 X167.032 Y92.447 E173.2708
G1 X167.032 Y108.130 E174.0533
G1 X166.647 Y108.130 E174.0725
G1 X166.647 Y92.447 E174.8550
G1 X166.261 Y92.447 E174.8742
G1 X166.261 Y108.130 E175.6567
G1 X165.875 Y108.130 E175.6759
G1 X165.875 Y92.447 E176.4584
G1 X165.489 Y92.447 E176.4777
G1 X165.489 Y108.130 E177.2601
G1 X165.103 Y108.130 E177.2793
G1 X165.103 Y92.447 E178.0618
G1 X164.717 Y92.447 E178.0811
G1 X164.717 Y108.130 E178.8635
G1 X164.332 Y108.632 E178.8951
G1 X164.332 Y88.683 E179.8904
G0 F4800 E178.8904
G0 X150.056 Y88.934 F10800
G0 F4800 E179.8904
G1 X150.056 Y112.647 E181.0735 F3600
G1 X149.670 Y112.271 E181.1003
G1 X149.670 Y89.310 E182.2459
G1 X149.284 Y89.812 E182.2775
G1 X149.284 Y111.895 E183.3792
G1 X148.898 Y111.518 E183.4060
G1 X148.898 Y90.188 E184.4702
G0 F4800 E183.4702
G0 X144.654 Y94.831 F10800
G0 F4800 E184.4702
G1 X144.654 Y104.617 E184.9584 F3600
G1 X145.040 Y103.865 E185.0006
G1 X145.040 Y95.960 E185.3950
G1 X145.426 Y96.713 E185.4372
G1 X145.426 Y103.488 E185.7752
G0 F4800 E184.7752
G0 X144.268 Y106.374 F10800
G0 F4800 E185.7752
G1 X144.268 Y94.454 E186.3699 F3600
G1 X143.882 Y94.078 E186.3968
G1 X143.882 Y106.750 E187.0290
G1 X143.497 Y107.127 E187.0559
G1 X143.497 Y93.702 E187.7257
G1 X143.111 Y93.325 E187.7526
G1 X143.111 Y107.503 E188.4599
G1 X142.725 Y107.880 E188.4868
G1 X142.725 Y93.074 E189.2255
G1 X142.339 Y93.074 E189.2447
G1 X142.339 Y108.130 E189.9959
G1 X141.953 Y108.130 E190.0151
G1 X141.953 Y93.074 E190.7663
G1 X141.568 Y93.074 E190.7855
G1 X141.568 Y108.130 E191.5367
G1 X141.182 Y108.130 E191.5559
G1 X141.182 Y92.949 E192.3134
G1 X140.796 Y92.572 E192.3402
G1 X140.796 Y108.130 E193.1164
G1 X140.410 Y108.130 E193.1357
G1 X140.410 Y92.447 E193.9182
G1 X140.024 Y92.447 E193.9374
G1 X140.024 Y108.130 E194.7199
G1 X139.638 Y108.130 E194.7391
G1 X139.638 Y92.447 E195.5216
G1 X139.253 Y92.447 E195.5408
G1 X139.253 Y108.130 E196.3233
G1 X138.867 Y108.130 E196.3426
G1 X138.867 Y92.447 E197.1250
G1 X138.481 Y92.447 E197.1443
G1 X138.481 Y108.130 E197.9267
G1 X138.095 Y108.130 E197.9460
G1 X138.095 Y92.447 E198.7284
G1 X137.709 Y92.447 E198.7477
G1 X137.709 Y108.130 E199.5301
G1 X137.323 Y108.130 E199.5494
G1 X137.323 Y92.447 E200.3319
G1 X136.938 Y92.447 E200.3511
G1 X136.938 Y108.130 E201.1336
G1 X136.552 Y108.130 E201.1528
G1 X136.552 Y92.447 E201.9353
G1 X136.166 Y92.447 E201.9545
G1 X136.166 Y108.130 E202.7370
G1 X135.780 Y108.130 E202.7562
G1 X135.780 Y92.447 E203.5387
G1 X135.394 Y92.447 E203.5579
G1 X135.394 Y108.130 E204.3404
G1 X135.008 Y108.130 E204.3597
G1 X135.008 Y92.447 E205.1421
G1 X134.623 Y92.447 E205.1614
G1 X134.623 Y108.130 E205.9438
G1 X134.237 Y108.130 E205.9631
G1 X134.237 Y92.447 E206.7455
G1 X133.851 Y92.447 E206.7648
G1 X133.851 Y108.130 E207.5472
G1 X133.465 Y108.130 E207.5665
G1 X133.465 Y92.447 E208.3490
G1 X133.079 Y92.447 E208.3682
G1 X133.079 Y108.130 E209.1507
G1 X132.693 Y108.130 E209.1699
G1 X132.693 Y92.447 E209.9524
G1 X132.308 Y92.447 E209.9716
G1 X132.308 Y108.130 E210.7541
G1 X131.922 Y108.130 E210.7734
G1 X131.922 Y92.447 E211.5558
G0 F4800 E210.5558
G0 X131.536 Y88.557 F10800
G0 F4800 E211.5558
G1 X131.536 Y108.130 E212.5323 F3600
G1 X131.150 Y108.130 E212.5516
G1 X131.150 Y88.181 E213.5468
G1 X130.764 Y87.805 E213.5737
G1 X130.764 Y108.507 E214.6066
G1 X130.378 Y108.883 E214.6335
G1 X130.378 Y87.428 E215.7039
G0 F4800 E214.7039
G0 X117.260 Y88.432 F10800
G0 F4800 E215.7039
G1 X117.260 Y112.396 E216.8995 F3600
G1 X116.874 Y112.020 E216.9263
G1 X116.874 Y88.808 E218.0844
G1 X116.488 Y89.185 E218.1113
G1 X116.488 Y111.644 E219.2317
G1 X116.103 Y111.267 E219.2586
G1 X116.103 Y89.561 E220.3415
G0 F4800 E219.3415
G0 X177.836 Y96.462 F10800
G0 F4800 E220.3415
G1 X177.836 Y103.739 E220.7046 F3600
G1 X178.221 Y103.363 E220.7315
G1 X178.221 Y96.838 E221.0570


; ------------------------------------
; Layer #0
; ------------------------------------
G21 ; mm
G90 ; abs
G92 E0 ; reset extr
M106 S255
;segType:Support
G0 F4800 E-1.0000
G0 F300 Z1.950
G0 X173.700 Y97.400 F10800
G0 F4800 E0.0000
G1 X173.600 Y97.400 E0.0028 F900
G1 X173.700 Y97.300 E0.0068
G1 X173.600 Y97.300 E0.0097
G0 X173.300 Y96.800 F10800
G1 X173.200 Y96.800 E0.0125 F900
G1 X173.200 Y96.700 E0.0153
G1 X173.300 Y96.700 E0.0181
G0 X173.600 Y96.200 F10800
G1 X173.700 Y96.200 E0.0210 F900
G1 X173.700 Y96.100 E0.0238
G1 X173.600 Y96.100 E0.0266
G0 X172.700 Y96.200 F10800
G1 X172.600 Y96.200 E0.0294 F900
G1 X172.700 Y96.100 E0.0334
G1 X172.600 Y96.100 E0.0363
G0 X172.300 Y96.700 F10800
G1 X172.200 Y96.700 E0.0391 F900
G1 X172.200 Y96.800 E0.0419
G1 X172.300 Y96.800 E0.0447
G0 X172.600 Y97.300 F10800
G1 X172.700 Y97.300 E0.0476 F900
G1 X172.600 Y97.400 E0.0516
G1 X172.700 Y97.400 E0.0544
G0 F4800 E-0.9456
G0 X171.500 Y97.200 F10800
G0 F4800 E0.0544
G1 X171.400 Y97.200 E0.0572 F900
G1 X171.400 Y97.100 E0.0601
G1 X171.500 Y97.100 E0.0629
G0 X171.200 Y96.200 F10800
G1 X171.300 Y96.200 E0.0657 F900
G1 X171.300 Y96.100 E0.0685
G1 X171.200 Y96.100 E0.0714
G0 X170.700 Y96.700 F10800
G1 X170.600 Y96.700 E0.0742 F900
G1 X170.600 Y96.800 E0.0770
G1 X170.700 Y96.800 E0.0798
G0 F4800 E-0.9202
G0 X169.700 Y96.100 F10800
G0 F4800 E0.0798
G1 X169.600 Y96.100 E0.0827 F900
G1 X169.600 Y96.200 E0.0855
G1 X169.700 Y96.200 E0.0883
G0 X169.300 Y96.700 F10800
G1 X169.200 Y96.700 E0.0912 F900
G1 X169.200 Y96.800 E0.0940
G1 X169.300 Y96.800 E0.0968
G0 F4800 E-0.9032
G0 X168.300 Y96.200 F10800
G0 F4800 E0.0968
G1 X168.200 Y96.200 E0.0996 F900
G1 X168.300 Y96.100 E0.1036
G1 X168.200 Y96.100 E0.1065
G0 X167.300 Y96.100 F10800
G1 X167.200 Y96.100 E0.1093 F900
G1 X167.300 Y96.200 E0.1133
G1 X167.200 Y96.200 E0.1161
G0 X167.400 Y96.900 F10800
G1 X167.500 Y96.900 E0.1189 F900
G1 X167.400 Y97.000 E0.1229
G1 X167.500 Y97.000 E0.1258
G0 X168.400 Y97.100 F10800
G1 X168.500 Y97.100 E0.1286 F900
G1 X168.500 Y97.200 E0.1314
G1 X168.400 Y97.200 E0.1342
G0 F4800 E-0.8658
G0 X169.800 Y97.100 F10800
G0 F4800 E0.1342
G1 X169.900 Y97.100 E0.1371 F900
G1 X169.800 Y97.200 E0.1411
G1 X169.900 Y97.200 E0.1439
G0 F4800 E-0.8561
G0 X174.106 Y98.721 F10800
G0 X174.107 Y101.315
G0 X172.400 Y102.300
G0 F4800 E0.1439
G1 X172.500 Y102.300 E0.1467 F900
G1 X172.500 Y102.400 E0.1495
G1 X172.400 Y102.400 E0.1524
G0 X172.200 Y103.100 F10800
G1 X172.300 Y103.100 E0.1552 F900
G1 X172.300 Y103.200 E0.1580
G1 X172.200 Y103.200 E0.1609
G0 X171.400 Y103.600 F10800
G1 X171.500 Y103.600 E0.1637 F900
G1 X171.500 Y103.500 E0.1665
G1 X171.400 Y103.500 E0.1693
G0 F4800 E-0.8307
G0 X171.400 Y102.400 F10800
G0 F4800 E0.1693
G1 X171.500 Y102.400 E0.1722 F900
G1 X171.500 Y102.300 E0.1750
G1 X171.400 Y102.300 E0.1778
G0 X170.900 Y103.000 F10800
G1 X170.800 Y103.000 E0.1806 F900
G1 X170.900 Y102.900 E0.1846
G1 X170.800 Y102.900 E0.1875
G0 X170.500 Y102.400 F10800
G1 X170.400 Y102.400 E0.1903 F900
G1 X170.500 Y102.300 E0.1943
G1 X170.400 Y102.300 E0.1971
G0 X169.500 Y102.400 F10800
G1 X169.400 Y102.400 E0.2000 F900
G1 X169.400 Y102.300 E0.2028
G1 X169.500 Y102.300 E0.2056
G0 X169.800 Y102.900 F10800
G1 X169.900 Y102.900 E0.2084 F900
G1 X169.900 Y103.000 E0.2113
G1 X169.800 Y103.000 E0.2141
G0 X169.500 Y103.500 F10800
G1 X169.400 Y103.500 E0.2169 F900
G1 X169.500 Y103.600 E0.2209
G1 X169.400 Y103.600 E0.2237
G0 X168.900 Y102.900 F10800
G1 X168.800 Y102.900 E0.2266 F900
G0 X168.500 Y102.300 F10800
G1 X168.400 Y102.300 E0.2294 F900
G1 X168.400 Y102.400 E0.2322
G1 X168.500 Y102.400 E0.2350
G0 X168.800 Y103.000 F10800
G1 X168.900 Y103.000 E0.2379 F900
G0 X168.500 Y103.500 F10800
G1 X168.400 Y103.500 E0.2407 F900
G0 X167.900 Y103.000 F10800
G1 X167.800 Y103.000 E0.2435 F900
G1 X167.900 Y102.900 E0.2475
G1 X167.800 Y102.900 E0.2504
G0 X167.500 Y102.400 F10800
G1 X167.400 Y102.400 E0.2532 F900
G1 X167.500 Y102.300 E0.2572
G1 X167.400 Y102.300 E0.2600
G0 X166.900 Y103.000 F10800
G1 X166.800 Y103.000 E0.2628 F900
G1 X166.900 Y102.900 E0.2668
G1 X166.800 Y102.900 E0.2697
G0 X166.500 Y102.400 F10800
G1 X166.400 Y102.400 E0.2725 F900
G1 X166.400 Y102.300 E0.2753
G1 X166.500 Y102.300 E0.2781
G0 F4800 E-0.7219
G0 X165.400 Y102.400 F10800
G0 F4800 E0.2781
G1 X165.500 Y102.400 E0.2810 F900
G1 X165.500 Y102.300 E0.2838
G1 X165.400 Y102.300 E0.2866
G0 X164.500 Y102.400 F10800
G1 X164.400 Y102.400 E0.2894 F900
G1 X164.500 Y102.300 E0.2934
G1 X164.400 Y102.300 E0.2963
G0 X163.700 Y102.000 F10800
G1 X163.600 Y102.000 E0.2991 F900
G0 F4800 E-0.7009
G0 X174.107 Y101.315 F10800
G0 X174.106 Y98.721
G0 X164.900 Y97.600
G0 F4800 E0.2991
G1 X164.800 Y97.600 E0.3019 F900
G1 X164.800 Y97.500 E0.3048
G1 X164.900 Y97.500 E0.3076
G0 X165.400 Y97.000 F10800
G1 X165.500 Y97.000 E0.3104 F900
G0 X165.800 Y97.700 F10800
G1 X165.900 Y97.700 E0.3132 F900
G1 X165.800 Y97.800 E0.3172
G1 X165.900 Y97.800 E0.3201
G0 X166.400 Y97.000 F10800
G1 X166.500 Y97.000 E0.3229 F900
G1 X166.500 Y96.900 E0.3257
G1 X166.400 Y96.900 E0.3285
G0 X166.200 Y96.200 F10800
G1 X166.300 Y96.200 E0.3314 F900
G1 X166.300 Y96.100 E0.3342
G1 X166.200 Y96.100 E0.3370
G0 X165.300 Y96.100 F10800
G1 X165.200 Y96.100 E0.3399 F900
G1 X165.200 Y96.200 E0.3427
G1 X165.300 Y96.200 E0.3455
G0 X165.500 Y96.900 F10800
G1 X165.400 Y96.900 E0.3483 F900
G0 X164.500 Y96.900 F10800
G1 X164.400 Y96.900 E0.3512 F900
G1 X164.500 Y97.000 E0.3552
G1 X164.400 Y97.000 E0.3580
G0 X163.800 Y97.500 F10800
G1 X163.900 Y97.500 E0.3608 F900
G1 X163.900 Y97.600 E0.3636
G1 X163.800 Y97.600 E0.3665
G0 X163.100 Y97.400 F10800
G1 X163.000 Y97.400 E0.3693 F900
G1 X163.000 Y97.300 E0.3721
G1 X163.100 Y97.300 E0.3749
G0 X163.400 Y96.800 F10800
G1 X163.500 Y96.800 E0.3778 F900
G1 X163.400 Y96.700 E0.3818
G1 X163.500 Y96.700 E0.3846
G0 X164.200 Y96.200 F10800
G1 X164.300 Y96.200 E0.3874 F900
G1 X164.300 Y96.100 E0.3903
G1 X164.200 Y96.100 E0.3931
G0 X163.300 Y95.900 F10800
G1 X163.200 Y95.900 E0.3959 F900
G1 X163.300 Y96.000 E0.3999
G1 X163.200 Y96.000 E0.4027
G0 X162.500 Y96.700 F10800
G1 X162.400 Y96.700 E0.4056 F900
G1 X162.500 Y96.800 E0.4096
G1 X162.400 Y96.800 E0.4124
G0 X162.100 Y97.300 F10800
G1 X162.000 Y97.300 E0.4152 F900
G1 X162.100 Y97.400 E0.4192
G1 X162.000 Y97.400 E0.4220
G0 X161.100 Y97.500 F10800
G1 X161.000 Y97.500 E0.4249 F900
G1 X161.100 Y97.600 E0.4289
G1 X161.000 Y97.600 E0.4317
G0 X160.100 Y97.600 F10800
G1 X160.000 Y97.600 E0.4345 F900
G1 X160.100 Y97.500 E0.4385
G1 X160.000 Y97.500 E0.4413
G0 X159.600 Y96.600 F10800
G1 X159.700 Y96.600 E0.4442 F900
G1 X159.700 Y96.500 E0.4470
G1 X159.600 Y96.500 E0.4498
G0 X160.400 Y96.800 F10800
G1 X160.500 Y96.800 E0.4527 F900
G1 X160.400 Y96.700 E0.4567
G1 X160.500 Y96.700 E0.4595
G0 X161.400 Y96.800 F10800
G1 X161.500 Y96.800 E0.4623 F900
G1 X161.400 Y96.700 E0.4663
G1 X161.500 Y96.700 E0.4691
G0 X162.200 Y96.000 F10800
G1 X162.300 Y96.000 E0.4720 F900
G1 X162.300 Y95.900 E0.4748
G1 X162.200 Y95.900 E0.4776
G0 X161.300 Y96.000 F10800
G1 X161.200 Y96.000 E0.4804 F900
G1 X161.300 Y95.900 E0.4844
G1 X161.200 Y95.900 E0.4873
G0 F4800 E-0.5127
G0 X160.200 Y96.000 F10800
G0 F4800 E0.4873
G1 X160.300 Y96.000 E0.4901 F900
G1 X160.300 Y95.900 E0.4929
G1 X160.200 Y95.900 E0.4957
G0 X159.700 Y95.600 F10800
G1 X159.600 Y95.600 E0.4986 F900
G1 X159.600 Y95.500 E0.5014
G1 X159.700 Y95.500 E0.5042
G0 X160.400 Y95.200 F10800
G1 X160.500 Y95.200 E0.5071 F900
G1 X160.500 Y95.100 E0.5099
G1 X160.400 Y95.100 E0.5127
G0 X159.900 Y94.800 F10800
G1 X159.800 Y94.800 E0.5155 F900
G1 X159.800 Y94.700 E0.5184
G1 X159.900 Y94.700 E0.5212
G0 X160.400 Y94.200 F10800
G1 X160.500 Y94.200 E0.5240 F900
G1 X160.500 Y94.100 E0.5268
G1 X160.400 Y94.100 E0.5297
G0 X159.900 Y93.800 F10800
G1 X159.800 Y93.800 E0.5325 F900
G1 X159.900 Y93.700 E0.5365
G1 X159.800 Y93.700 E0.5393
G0 X160.400 Y93.200 F10800
G1 X160.500 Y93.200 E0.5422 F900
G1 X160.500 Y93.100 E0.5450
G1 X160.400 Y93.100 E0.5478
G0 X160.400 Y92.200 F10800
G1 X160.500 Y92.200 E0.5506 F900
G1 X160.500 Y92.100 E0.5535
G1 X160.400 Y92.100 E0.5563
G0 X160.100 Y91.400 F10800
G1 X160.000 Y91.400 E0.5591 F900
G1 X160.000 Y91.300 E0.5619
G1 X160.100 Y91.300 E0.5648
G0 X160.400 Y90.600 F10800
G1 X160.500 Y90.600 E0.5676 F900
G1 X160.500 Y90.500 E0.5704
G1 X160.400 Y90.500 E0.5733
G0 F4800 E-0.4267
G0 X159.100 Y89.800 F10800
G0 F4800 E0.5733
G1 X159.000 Y89.800 E0.5761 F900
G1 X159.000 Y89.700 E0.5789
G1 X159.100 Y89.700 E0.5817
G0 X159.000 Y88.800 F10800
G1 X159.100 Y88.800 E0.5846 F900
G1 X159.100 Y88.700 E0.5874
G1 X159.000 Y88.700 E0.5902
G0 F4800 E-0.4098
G0 X157.500 Y88.300 F10800
G0 F4800 E0.5902
G1 X157.400 Y88.300 E0.5930 F900
G1 X157.500 Y88.400 E0.5970
G1 X157.400 Y88.400 E0.5999
G0 X156.900 Y88.000 F10800
G1 X156.800 Y88.000 E0.6027 F900
G1 X156.900 Y87.900 E0.6067
G1 X156.800 Y87.900 E0.6095
G0 X156.200 Y87.400 F10800
G1 X156.300 Y87.400 E0.6123 F900
G1 X156.300 Y87.300 E0.6152
G1 X156.200 Y87.300 E0.6180
G0 X155.300 Y87.400 F10800
G1 X155.200 Y87.400 E0.6208 F900
G1 X155.300 Y87.300 E0.6248
G1 X155.200 Y87.300 E0.6277
G0 X155.400 Y86.400 F10800
G1 X155.500 Y86.400 E0.6305 F900
G1 X155.500 Y86.300 E0.6333
G1 X155.400 Y86.300 E0.6361
G0 X155.800 Y85.400 F10800
G1 X155.900 Y85.400 E0.6390 F900
G0 X156.300 Y86.000 F10800
G1 X156.200 Y86.000 E0.6418 F900
G1 X156.200 Y85.900 E0.6446
G1 X156.300 Y85.900 E0.6474
G0 X157.000 Y85.500 F10800
G1 X157.100 Y85.500 E0.6503 F900
G1 X157.000 Y85.600 E0.6543
G1 X157.100 Y85.600 E0.6571
G0 X156.700 Y86.500 F10800
G1 X156.600 Y86.500 E0.6599 F900
G1 X156.600 Y86.600 E0.6628
G1 X156.700 Y86.600 E0.6656
G0 X157.200 Y86.900 F10800
G1 X157.300 Y86.900 E0.6684 F900
G1 X157.300 Y87.000 E0.6712
G1 X157.200 Y87.000 E0.6741
G0 X157.800 Y87.400 F10800
G1 X157.900 Y87.400 E0.6769 F900
G1 X157.800 Y87.300 E0.6809
G1 X157.900 Y87.300 E0.6837
G0 X158.200 Y87.900 F10800
G1 X158.300 Y87.900 E0.6865 F900
G1 X158.200 Y88.000 E0.6905
G1 X158.300 Y88.000 E0.6934
G0 X159.000 Y87.800 F10800
G1 X159.100 Y87.800 E0.6962 F900
G1 X159.100 Y87.700 E0.6990
G1 X159.000 Y87.700 E0.7018
G0 X158.900 Y87.000 F10800
G1 X158.800 Y87.000 E0.7047 F900
G1 X158.900 Y86.900 E0.7087
G1 X158.800 Y86.900 E0.7115
G0 X158.300 Y86.600 F10800
G1 X158.200 Y86.600 E0.7143 F900
G1 X158.200 Y86.500 E0.7172
G1 X158.300 Y86.500 E0.7200
G0 X157.700 Y86.200 F10800
G1 X157.600 Y86.200 E0.7228 F900
G1 X157.600 Y86.100 E0.7256
G1 X157.700 Y86.100 E0.7285
G0 F4800 E-0.2715
G0 X158.900 Y86.000 F10800
G0 F4800 E0.7285
G1 X158.800 Y86.000 E0.7313 F900
G1 X158.900 Y85.900 E0.7353
G1 X158.800 Y85.900 E0.7381
G0 X158.300 Y85.600 F10800
G1 X158.200 Y85.600 E0.7409 F900
G1 X158.200 Y85.500 E0.7438
G1 X158.300 Y85.500 E0.7466
G0 X158.400 Y84.800 F10800
G1 X158.500 Y84.800 E0.7494 F900
G1 X158.400 Y84.700 E0.7534
G1 X158.500 Y84.700 E0.7562
G0 X159.000 Y85.200 F10800
G1 X159.100 Y85.200 E0.7591 F900
G1 X159.100 Y85.100 E0.7619
G1 X159.000 Y85.100 E0.7647
G0 X158.800 Y84.200 F10800
G1 X158.900 Y84.200 E0.7676 F900
G1 X158.900 Y84.100 E0.7704
G1 X158.800 Y84.100 E0.7732
G0 X158.800 Y83.200 F10800
G1 X158.900 Y83.200 E0.7760 F900
G1 X158.900 Y83.100 E0.7789
G1 X158.800 Y83.100 E0.7817
G0 X158.300 Y82.700 F10800
G1 X158.200 Y82.700 E0.7845 F900
G1 X158.300 Y82.800 E0.7885
G1 X158.200 Y82.800 E0.7913
G0 X158.200 Y83.700 F10800
G1 X158.300 Y83.700 E0.7942 F900
G1 X158.300 Y83.800 E0.7970
G1 X158.200 Y83.800 E0.7998
G0 X157.500 Y83.200 F10800
G1 X157.400 Y83.200 E0.8026 F900
G1 X157.500 Y83.100 E0.8066
G1 X157.400 Y83.100 E0.8095
G0 X156.900 Y82.700 F10800
G1 X156.800 Y82.700 E0.8123 F900
G1 X156.900 Y82.800 E0.8163
G1 X156.800 Y82.800 E0.8191
G0 F4800 E-0.1809
G0 X156.300 Y81.800 F10800
G0 F4800 E0.8191
G1 X156.200 Y81.800 E0.8220 F900
G1 X156.200 Y81.700 E0.8248
G1 X156.300 Y81.700 E0.8276
G0 X157.000 Y82.000 F10800
G1 X157.100 Y82.000 E0.8304 F900
G1 X157.000 Y81.900 E0.8344
G1 X157.100 Y81.900 E0.8373
G0 X157.800 Y82.100 F10800
G1 X157.900 Y82.100 E0.8401 F900
G1 X157.800 Y82.200 E0.8441
G1 X157.900 Y82.200 E0.8469
G0 X158.800 Y82.200 F10800
G1 X158.900 Y82.200 E0.8497 F900
G1 X158.800 Y82.100 E0.8537
G1 X158.900 Y82.100 E0.8566
G0 X158.700 Y81.400 F10800
G1 X158.600 Y81.400 E0.8594 F900
G1 X158.700 Y81.300 E0.8634
G1 X158.600 Y81.300 E0.8662
G0 X157.900 Y81.200 F10800
G1 X157.800 Y81.200 E0.8690 F900
G1 X157.800 Y81.100 E0.8719
G1 X157.900 Y81.100 E0.8747
G0 F4800 E-0.1253
G0 X156.900 Y80.900 F10800
G0 F4800 E0.8747
G1 X156.800 Y80.900 E0.8775 F900
G1 X156.900 Y81.000 E0.8815
G1 X156.800 Y81.000 E0.8843
G0 X155.900 Y81.200 F10800
G1 X155.800 Y81.200 E0.8872 F900
G1 X155.900 Y81.100 E0.8912
G1 X155.800 Y81.100 E0.8940
G0 X154.900 Y81.200 F10800
G1 X154.800 Y81.200 E0.8968 F900
G1 X154.900 Y81.100 E0.9008
G1 X154.800 Y81.100 E0.9037
G0 X154.100 Y80.900 F10800
G1 X154.000 Y80.900 E0.9065 F900
G1 X154.000 Y81.000 E0.9093
G1 X154.100 Y81.000 E0.9121
G0 X154.300 Y81.700 F10800
G1 X154.200 Y81.700 E0.9150 F900
G1 X154.200 Y81.800 E0.9178
G1 X154.300 Y81.800 E0.9206
G0 X155.200 Y81.900 F10800
G1 X155.300 Y81.900 E0.9234 F900
G0 X155.900 Y82.300 F10800
G1 X155.800 Y82.300 E0.9263 F900
G1 X155.900 Y82.400 E0.9303
G1 X155.800 Y82.400 E0.9331
G0 X155.300 Y82.000 F10800
G1 X155.200 Y82.000 E0.9359 F900
G0 X154.500 Y82.500 F10800
G1 X154.400 Y82.500 E0.9387 F900
G1 X154.400 Y82.600 E0.9416
G1 X154.500 Y82.600 E0.9444
G0 X154.800 Y83.200 F10800
G1 X154.900 Y83.200 E0.9472 F900
G0 X155.400 Y83.500 F10800
G1 X155.500 Y83.500 E0.9501 F900
G1 X155.400 Y83.600 E0.9541
G1 X155.500 Y83.600 E0.9569
G0 X154.900 Y84.100 F10800
G1 X154.800 Y84.100 E0.9597 F900
G1 X154.900 Y84.200 E0.9637
G1 X154.800 Y84.200 E0.9665
G0 X154.300 Y83.800 F10800
G1 X154.200 Y83.800 E0.9694 F900
G1 X154.200 Y83.700 E0.9722
G1 X154.300 Y83.700 E0.9750
G0 X154.800 Y83.100 F10800
G1 X154.900 Y83.100 E0.9778 F900
G0 F4800 E-0.0222
G0 X156.300 Y83.100 F10800
G0 F4800 E0.9778
G1 X156.200 Y83.100 E0.9807 F900
G1 X156.200 Y83.200 E0.9835
G1 X156.300 Y83.200 E0.9863
G0 X156.800 Y83.700 F10800
G1 X156.900 Y83.700 E0.9891 F900
G1 X156.900 Y83.800 E0.9920
G1 X156.800 Y83.800 E0.9948
G0 X156.200 Y84.300 F10800
G1 X156.300 Y84.300 E0.9976 F900
G1 X156.200 Y84.400 E1.0016
G1 X156.300 Y84.400 E1.0045
G0 F4800 E0.0045
G0 X157.400 Y84.300 F10800
G0 F4800 E1.0045
G1 X157.500 Y84.300 E1.0073 F900
G1 X157.400 Y84.400 E1.0113
G1 X157.500 Y84.400 E1.0141
G0 X156.800 Y84.700 F10800
G1 X156.900 Y84.700 E1.0169 F900
G1 X156.900 Y84.800 E1.0198
G1 X156.800 Y84.800 E1.0226
G0 F4800 E0.0226
G0 X155.900 Y85.300 F10800
G0 F4800 E1.0226
G1 X155.800 Y85.300 E1.0254 F900
G0 X155.500 Y84.600 F10800
G1 X155.400 Y84.600 E1.0282 F900
G1 X155.500 Y84.500 E1.0322
G1 X155.400 Y84.500 E1.0351
G0 F4800 E0.0351
G0 X154.500 Y85.100 F10800
G0 F4800 E1.0351
G1 X154.400 Y85.100 E1.0379 F900
G1 X154.400 Y85.200 E1.0407
G1 X154.500 Y85.200 E1.0435
G0 X155.000 Y85.500 F10800
G1 X155.100 Y85.500 E1.0464 F900
G1 X155.100 Y85.600 E1.0492
G1 X155.000 Y85.600 E1.0520
G0 X154.300 Y86.100 F10800
G1 X154.200 Y86.100 E1.0549 F900
G1 X154.300 Y86.200 E1.0589
G1 X154.200 Y86.200 E1.0617
G0 X154.600 Y86.700 F10800
G1 X154.700 Y86.700 E1.0645 F900
G1 X154.600 Y86.800 E1.0685
G1 X154.700 Y86.800 E1.0713
G0 X154.600 Y87.700 F10800
G1 X154.700 Y87.700 E1.0742 F900
G1 X154.700 Y87.800 E1.0770
G1 X154.600 Y87.800 E1.0798
G0 F4800 E0.0798
G0 X154.200 Y89.100 F10800
G0 F4800 E1.0798
G1 X154.300 Y89.100 E1.0826 F900
G1 X154.300 Y89.200 E1.0855
G1 X154.200 Y89.200 E1.0883
G0 X154.300 Y90.100 F10800
G1 X154.200 Y90.100 E1.0911 F900
G0 X153.800 Y90.800 F10800
G1 X153.900 Y90.800 E1.0940 F900
G1 X153.900 Y90.700 E1.0968
G1 X153.800 Y90.700 E1.0996
G0 X153.300 Y91.300 F10800
G1 X153.200 Y91.300 E1.1024 F900
G1 X153.300 Y91.400 E1.1064
G1 X153.200 Y91.400 E1.1093
G0 X152.700 Y90.900 F10800
G1 X152.600 Y90.900 E1.1121 F900
G1 X152.600 Y91.000 E1.1149
G1 X152.700 Y91.000 E1.1177
G0 F4800 E0.1177
G0 X152.700 Y92.100 F10800
G0 F4800 E1.1177
G1 X152.600 Y92.100 E1.1206 F900
G1 X152.600 Y92.200 E1.1234
G1 X152.700 Y92.200 E1.1262
G0 X153.200 Y92.500 F10800
G1 X153.300 Y92.500 E1.1290 F900
G1 X153.300 Y92.600 E1.1319
G1 X153.200 Y92.600 E1.1347
G0 X152.700 Y93.100 F10800
G1 X152.600 Y93.100 E1.1375 F900
G1 X152.600 Y93.200 E1.1404
G1 X152.700 Y93.200 E1.1432
G0 X153.200 Y93.600 F10800
G1 X153.300 Y93.600 E1.1460 F900
G1 X153.300 Y93.500 E1.1488
G1 X153.200 Y93.500 E1.1517
G0 X153.800 Y93.200 F10800
G1 X153.900 Y93.200 E1.1545 F900
G1 X153.800 Y93.100 E1.1585
G1 X153.900 Y93.100 E1.1613
G0 F4800 E0.1613
G0 X153.800 Y91.800 F10800
G0 F4800 E1.1613
G1 X153.900 Y91.800 E1.1641 F900
G1 X153.900 Y91.700 E1.1670
G1 X153.800 Y91.700 E1.1698
G0 F4800 E0.1698
G0 X154.200 Y90.200 F10800
G0 F4800 E1.1698
G1 X154.300 Y90.200 E1.1726 F900
G0 X154.800 Y89.600 F10800
G1 X154.900 Y89.600 E1.1755 F900
G1 X154.800 Y89.500 E1.1795
G1 X154.900 Y89.500 E1.1823
G0 X155.600 Y89.000 F10800
G1 X155.700 Y89.000 E1.1851 F900
G1 X155.700 Y88.900 E1.1879
G1 X155.600 Y88.900 E1.1908
G0 X154.900 Y88.600 F10800
G1 X154.800 Y88.600 E1.1936 F900
G1 X154.800 Y88.500 E1.1964
G1 X154.900 Y88.500 E1.1992
G0 F4800 E0.1992
G0 X155.700 Y87.900 F10800
G0 F4800 E1.1992
G1 X155.600 Y87.900 E1.2021 F900
G1 X155.600 Y88.000 E1.2049
G1 X155.700 Y88.000 E1.2077
G0 X156.200 Y88.300 F10800
G1 X156.300 Y88.300 E1.2105 F900
G1 X156.200 Y88.400 E1.2145
G1 X156.300 Y88.400 E1.2174
G0 X156.200 Y89.300 F10800
G1 X156.300 Y89.300 E1.2202 F900
G1 X156.200 Y89.400 E1.2242
G1 X156.300 Y89.400 E1.2270
G0 X156.800 Y89.000 F10800
G1 X156.900 Y89.000 E1.2299 F900
G1 X156.900 Y88.900 E1.2327
G1 X156.800 Y88.900 E1.2355
G0 X157.400 Y89.300 F10800
G1 X157.500 Y89.300 E1.2383 F900
G1 X157.400 Y89.400 E1.2423
G1 X157.500 Y89.400 E1.2452
G0 X158.200 Y88.900 F10800
G1 X158.300 Y88.900 E1.2480 F900
G1 X158.300 Y89.000 E1.2508
G1 X158.200 Y89.000 E1.2536
G0 F4800 E0.2536
G0 X158.700 Y90.500 F10800
G0 F4800 E1.2536
G1 X158.600 Y90.500 E1.2565 F900
G1 X158.600 Y90.600 E1.2593
G1 X158.700 Y90.600 E1.2621
G0 X159.500 Y90.900 F10800
G1 X159.400 Y90.900 E1.2650 F900
G1 X159.500 Y91.000 E1.2689
G1 X159.400 Y91.000 E1.2718
G0 X158.700 Y91.500 F10800
G1 X158.600 Y91.500 E1.2746 F900
G1 X158.600 Y91.600 E1.2774
G1 X158.700 Y91.600 E1.2803
G0 X159.500 Y91.900 F10800
G1 X159.400 Y91.900 E1.2831 F900
G1 X159.400 Y92.000 E1.2859
G1 X159.500 Y92.000 E1.2887
G0 X159.800 Y92.700 F10800
G1 X159.900 Y92.700 E1.2916 F900
G1 X159.900 Y92.800 E1.2944
G1 X159.800 Y92.800 E1.2972
G0 X158.900 Y92.500 F10800
G1 X158.800 Y92.500 E1.3000 F900
G1 X158.800 Y92.600 E1.3029
G1 X158.900 Y92.600 E1.3057
G0 X159.200 Y93.300 F10800
G1 X159.300 Y93.300 E1.3085 F900
G1 X159.200 Y93.400 E1.3125
G1 X159.300 Y93.400 E1.3154
G0 X158.700 Y93.900 F10800
G1 X158.600 Y93.900 E1.3182 F900
G1 X158.600 Y94.000 E1.3210
G1 X158.700 Y94.000 E1.3238
G0 X159.200 Y94.300 F10800
G1 X159.300 Y94.300 E1.3267 F900
G1 X159.300 Y94.400 E1.3295
G1 X159.200 Y94.400 E1.3323
G0 X158.800 Y95.100 F10800
G1 X158.900 Y95.100 E1.3351 F900
G1 X158.900 Y95.200 E1.3380
G1 X158.800 Y95.200 E1.3408
G0 F4800 E0.3408
G0 X158.600 Y96.500 F10800
G0 F4800 E1.3408
G1 X158.700 Y96.500 E1.3436 F900
G1 X158.700 Y96.600 E1.3465
G1 X158.600 Y96.600 E1.3493
G0 X159.000 Y97.100 F10800
G1 X159.100 Y97.100 E1.3521 F900
G1 X159.100 Y97.200 E1.3549
G1 X159.000 Y97.200 E1.3578
;segType:Loop
G0 F4800 E0.3578
G0 X158.642 Y99.195 F10800
G0 F4800 E1.3578
G1 X160.746 Y99.195 E1.4277 F600
G1 X168.530 Y99.245 E1.6866
G1 X173.570 Y99.245 E1.8543
G1 X173.570 Y100.793 E1.9058
G1 X171.202 Y100.805 E1.9845
G1 X157.191 Y100.805 E2.4505
G1 X157.166 Y102.315 E2.5007
G1 X157.166 Y108.939 E2.7211
G1 X155.649 Y108.939 E2.7715
G1 X155.649 Y91.061 E3.3662
G1 X157.172 Y91.061 E3.4168
G1 X157.181 Y91.980 E3.4474
G1 X157.181 Y99.195 E3.6873
G1 X158.449 Y99.195 E3.7295
G0 X157.445 Y98.937 F10800
G0 X156.998 Y98.545
;segType:Perimeter
G1 X157.639 Y98.804 E3.7525 F359
G1 X160.747 Y98.804 E3.8559
G1 X168.531 Y98.855 E4.1148
G1 X173.970 Y98.855 E4.2957
G1 X173.970 Y101.182 E4.3731
G1 X171.203 Y101.196 E4.4651
G1 X157.585 Y101.196 E4.9181
G1 X157.566 Y102.318 E4.9554
G1 X157.566 Y109.330 E5.1886
G1 X155.249 Y109.330 E5.2657
G1 X155.249 Y90.670 E5.8863
G1 X157.568 Y90.670 E5.9634
G1 X157.581 Y91.978 E6.0070
G1 X157.581 Y98.748 E6.2321
G1 X157.847 Y99.374
;segType:Loop
G0 X159.703 Y99.585 F10800
G1 X160.744 Y99.585 E6.2667 F600
G1 X168.528 Y99.636 E6.5256
G1 X173.170 Y99.636 E6.6800
G1 X173.170 Y100.405 E6.7056
G1 X171.201 Y100.415 E6.7711
G1 X156.797 Y100.415 E7.2502
G1 X156.766 Y102.312 E7.3133
G1 X156.766 Y108.549 E7.5207
G1 X156.049 Y108.549 E7.5445
G1 X156.049 Y91.451 E8.1132
G1 X156.776 Y91.451 E8.1374
G1 X156.781 Y91.982 E8.1550
G1 X156.781 Y99.585 E8.4079
G1 X159.510 Y99.585 E8.4987
;segType:Support
G0 F4800 E7.4987
G0 X159.900 Y102.000 F10800
G0 F4800 E8.4987
G1 X159.800 Y102.000 E8.5015 F900
G0 X159.100 Y102.300 F10800
G1 X159.000 Y102.300 E8.5043 F900
G1 X159.100 Y102.400 E8.5083
G1 X159.000 Y102.400 E8.5111
G0 X158.700 Y102.900 F10800
G1 X158.600 Y102.900 E8.5140 F900
G1 X158.600 Y103.000 E8.5168
G1 X158.700 Y103.000 E8.5196
G0 X159.200 Y103.500 F10800
G1 X159.300 Y103.500 E8.5225 F900
G1 X159.200 Y103.600 E8.5265
G1 X159.300 Y103.600 E8.5293
G0 X160.000 Y103.800 F10800
G1 X160.100 Y103.800 E8.5321 F900
G1 X160.100 Y103.700 E8.5349
G1 X160.000 Y103.700 E8.5378
G0 F4800 E7.5378
G0 X159.800 Y105.200 F10800
G0 F4800 E8.5378
G1 X159.900 Y105.200 E8.5406 F900
G1 X159.900 Y105.100 E8.5434
G1 X159.800 Y105.100 E8.5462
G0 X159.300 Y104.600 F10800
G1 X159.200 Y104.600 E8.5491 F900
G1 X159.300 Y104.500 E8.5531
G1 X159.200 Y104.500 E8.5559
G0 X158.700 Y103.900 F10800
G1 X158.600 Y103.900 E8.5587 F900
G1 X158.600 Y104.000 E8.5616
G1 X158.700 Y104.000 E8.5644
G0 X158.600 Y104.900 F10800
G1 X158.700 Y104.900 E8.5672 F900
G1 X158.700 Y105.000 E8.5700
G1 X158.600 Y105.000 E8.5729
G0 X159.100 Y105.500 F10800
G1 X159.000 Y105.500 E8.5757 F900
G1 X159.100 Y105.600 E8.5797
G1 X159.000 Y105.600 E8.5825
G0 X158.500 Y106.200 F10800
G1 X158.400 Y106.200 E8.5853 F900
G1 X158.500 Y106.100 E8.5893
G1 X158.400 Y106.100 E8.5922
G0 F4800 E7.5922
G0 X157.703 Y109.463 F10800
G0 X155.113 Y109.463
G0 X153.900 Y105.200
G0 F4800 E8.5922
G1 X153.800 Y105.200 E8.5950 F900
G1 X153.800 Y105.100 E8.5978
G1 X153.900 Y105.100 E8.6006
G0 X153.100 Y104.600 F10800
G1 X153.000 Y104.600 E8.6035 F900
G1 X153.000 Y104.500 E8.6063
G1 X153.100 Y104.500 E8.6091
G0 X153.800 Y104.200 F10800
G1 X153.900 Y104.200 E8.6120 F900
G1 X153.900 Y104.100 E8.6148
G1 X153.800 Y104.100 E8.6176
G0 X153.100 Y103.600 F10800
G1 X153.000 Y103.600 E8.6204 F900
G1 X153.100 Y103.500 E8.6244
G1 X153.000 Y103.500 E8.6273
G0 X152.500 Y103.200 F10800
G1 X152.400 Y103.200 E8.6301 F900
G1 X152.400 Y103.100 E8.6329
G1 X152.500 Y103.100 E8.6357
G0 X153.000 Y102.500 F10800
G1 X153.100 Y102.500 E8.6386 F900
G1 X153.000 Y102.600 E8.6426
G1 X153.100 Y102.600 E8.6454
G0 X153.800 Y103.100 F10800
G1 X153.900 Y103.100 E8.6482 F900
G1 X153.900 Y103.200 E8.6511
G1 X153.800 Y103.200 E8.6539
G0 F4800 E7.6539
G0 X153.900 Y102.200 F10800
G0 F4800 E8.6539
G1 X153.800 Y102.200 E8.6567 F900
G1 X153.900 Y102.100 E8.6607
G1 X153.800 Y102.100 E8.6635
G0 F4800 E7.6635
G0 X152.500 Y102.200 F10800
G0 F4800 E8.6635
G1 X152.400 Y102.200 E8.6664 F900
G1 X152.400 Y102.100 E8.6692
G1 X152.500 Y102.100 E8.6720
G0 F4800 E7.6720
G0 X152.500 Y101.000 F10800
G0 F4800 E8.6720
G1 X152.400 Y101.000 E8.6748 F900
G1 X152.400 Y100.900 E8.6777
G1 X152.500 Y100.900 E8.6805
G0 X153.000 Y101.300 F10800
G1 X153.100 Y101.300 E8.6833 F900
G1 X153.000 Y101.400 E8.6873
G1 X153.100 Y101.400 E8.6901
G0 F4800 E7.6901
G0 X154.200 Y101.400 F10800
G0 F4800 E8.6901
G1 X154.300 Y101.400 E8.6930 F900
G1 X154.300 Y101.300 E8.6958
G1 X154.200 Y101.300 E8.6986
G0 X153.900 Y100.600 F10800
G1 X153.800 Y100.600 E8.7015 F900
G1 X153.900 Y100.500 E8.7055
G1 X153.800 Y100.500 E8.7083
G0 X153.100 Y100.100 F10800
G1 X153.000 Y100.100 E8.7111 F900
G1 X153.100 Y100.200 E8.7151
G1 X153.000 Y100.200 E8.7179
G0 X152.500 Y99.800 F10800
G1 X152.400 Y99.800 E8.7208 F900
G1 X152.400 Y99.700 E8.7236
G1 X152.500 Y99.700 E8.7264
G0 F4800 E7.7264
G0 X153.800 Y99.600 F10800
G0 F4800 E8.7264
G1 X153.900 Y99.600 E8.7292 F900
G1 X153.900 Y99.500 E8.7321
G1 X153.800 Y99.500 E8.7349
G0 X153.100 Y99.200 F10800
G1 X153.000 Y99.200 E8.7377 F900
G1 X153.100 Y99.100 E8.7417
G1 X153.000 Y99.100 E8.7446
G0 X152.500 Y98.800 F10800
G1 X152.400 Y98.800 E8.7474 F900
G1 X152.400 Y98.700 E8.7502
G1 X152.500 Y98.700 E8.7530
G0 X152.800 Y98.000 F10800
G1 X152.900 Y98.000 E8.7559 F900
G1 X152.800 Y97.900 E8.7599
G1 X152.900 Y97.900 E8.7627
G0 X153.400 Y98.300 F10800
G1 X153.500 Y98.300 E8.7655 F900
G1 X153.400 Y98.400 E8.7695
G1 X153.500 Y98.400 E8.7723
G0 X154.000 Y98.700 F10800
G1 X154.100 Y98.700 E8.7752 F900
G1 X154.000 Y98.800 E8.7792
G1 X154.100 Y98.800 E8.7820
G0 X154.100 Y97.800 F10800
G1 X154.000 Y97.800 E8.7848 F900
G1 X154.100 Y97.700 E8.7888
G1 X154.000 Y97.700 E8.7916
G0 X153.500 Y97.400 F10800
G1 X153.400 Y97.400 E8.7945 F900
G1 X153.400 Y97.300 E8.7973
G1 X153.500 Y97.300 E8.8001
G0 X152.700 Y97.000 F10800
G1 X152.600 Y97.000 E8.8030 F900
G1 X152.600 Y96.900 E8.8058
G1 X152.700 Y96.900 E8.8086
G0 X153.300 Y96.300 F10800
G1 X153.200 Y96.300 E8.8114 F900
G1 X153.200 Y96.400 E8.8143
G1 X153.300 Y96.400 E8.8171
G0 X154.000 Y96.500 F10800
G1 X154.100 Y96.500 E8.8199 F900
G1 X154.100 Y96.600 E8.8227
G1 X154.000 Y96.600 E8.8256
G0 X154.000 Y95.600 F10800
G1 X154.100 Y95.600 E8.8284 F900
G1 X154.100 Y95.500 E8.8312
G1 X154.000 Y95.500 E8.8341
G0 F4800 E7.8341
G0 X153.800 Y94.200 F10800
G0 F4800 E8.8341
G1 X153.900 Y94.200 E8.8369 F900
G1 X153.900 Y94.100 E8.8397
G1 X153.800 Y94.100 E8.8425
G0 F4800 E7.8425
G0 X152.700 Y95.000 F10800
G0 F4800 E8.8425
G1 X152.600 Y95.000 E8.8454 F900
G1 X152.600 Y94.900 E8.8482
G1 X152.700 Y94.900 E8.8510
G0 X152.800 Y94.200 F10800
G1 X152.900 Y94.200 E8.8538 F900
G1 X152.900 Y94.100 E8.8567
G1 X152.800 Y94.100 E8.8595
G0 F4800 E7.8595
G0 X153.200 Y95.300 F10800
G0 F4800 E8.8595
G1 X153.300 Y95.300 E8.8623 F900
G1 X153.300 Y95.400 E8.8651
G1 X153.200 Y95.400 E8.8680
G0 X152.700 Y95.900 F10800
G1 X152.600 Y95.900 E8.8708 F900
G1 X152.700 Y96.000 E8.8748
G1 X152.600 Y96.000 E8.8776
G0 F4800 E7.8776
G0 X141.100 Y97.700 F10800
G0 F4800 E8.8776
G1 X141.000 Y97.700 E8.8805 F900
G1 X141.000 Y97.800 E8.8833
G1 X141.100 Y97.800 E8.8861
G0 F4800 E7.8861
G0 X141.326 Y98.721 F10800
G0 X141.327 Y101.315
G0 X140.700 Y102.500
G0 F4800 E8.8861
G1 X140.600 Y102.500 E8.8889 F900
G1 X140.700 Y102.600 E8.8929
G1 X140.600 Y102.600 E8.8958
G0 X140.200 Y103.200 F10800
G1 X140.300 Y103.200 E8.8986 F900
G1 X140.300 Y103.100 E8.9014
G1 X140.200 Y103.100 E8.9042
G0 X139.700 Y102.600 F10800
G1 X139.600 Y102.600 E8.9071 F900
G1 X139.700 Y102.500 E8.9111
G1 X139.600 Y102.500 E8.9139
G0 X139.200 Y103.100 F10800
G1 X139.300 Y103.100 E8.9167 F900
G1 X139.300 Y103.200 E8.9195
G1 X139.200 Y103.200 E8.9224
G0 X138.700 Y102.500 F10800
G1 X138.600 Y102.500 E8.9252 F900
G1 X138.600 Y102.600 E8.9280
G1 X138.700 Y102.600 E8.9309
G0 X138.300 Y103.200 F10800
G1 X138.200 Y103.200 E8.9337 F900
G1 X138.300 Y103.100 E8.9377
G1 X138.200 Y103.100 E8.9405
G0 F4800 E7.9405
G0 X137.500 Y102.300 F10800
G0 F4800 E8.9405
G1 X137.400 Y102.300 E8.9433 F900
G1 X137.500 Y102.400 E8.9473
G1 X137.400 Y102.400 E8.9502
G0 X136.400 Y102.400 F10800
G1 X136.500 Y102.400 E8.9530 F900
G1 X136.500 Y102.300 E8.9558
G1 X136.400 Y102.300 E8.9586
G0 F4800 E7.9586
G0 X135.300 Y102.400 F10800
G0 F4800 E8.9586
G1 X135.200 Y102.400 E8.9615 F900
G1 X135.300 Y102.300 E8.9655
G1 X135.200 Y102.300 E8.9683
G0 F4800 E7.9683
G0 X141.327 Y101.315 F10800
G0 X141.326 Y98.721
G0 X134.700 Y97.600
G0 F4800 E8.9683
G1 X134.600 Y97.600 E8.9711 F900
G1 X134.600 Y97.500 E8.9740
G1 X134.700 Y97.500 E8.9768
G0 X135.100 Y97.000 F10800
G1 X135.000 Y97.000 E8.9796 F900
G1 X135.000 Y96.900 E8.9824
G1 X135.100 Y96.900 E8.9853
G0 F4800 E7.9853
G0 X136.100 Y97.100 F10800
G0 F4800 E8.9853
G1 X136.000 Y97.100 E8.9881 F900
G1 X136.000 Y97.200 E8.9909
G1 X136.100 Y97.200 E8.9937
G0 X136.400 Y97.800 F10800
G1 X136.500 Y97.800 E8.9966 F900
G1 X136.400 Y97.700 E9.0006
G1 X136.500 Y97.700 E9.0034
G0 X136.800 Y96.800 F10800
G1 X136.900 Y96.800 E9.0062 F900
G1 X136.800 Y96.700 E9.0102
G1 X136.900 Y96.700 E9.0130
G0 X137.400 Y97.200 F10800
G1 X137.500 Y97.200 E9.0159 F900
G1 X137.400 Y97.100 E9.0199
G1 X137.500 Y97.100 E9.0227
G0 X138.200 Y96.800 F10800
G1 X138.300 Y96.800 E9.0255 F900
G0 X138.800 Y97.100 F10800
G1 X138.900 Y97.100 E9.0284 F900
G1 X138.800 Y97.200 E9.0323
G1 X138.900 Y97.200 E9.0352
G0 X139.600 Y96.900 F10800
G1 X139.700 Y96.900 E9.0380 F900
G1 X139.600 Y97.000 E9.0420
G1 X139.700 Y97.000 E9.0448
G0 X140.400 Y97.300 F10800
G1 X140.500 Y97.300 E9.0477 F900
G1 X140.400 Y97.400 E9.0517
G1 X140.500 Y97.400 E9.0545
G0 X140.800 Y96.800 F10800
G1 X140.900 Y96.800 E9.0573 F900
G1 X140.900 Y96.700 E9.0601
G1 X140.800 Y96.700 E9.0630
G0 F4800 E8.0630
G0 X139.900 Y96.200 F10800
G0 F4800 E9.0630
G1 X139.800 Y96.200 E9.0658 F900
G1 X139.900 Y96.100 E9.0698
G1 X139.800 Y96.100 E9.0726
G0 F4800 E8.0726
G0 X138.700 Y96.100 F10800
G0 F4800 E9.0726
G1 X138.600 Y96.100 E9.0754 F900
G1 X138.700 Y96.200 E9.0794
G1 X138.600 Y96.200 E9.0823
G0 X138.300 Y96.700 F10800
G1 X138.200 Y96.700 E9.0851 F900
G0 F4800 E8.0851
G0 X137.300 Y96.100 F10800
G0 F4800 E9.0851
G1 X137.200 Y96.100 E9.0879 F900
G1 X137.300 Y96.200 E9.0919
G1 X137.200 Y96.200 E9.0947
G0 X136.200 Y96.200 F10800
G1 X136.300 Y96.200 E9.0976 F900
G1 X136.300 Y96.100 E9.1004
G1 X136.200 Y96.100 E9.1032
G0 X135.300 Y96.200 F10800
G1 X135.200 Y96.200 E9.1061 F900
G1 X135.300 Y96.100 E9.1101
G1 X135.200 Y96.100 E9.1129
G0 F4800 E8.1129
G0 X134.200 Y95.900 F10800
G0 F4800 E9.1129
G1 X134.300 Y95.900 E9.1157 F900
G1 X134.300 Y96.000 E9.1185
G1 X134.200 Y96.000 E9.1214
G0 X134.100 Y96.700 F10800
G1 X134.000 Y96.700 E9.1242 F900
G1 X134.000 Y96.800 E9.1270
G1 X134.100 Y96.800 E9.1298
G0 X133.700 Y97.600 F10800
G1 X133.600 Y97.600 E9.1327 F900
G1 X133.700 Y97.500 E9.1367
G1 X133.600 Y97.500 E9.1395
G0 X133.300 Y97.000 F10800
G1 X133.200 Y97.000 E9.1423 F900
G1 X133.200 Y96.900 E9.1451
G1 X133.300 Y96.900 E9.1480
G0 X133.400 Y96.200 F10800
G1 X133.500 Y96.200 E9.1508 F900
G1 X133.500 Y96.100 E9.1536
G1 X133.400 Y96.100 E9.1565
G0 X132.700 Y95.900 F10800
G1 X132.600 Y95.900 E9.1593 F900
G1 X132.700 Y96.000 E9.1633
G1 X132.600 Y96.000 E9.1661
G0 X132.400 Y96.700 F10800
G1 X132.500 Y96.700 E9.1689 F900
G1 X132.500 Y96.800 E9.1718
G1 X132.400 Y96.800 E9.1746
G0 X132.200 Y97.600 F10800
G1 X132.300 Y97.600 E9.1774 F900
G1 X132.300 Y97.500 E9.1802
G1 X132.200 Y97.500 E9.1831
G0 F4800 E8.1831
G0 X131.900 Y96.100 F10800
G0 F4800 E9.1831
G1 X131.800 Y96.100 E9.1859 F900
G1 X131.900 Y96.200 E9.1899
G1 X131.800 Y96.200 E9.1927
G0 X131.100 Y95.900 F10800
G1 X131.000 Y95.900 E9.1956 F900
G1 X131.100 Y96.000 E9.1996
G1 X131.000 Y96.000 E9.2024
G0 X130.300 Y96.100 F10800
G1 X130.200 Y96.100 E9.2052 F900
G1 X130.200 Y96.200 E9.2080
G1 X130.300 Y96.200 E9.2109
G0 X130.800 Y96.700 F10800
G1 X130.900 Y96.700 E9.2137 F900
G1 X130.800 Y96.800 E9.2177
G1 X130.900 Y96.800 E9.2205
G0 X131.600 Y96.900 F10800
G1 X131.700 Y96.900 E9.2233 F900
G1 X131.700 Y97.000 E9.2262
G1 X131.600 Y97.000 E9.2290
G0 F4800 E8.2290
G0 X130.400 Y97.500 F10800
G0 F4800 E9.2290
G1 X130.500 Y97.500 E9.2318 F900
G1 X130.500 Y97.600 E9.2346
G1 X130.400 Y97.600 E9.2375
G0 F4800 E8.2375
G0 X129.700 Y102.000 F10800
G0 F4800 E9.2375
G1 X129.600 Y102.000 E9.2403 F900
G0 X129.100 Y102.500 F10800
G1 X129.000 Y102.500 E9.2431 F900
G1 X129.000 Y102.600 E9.2460
G1 X129.100 Y102.600 E9.2488
G0 X129.400 Y103.300 F10800
G1 X129.500 Y103.300 E9.2516 F900
G1 X129.400 Y103.400 E9.2556
G1 X129.500 Y103.400 E9.2584
G0 X128.900 Y103.900 F10800
G1 X128.800 Y103.900 E9.2613 F900
G1 X128.900 Y104.000 E9.2653
G1 X128.800 Y104.000 E9.2681
G0 X128.100 Y104.100 F10800
G1 X128.000 Y104.100 E9.2709 F900
G1 X128.100 Y104.200 E9.2749
G1 X128.000 Y104.200 E9.2777
G0 X127.700 Y104.700 F10800
G1 X127.600 Y104.700 E9.2806 F900
G1 X127.700 Y104.800 E9.2846
G1 X127.600 Y104.800 E9.2874
G0 X127.100 Y105.200 F10800
G1 X127.000 Y105.200 E9.2902 F900
G1 X127.000 Y105.100 E9.2930
G1 X127.100 Y105.100 E9.2959
G0 X127.600 Y105.700 F10800
G1 X127.700 Y105.700 E9.2987 F900
G1 X127.700 Y105.800 E9.3015
G1 X127.600 Y105.800 E9.3044
G0 X127.100 Y106.100 F10800
G1 X127.000 Y106.100 E9.3072 F900
G1 X127.000 Y106.200 E9.3100
G1 X127.100 Y106.200 E9.3128
G0 X127.400 Y106.700 F10800
G1 X127.500 Y106.700 E9.3157 F900
G1 X127.500 Y106.800 E9.3185
G1 X127.400 Y106.800 E9.3213
G0 X126.900 Y107.100 F10800
G1 X126.800 Y107.100 E9.3241 F900
G1 X126.900 Y107.200 E9.3281
G1 X126.800 Y107.200 E9.3310
G0 X127.500 Y107.700 F10800
G1 X127.400 Y107.700 E9.3338 F900
G1 X127.400 Y107.800 E9.3366
G1 X127.500 Y107.800 E9.3394
G0 X126.900 Y108.100 F10800
G1 X126.800 Y108.100 E9.3423 F900
G1 X126.900 Y108.200 E9.3463
G1 X126.800 Y108.200 E9.3491
G0 X127.400 Y108.700 F10800
G1 X127.500 Y108.700 E9.3519 F900
G1 X127.400 Y108.800 E9.3559
G1 X127.500 Y108.800 E9.3587
G0 X127.300 Y109.500 F10800
G1 X127.200 Y109.500 E9.3616 F900
G1 X127.300 Y109.600 E9.3656
G1 X127.200 Y109.600 E9.3684
G0 F4800 E8.3684
G0 X126.100 Y110.100 F10800
G0 F4800 E9.3684
G1 X126.000 Y110.100 E9.3712 F900
G1 X126.000 Y110.200 E9.3741
G1 X126.100 Y110.200 E9.3769
G0 X126.000 Y111.100 F10800
G1 X126.100 Y111.100 E9.3797 F900
G1 X126.100 Y111.200 E9.3825
G1 X126.000 Y111.200 E9.3854
G0 X125.500 Y110.700 F10800
G1 X125.400 Y110.700 E9.3882 F900
G1 X125.500 Y110.800 E9.3922
G1 X125.400 Y110.800 E9.3950
G0 X125.400 Y111.700 F10800
G1 X125.500 Y111.700 E9.3978 F900
G1 X125.500 Y111.800 E9.4007
G1 X125.400 Y111.800 E9.4035
G0 X126.000 Y112.100 F10800
G1 X126.100 Y112.100 E9.4063 F900
G1 X126.100 Y112.200 E9.4091
G1 X126.000 Y112.200 E9.4120
G0 X125.300 Y112.500 F10800
G1 X125.200 Y112.500 E9.4148 F900
G1 X125.300 Y112.600 E9.4188
G1 X125.200 Y112.600 E9.4216
G0 X125.600 Y113.100 F10800
G1 X125.700 Y113.100 E9.4245 F900
G1 X125.700 Y113.200 E9.4273
G1 X125.600 Y113.200 E9.4301
G0 X125.000 Y113.700 F10800
G1 X125.100 Y113.700 E9.4329 F900
G1 X125.000 Y113.800 E9.4369
G1 X125.100 Y113.800 E9.4398
G0 X125.400 Y114.300 F10800
G1 X125.500 Y114.300 E9.4426 F900
G0 X126.000 Y113.900 F10800
G1 X126.100 Y113.900 E9.4454 F900
G1 X126.100 Y114.000 E9.4482
G1 X126.000 Y114.000 E9.4511
G0 X126.000 Y114.900 F10800
G1 X126.100 Y114.900 E9.4539 F900
G1 X126.100 Y115.000 E9.4567
G1 X126.000 Y115.000 E9.4595
G0 X125.500 Y114.400 F10800
G1 X125.400 Y114.400 E9.4624 F900
G0 X125.400 Y115.300 F10800
G1 X125.500 Y115.300 E9.4652 F900
G1 X125.500 Y115.400 E9.4680
G1 X125.400 Y115.400 E9.4709
G0 X124.900 Y116.000 F10800
G1 X124.800 Y116.000 E9.4737 F900
G0 F4800 E8.4737
G0 X124.000 Y116.700 F10800
G0 F4800 E9.4737
G1 X124.100 Y116.700 E9.4765 F900
G1 X124.100 Y116.800 E9.4793
G1 X124.000 Y116.800 E9.4822
G0 X124.600 Y117.100 F10800
G1 X124.700 Y117.100 E9.4850 F900
G1 X124.700 Y117.200 E9.4878
G1 X124.600 Y117.200 E9.4906
G0 X124.000 Y117.700 F10800
G1 X124.100 Y117.700 E9.4935 F900
G1 X124.000 Y117.800 E9.4975
G1 X124.100 Y117.800 E9.5003
G0 F4800 E8.5003
G0 X124.100 Y118.900 F10800
G0 F4800 E9.5003
G1 X124.000 Y118.900 E9.5031 F900
G1 X124.000 Y119.000 E9.5059
G1 X124.100 Y119.000 E9.5088
G0 F4800 E8.5088
G0 X124.600 Y118.100 F10800
G0 F4800 E9.5088
G1 X124.700 Y118.100 E9.5116 F900
G1 X124.700 Y118.200 E9.5144
G1 X124.600 Y118.200 E9.5173
G0 X125.000 Y119.000 F10800
G1 X125.100 Y119.000 E9.5201 F900
G1 X125.000 Y118.900 E9.5241
G1 X125.100 Y118.900 E9.5269
G0 X125.400 Y118.400 F10800
G1 X125.500 Y118.400 E9.5297 F900
G1 X125.400 Y118.300 E9.5337
G1 X125.500 Y118.300 E9.5366
G0 X126.000 Y119.000 F10800
G1 X126.100 Y119.000 E9.5394 F900
G1 X126.100 Y118.900 E9.5422
G1 X126.000 Y118.900 E9.5450
G0 X126.200 Y118.000 F10800
G1 X126.300 Y118.000 E9.5479 F900
G1 X126.300 Y117.900 E9.5507
G1 X126.200 Y117.900 E9.5535
G0 X125.500 Y117.400 F10800
G1 X125.400 Y117.400 E9.5563 F900
G1 X125.400 Y117.300 E9.5592
G1 X125.500 Y117.300 E9.5620
G0 X126.200 Y117.000 F10800
G1 X126.300 Y117.000 E9.5648 F900
G1 X126.300 Y116.900 E9.5677
G1 X126.200 Y116.900 E9.5705
G0 X126.200 Y116.000 F10800
G1 X126.300 Y116.000 E9.5733 F900
G1 X126.300 Y115.900 E9.5761
G1 X126.200 Y115.900 E9.5790
G0 X125.500 Y116.400 F10800
G1 X125.400 Y116.400 E9.5818 F900
G1 X125.400 Y116.300 E9.5846
G1 X125.500 Y116.300 E9.5874
G0 X124.900 Y115.900 F10800
G1 X124.800 Y115.900 E9.5903 F900
G0 X124.100 Y115.800 F10800
G1 X124.000 Y115.800 E9.5931 F900
G1 X124.000 Y115.700 E9.5959
G1 X124.100 Y115.700 E9.5987
G0 X124.800 Y115.000 F10800
G1 X124.900 Y115.000 E9.6016 F900
G1 X124.900 Y114.900 E9.6044
G1 X124.800 Y114.900 E9.6072
G0 X124.200 Y114.400 F10800
G1 X124.300 Y114.400 E9.6101 F900
G1 X124.300 Y114.300 E9.6129
G1 X124.200 Y114.300 E9.6157
G0 X123.700 Y113.600 F10800
G1 X123.600 Y113.600 E9.6185 F900
G1 X123.700 Y113.500 E9.6225
G1 X123.600 Y113.500 E9.6254
G0 X123.300 Y114.100 F10800
G1 X123.200 Y114.100 E9.6282 F900
G1 X123.300 Y114.200 E9.6322
G1 X123.200 Y114.200 E9.6350
G0 X122.700 Y113.700 F10800
G1 X122.600 Y113.700 E9.6378 F900
G1 X122.700 Y113.800 E9.6418
G1 X122.600 Y113.800 E9.6447
G0 X122.300 Y114.300 F10800
G1 X122.200 Y114.300 E9.6475 F900
G1 X122.300 Y114.400 E9.6515
G1 X122.200 Y114.400 E9.6543
G0 X122.500 Y115.100 F10800
G1 X122.400 Y115.100 E9.6571 F900
G1 X122.400 Y115.200 E9.6600
G1 X122.500 Y115.200 E9.6628
G0 X123.400 Y115.100 F10800
G1 X123.500 Y115.100 E9.6656 F900
G1 X123.500 Y115.200 E9.6685
G1 X123.400 Y115.200 E9.6713
G0 X122.900 Y115.900 F10800
G1 X122.800 Y115.900 E9.6741 F900
G1 X122.800 Y116.000 E9.6769
G1 X122.900 Y116.000 E9.6798
G0 X122.300 Y116.300 F10800
G1 X122.200 Y116.300 E9.6826 F900
G1 X122.200 Y116.400 E9.6854
G1 X122.300 Y116.400 E9.6882
G0 X123.000 Y116.700 F10800
G1 X123.100 Y116.700 E9.6911 F900
G1 X123.000 Y116.800 E9.6951
G1 X123.100 Y116.800 E9.6979
G0 X123.000 Y117.700 F10800
G1 X123.100 Y117.700 E9.7007 F900
G1 X123.000 Y117.800 E9.7047
G1 X123.100 Y117.800 E9.7075
G0 X123.400 Y118.300 F10800
G1 X123.500 Y118.300 E9.7104 F900
G1 X123.500 Y118.400 E9.7132
G1 X123.400 Y118.400 E9.7160
G0 X123.100 Y118.900 F10800
G1 X123.000 Y118.900 E9.7188 F900
G1 X123.100 Y119.000 E9.7228
G1 X123.000 Y119.000 E9.7257
G0 X122.100 Y119.000 F10800
G1 X122.000 Y119.000 E9.7285 F900
G1 X122.100 Y118.900 E9.7325
G1 X122.000 Y118.900 E9.7353
G0 X121.400 Y118.400 F10800
G1 X121.500 Y118.400 E9.7382 F900
G1 X121.400 Y118.300 E9.7421
G1 X121.500 Y118.300 E9.7450
G0 X122.400 Y118.400 F10800
G1 X122.500 Y118.400 E9.7478 F900
G1 X122.500 Y118.300 E9.7506
G1 X122.400 Y118.300 E9.7535
G0 X122.000 Y117.800 F10800
G1 X122.100 Y117.800 E9.7563 F900
G1 X122.000 Y117.700 E9.7603
G1 X122.100 Y117.700 E9.7631
G0 X121.700 Y117.200 F10800
G1 X121.600 Y117.200 E9.7659 F900
G1 X121.700 Y117.100 E9.7699
G1 X121.600 Y117.100 E9.7728
G0 X121.300 Y116.400 F10800
G1 X121.200 Y116.400 E9.7756 F900
G1 X121.200 Y116.300 E9.7784
G1 X121.300 Y116.300 E9.7812
G0 X121.800 Y115.800 F10800
G1 X121.900 Y115.800 E9.7841 F900
G1 X121.900 Y115.700 E9.7869
G1 X121.800 Y115.700 E9.7897
G0 X121.600 Y115.000 F10800
G1 X121.700 Y115.000 E9.7925 F900
G1 X121.700 Y114.900 E9.7954
G1 X121.600 Y114.900 E9.7982
G0 X121.400 Y114.000 F10800
G1 X121.500 Y114.000 E9.8010 F900
G1 X121.500 Y113.900 E9.8039
G1 X121.400 Y113.900 E9.8067
G0 X122.100 Y113.400 F10800
G1 X122.000 Y113.400 E9.8095 F900
G1 X122.000 Y113.300 E9.8123
G1 X122.100 Y113.300 E9.8152
G0 X121.700 Y112.800 F10800
G1 X121.600 Y112.800 E9.8180 F900
G1 X121.600 Y112.700 E9.8208
G1 X121.700 Y112.700 E9.8236
G0 X122.100 Y112.000 F10800
G1 X122.000 Y112.000 E9.8265 F900
G1 X122.100 Y111.900 E9.8305
G1 X122.000 Y111.900 E9.8333
G0 X121.700 Y111.200 F10800
G1 X121.600 Y111.200 E9.8361 F900
G1 X121.600 Y111.100 E9.8389
G1 X121.700 Y111.100 E9.8418
G0 X121.300 Y110.600 F10800
G1 X121.200 Y110.600 E9.8446 F900
G1 X121.200 Y110.500 E9.8474
G1 X121.300 Y110.500 E9.8503
G0 F4800 E8.8503
G0 X121.100 Y109.200 F10800
G0 F4800 E9.8503
G1 X121.000 Y109.200 E9.8531 F900
G0 X120.500 Y109.500 F10800
G1 X120.400 Y109.500 E9.8559 F900
G1 X120.400 Y109.600 E9.8587
G1 X120.500 Y109.600 E9.8616
G0 X119.900 Y109.200 F10800
G1 X119.800 Y109.200 E9.8644 F900
G1 X119.800 Y109.100 E9.8672
G1 X119.900 Y109.100 E9.8700
G0 X119.900 Y108.200 F10800
G1 X119.800 Y108.200 E9.8729 F900
G1 X119.800 Y108.100 E9.8757
G1 X119.900 Y108.100 E9.8785
G0 X120.400 Y107.600 F10800
G1 X120.500 Y107.600 E9.8813 F900
G0 X121.000 Y108.100 F10800
G1 X121.100 Y108.100 E9.8842 F900
G1 X121.100 Y108.200 E9.8870
G1 X121.000 Y108.200 E9.8898
G0 X120.500 Y108.500 F10800
G1 X120.400 Y108.500 E9.8927 F900
G1 X120.400 Y108.600 E9.8955
G1 X120.500 Y108.600 E9.8983
G0 X121.000 Y109.100 F10800
G1 X121.100 Y109.100 E9.9011 F900
G0 F4800 E8.9011
G0 X123.400 Y110.300 F10800
G0 F4800 E9.9011
G1 X123.500 Y110.300 E9.9040 F900
G1 X123.500 Y110.400 E9.9068
G1 X123.400 Y110.400 E9.9096
G0 X124.100 Y110.900 F10800
G1 X124.000 Y110.900 E9.9124 F900
G1 X124.100 Y111.000 E9.9164
G1 X124.000 Y111.000 E9.9193
G0 X123.500 Y111.400 F10800
G1 X123.400 Y111.400 E9.9221 F900
G1 X123.500 Y111.300 E9.9261
G1 X123.400 Y111.300 E9.9289
G0 F4800 E8.9289
G0 X122.500 Y110.700 F10800
G0 F4800 E9.9289
G1 X122.400 Y110.700 E9.9317 F900
G1 X122.400 Y110.800 E9.9346
G1 X122.500 Y110.800 E9.9374
G0 F4800 E8.9374
G0 X122.700 Y112.400 F10800
G0 F4800 E9.9374
G1 X122.600 Y112.400 E9.9402 F900
G1 X122.600 Y112.300 E9.9431
G1 X122.700 Y112.300 E9.9459
G0 X123.500 Y112.700 F10800
G1 X123.400 Y112.700 E9.9487 F900
G1 X123.400 Y112.800 E9.9515
G1 X123.500 Y112.800 E9.9544
G0 X124.300 Y113.000 F10800
G1 X124.200 Y113.000 E9.9572 F900
G1 X124.200 Y112.900 E9.9600
G1 X124.300 Y112.900 E9.9628
G0 X124.100 Y112.000 F10800
G1 X124.000 Y112.000 E9.9657 F900
G1 X124.000 Y111.900 E9.9685
G1 X124.100 Y111.900 E9.9713
G0 X124.700 Y111.300 F10800
G1 X124.600 Y111.300 E9.9742 F900
G1 X124.600 Y111.400 E9.9770
G1 X124.700 Y111.400 E9.9798
G0 F4800 E8.9798
G0 X124.600 Y110.300 F10800
G0 F4800 E9.9798
G1 X124.700 Y110.300 E9.9826 F900
G1 X124.600 Y110.400 E9.9866
G1 X124.700 Y110.400 E9.9895
G0 F4800 E8.9895
G0 X125.800 Y109.400 F10800
G0 F4800 E9.9895
G1 X125.900 Y109.400 E9.9923 F900
G1 X125.800 Y109.300 E9.9963
G1 X125.900 Y109.300 E9.9991
G0 X126.100 Y108.600 F10800
G1 X126.000 Y108.600 E10.0019 F900
G1 X126.000 Y108.500 E10.0048
G1 X126.100 Y108.500 E10.0076
G0 X126.100 Y107.600 F10800
G1 X126.000 Y107.600 E10.0104 F900
G1 X126.000 Y107.500 E10.0132
G1 X126.100 Y107.500 E10.0161
G0 X126.300 Y106.800 F10800
G1 X126.200 Y106.800 E10.0189 F900
G1 X126.300 Y106.700 E10.0229
G1 X126.200 Y106.700 E10.0257
G0 X125.700 Y106.200 F10800
G1 X125.600 Y106.200 E10.0285 F900
G1 X125.600 Y106.100 E10.0314
G1 X125.700 Y106.100 E10.0342
G0 X126.200 Y105.700 F10800
G1 X126.300 Y105.700 E10.0370 F900
G1 X126.300 Y105.800 E10.0399
G1 X126.200 Y105.800 E10.0427
G0 X125.900 Y105.200 F10800
G1 X125.800 Y105.200 E10.0455 F900
G1 X125.800 Y105.100 E10.0483
G1 X125.900 Y105.100 E10.0512
G0 X126.400 Y104.800 F10800
G1 X126.500 Y104.800 E10.0540 F900
G1 X126.500 Y104.700 E10.0568
G1 X126.400 Y104.700 E10.0596
G0 X125.900 Y104.100 F10800
G1 X125.800 Y104.100 E10.0625 F900
G1 X125.900 Y104.200 E10.0665
G1 X125.800 Y104.200 E10.0693
G0 F4800 E9.0693
G0 X124.923 Y109.463 F10800
G0 X122.333 Y109.463
G0 X121.100 Y106.100
G0 F4800 E10.0693
G1 X121.000 Y106.100 E10.0721 F900
G1 X121.000 Y106.200 E10.0749
G1 X121.100 Y106.200 E10.0778
G0 X121.000 Y107.100 F10800
G1 X121.100 Y107.100 E10.0806 F900
G1 X121.100 Y107.200 E10.0834
G1 X121.000 Y107.200 E10.0863
G0 X120.500 Y107.500 F10800
G1 X120.400 Y107.500 E10.0891 F900
G0 X119.900 Y107.200 F10800
G1 X119.800 Y107.200 E10.0919 F900
G1 X119.800 Y107.100 E10.0947
G1 X119.900 Y107.100 E10.0976
G0 X120.500 Y106.500 F10800
G1 X120.400 Y106.500 E10.1004 F900
G1 X120.500 Y106.600 E10.1044
G1 X120.400 Y106.600 E10.1072
G0 X119.900 Y106.200 F10800
G1 X119.800 Y106.200 E10.1100 F900
G1 X119.800 Y106.100 E10.1129
G1 X119.900 Y106.100 E10.1157
G0 X120.400 Y105.600 F10800
G1 X120.500 Y105.600 E10.1185 F900
G1 X120.400 Y105.500 E10.1225
G1 X120.500 Y105.500 E10.1253
G0 X121.000 Y105.200 F10800
G1 X121.100 Y105.200 E10.1282 F900
G1 X121.000 Y105.100 E10.1322
G1 X121.100 Y105.100 E10.1350
G0 X121.000 Y104.200 F10800
G1 X121.100 Y104.200 E10.1378 F900
G1 X121.100 Y104.100 E10.1406
G1 X121.000 Y104.100 E10.1435
G0 X120.500 Y104.600 F10800
G1 X120.400 Y104.600 E10.1463 F900
G1 X120.500 Y104.500 E10.1503
G1 X120.400 Y104.500 E10.1531
G0 X119.900 Y105.100 F10800
G1 X119.800 Y105.100 E10.1560 F900
G1 X119.800 Y105.200 E10.1588
G1 X119.900 Y105.200 E10.1616
G0 X119.900 Y104.200 F10800
G1 X119.800 Y104.200 E10.1644 F900
G1 X119.800 Y104.100 E10.1673
G1 X119.900 Y104.100 E10.1701
G0 X120.400 Y103.600 F10800
G1 X120.500 Y103.600 E10.1729 F900
G1 X120.400 Y103.500 E10.1769
G1 X120.500 Y103.500 E10.1797
G0 X121.000 Y103.100 F10800
G1 X121.100 Y103.100 E10.1826 F900
G1 X121.100 Y103.200 E10.1854
G1 X121.000 Y103.200 E10.1882
G0 F4800 E9.1882
G0 X120.100 Y102.700 F10800
G0 F4800 E10.1882
G1 X120.000 Y102.700 E10.1910 F900
G1 X120.000 Y102.800 E10.1939
G1 X120.100 Y102.800 E10.1967
G0 X120.800 Y102.400 F10800
G1 X120.900 Y102.400 E10.1995 F900
G1 X120.900 Y102.300 E10.2024
G1 X120.800 Y102.300 E10.2052
G0 X119.900 Y102.000 F10800
G1 X119.800 Y102.000 E10.2080 F900
G1 X119.800 Y101.900 E10.2108
G1 X119.900 Y101.900 E10.2137
G0 X119.900 Y101.000 F10800
G1 X119.800 Y101.000 E10.2165 F900
G1 X119.800 Y100.900 E10.2193
G1 X119.900 Y100.900 E10.2221
G0 X120.600 Y101.300 F10800
G1 X120.700 Y101.300 E10.2250 F900
G1 X120.600 Y101.400 E10.2290
G1 X120.700 Y101.400 E10.2318
G0 X121.400 Y101.800 F10800
G1 X121.500 Y101.800 E10.2346 F900
G1 X121.500 Y101.700 E10.2374
G1 X121.400 Y101.700 E10.2403
G0 X121.500 Y100.800 F10800
G1 X121.400 Y100.800 E10.2431 F900
G1 X121.500 Y100.700 E10.2471
G1 X121.400 Y100.700 E10.2499
G0 X121.100 Y100.000 F10800
G1 X121.000 Y100.000 E10.2527 F900
G1 X121.100 Y99.900 E10.2567
G1 X121.000 Y99.900 E10.2596
G0 X120.500 Y100.300 F10800
G1 X120.400 Y100.300 E10.2624 F900
G1 X120.500 Y100.400 E10.2664
G1 X120.400 Y100.400 E10.2692
G0 X119.800 Y100.000 F10800
G1 X119.900 Y100.000 E10.2721 F900
G1 X119.800 Y99.900 E10.2760
G1 X119.900 Y99.900 E10.2789
G0 X120.700 Y99.400 F10800
G1 X120.600 Y99.400 E10.2817 F900
G1 X120.700 Y99.300 E10.2857
G1 X120.600 Y99.300 E10.2885
G0 X120.100 Y98.800 F10800
G1 X120.000 Y98.800 E10.2914 F900
G1 X120.000 Y98.700 E10.2942
G1 X120.100 Y98.700 E10.2970
G0 F4800 E9.2970
G0 X121.200 Y98.400 F10800
G0 F4800 E10.2970
G1 X121.300 Y98.400 E10.2998 F900
G1 X121.300 Y98.300 E10.3027
G1 X121.200 Y98.300 E10.3055
G0 X120.700 Y98.000 F10800
G1 X120.600 Y98.000 E10.3083 F900
G1 X120.700 Y97.900 E10.3123
G1 X120.600 Y97.900 E10.3151
G0 X119.900 Y97.800 F10800
G1 X119.800 Y97.800 E10.3180 F900
G1 X119.800 Y97.700 E10.3208
G1 X119.900 Y97.700 E10.3236
G0 F4800 E9.3236
G0 X121.200 Y97.400 F10800
G0 F4800 E10.3236
G1 X121.300 Y97.400 E10.3265 F900
G1 X121.300 Y97.300 E10.3293
G1 X121.200 Y97.300 E10.3321
G0 X120.700 Y97.000 F10800
G1 X120.600 Y97.000 E10.3349 F900
G1 X120.700 Y96.900 E10.3389
G1 X120.600 Y96.900 E10.3418
G0 X119.900 Y96.400 F10800
G1 X119.800 Y96.400 E10.3446 F900
G1 X119.900 Y96.300 E10.3486
G1 X119.800 Y96.300 E10.3514
G0 X120.500 Y95.600 F10800
G1 X120.400 Y95.600 E10.3542 F900
G1 X120.400 Y95.500 E10.3571
G1 X120.500 Y95.500 E10.3599
G0 X121.200 Y95.800 F10800
G1 X121.300 Y95.800 E10.3627 F900
G1 X121.300 Y95.700 E10.3655
G1 X121.200 Y95.700 E10.3684
G0 X121.200 Y94.800 F10800
G1 X121.300 Y94.800 E10.3712 F900
G1 X121.300 Y94.700 E10.3740
G1 X121.200 Y94.700 E10.3769
G0 X120.500 Y94.500 F10800
G1 X120.400 Y94.500 E10.3797 F900
G0 X119.900 Y94.100 F10800
G1 X119.800 Y94.100 E10.3825 F900
G1 X119.800 Y94.200 E10.3853
G1 X119.900 Y94.200 E10.3882
G0 X119.800 Y95.100 F10800
G1 X119.900 Y95.100 E10.3910 F900
G1 X119.900 Y95.200 E10.3938
G1 X119.800 Y95.200 E10.3966
G0 X120.400 Y94.600 F10800
G1 X120.500 Y94.600 E10.3995 F900
G0 F4800 E9.3995
G0 X121.000 Y93.600 F10800
G0 F4800 E10.3995
G1 X121.100 Y93.600 E10.4023 F900
G1 X121.100 Y93.500 E10.4051
G1 X121.000 Y93.500 E10.4080
G0 X120.400 Y93.000 F10800
G1 X120.500 Y93.000 E10.4108 F900
G1 X120.500 Y92.900 E10.4136
G1 X120.400 Y92.900 E10.4164
G0 X119.900 Y92.600 F10800
G1 X119.800 Y92.600 E10.4193 F900
G1 X119.800 Y92.500 E10.4221
G1 X119.900 Y92.500 E10.4249
G0 F4800 E9.4249
G0 X119.900 Y91.400 F10800
G0 F4800 E10.4249
G1 X119.800 Y91.400 E10.4277 F900
G1 X119.800 Y91.300 E10.4306
G1 X119.900 Y91.300 E10.4334
G0 X120.400 Y91.000 F10800
G1 X120.500 Y91.000 E10.4362 F900
G1 X120.400 Y90.900 E10.4402
G1 X120.500 Y90.900 E10.4430
G0 F4800 E9.4430
G0 X121.400 Y90.200 F10800
G0 F4800 E10.4430
G1 X121.500 Y90.200 E10.4459 F900
G1 X121.500 Y90.100 E10.4487
G1 X121.400 Y90.100 E10.4515
G0 X121.800 Y89.400 F10800
G1 X121.900 Y89.400 E10.4544 F900
G1 X121.900 Y89.300 E10.4572
G1 X121.800 Y89.300 E10.4600
G0 X121.300 Y88.700 F10800
G1 X121.200 Y88.700 E10.4628 F900
G1 X121.200 Y88.800 E10.4657
G1 X121.300 Y88.800 E10.4685
G0 X121.900 Y88.400 F10800
G1 X121.800 Y88.400 E10.4713 F900
G1 X121.800 Y88.300 E10.4741
G1 X121.900 Y88.300 E10.4770
G0 X121.200 Y87.700 F10800
G1 X121.300 Y87.700 E10.4798 F900
G1 X121.200 Y87.800 E10.4838
G1 X121.300 Y87.800 E10.4866
G0 X121.800 Y87.100 F10800
G1 X121.900 Y87.100 E10.4894 F900
G1 X121.900 Y87.200 E10.4923
G1 X121.800 Y87.200 E10.4951
G0 X122.400 Y87.700 F10800
G1 X122.500 Y87.700 E10.4979 F900
G1 X122.400 Y87.800 E10.5019
G1 X122.500 Y87.800 E10.5048
G0 F4800 E9.5048
G0 X122.400 Y86.800 F10800
G0 F4800 E10.5048
G1 X122.500 Y86.800 E10.5076 F900
G1 X122.400 Y86.700 E10.5116
G1 X122.500 Y86.700 E10.5144
G0 F4800 E9.5144
G0 X123.000 Y85.600 F10800
G0 F4800 E10.5144
G1 X123.100 Y85.600 E10.5172 F900
G1 X123.100 Y85.500 E10.5201
G1 X123.000 Y85.500 E10.5229
G0 X122.300 Y86.000 F10800
G1 X122.200 Y86.000 E10.5257 F900
G1 X122.300 Y85.900 E10.5297
G1 X122.200 Y85.900 E10.5325
G0 X121.700 Y86.400 F10800
G1 X121.600 Y86.400 E10.5354 F900
G1 X121.600 Y86.300 E10.5382
G1 X121.700 Y86.300 E10.5410
G0 X121.300 Y85.600 F10800
G1 X121.200 Y85.600 E10.5438 F900
G1 X121.200 Y85.500 E10.5467
G1 X121.300 Y85.500 E10.5495
G0 X121.600 Y85.000 F10800
G1 X121.700 Y85.000 E10.5523 F900
G1 X121.700 Y84.900 E10.5552
G1 X121.600 Y84.900 E10.5580
G0 X121.300 Y84.400 F10800
G1 X121.200 Y84.400 E10.5608 F900
G1 X121.200 Y84.300 E10.5636
G1 X121.300 Y84.300 E10.5665
G0 X122.000 Y84.000 F10800
G1 X122.100 Y84.000 E10.5693 F900
G1 X122.100 Y83.900 E10.5721
G1 X122.000 Y83.900 E10.5749
G0 X121.500 Y83.400 F10800
G1 X121.400 Y83.400 E10.5778 F900
G1 X121.500 Y83.300 E10.5818
G1 X121.400 Y83.300 E10.5846
G0 X122.000 Y83.000 F10800
G1 X122.100 Y83.000 E10.5874 F900
G1 X122.100 Y82.900 E10.5902
G1 X122.000 Y82.900 E10.5931
G0 X121.300 Y82.400 F10800
G1 X121.200 Y82.400 E10.5959 F900
G1 X121.200 Y82.300 E10.5987
G1 X121.300 Y82.300 E10.6016
G0 F4800 E9.6016
G0 X121.300 Y81.200 F10800
G0 F4800 E10.6016
G1 X121.200 Y81.200 E10.6044 F900
G1 X121.200 Y81.100 E10.6072
G1 X121.300 Y81.100 E10.6100
G0 X122.000 Y81.600 F10800
G1 X122.100 Y81.600 E10.6129 F900
G1 X122.000 Y81.500 E10.6169
G1 X122.100 Y81.500 E10.6197
G0 X122.400 Y80.900 F10800
G1 X122.500 Y80.900 E10.6225 F900
G1 X122.400 Y81.000 E10.6265
G1 X122.500 Y81.000 E10.6293
G0 X123.000 Y81.500 F10800
G1 X123.100 Y81.500 E10.6322 F900
G0 X124.000 Y81.100 F10800
G1 X124.100 Y81.100 E10.6350 F900
G1 X124.000 Y81.200 E10.6390
G1 X124.100 Y81.200 E10.6418
G0 X124.600 Y81.500 F10800
G1 X124.700 Y81.500 E10.6446 F900
G1 X124.600 Y81.600 E10.6486
G1 X124.700 Y81.600 E10.6515
G0 X125.400 Y81.200 F10800
G1 X125.500 Y81.200 E10.6543 F900
G1 X125.400 Y81.100 E10.6583
G1 X125.500 Y81.100 E10.6611
G0 X126.200 Y80.900 F10800
G1 X126.300 Y80.900 E10.6639 F900
G1 X126.300 Y81.000 E10.6668
G1 X126.200 Y81.000 E10.6696
G0 X126.000 Y81.700 F10800
G1 X126.100 Y81.700 E10.6724 F900
G1 X126.100 Y81.800 E10.6753
G1 X126.000 Y81.800 E10.6781
G0 X125.100 Y82.100 F10800
G1 X125.000 Y82.100 E10.6809 F900
G1 X125.000 Y82.200 E10.6837
G1 X125.100 Y82.200 E10.6866
G0 F4800 E9.6866
G0 X126.000 Y82.700 F10800
G0 F4800 E10.6866
G1 X126.100 Y82.700 E10.6894 F900
G1 X126.100 Y82.800 E10.6922
G1 X126.000 Y82.800 E10.6950
G0 X125.300 Y83.100 F10800
G1 X125.200 Y83.100 E10.6979 F900
G1 X125.300 Y83.200 E10.7019
G1 X125.200 Y83.200 E10.7047
G0 F4800 E9.7047
G0 X124.000 Y82.600 F10800
G0 F4800 E10.7047
G1 X124.100 Y82.600 E10.7075 F900
G1 X124.100 Y82.500 E10.7103
G1 X124.000 Y82.500 E10.7132
G0 X123.700 Y82.000 F10800
G1 X123.600 Y82.000 E10.7160 F900
G1 X123.700 Y81.900 E10.7200
G1 X123.600 Y81.900 E10.7228
G0 X123.100 Y81.600 F10800
G1 X123.000 Y81.600 E10.7257 F900
G0 X122.500 Y82.100 F10800
G1 X122.400 Y82.100 E10.7285 F900
G1 X122.400 Y82.200 E10.7313
G1 X122.500 Y82.200 E10.7341
G0 X123.000 Y82.700 F10800
G1 X123.100 Y82.700 E10.7370 F900
G1 X123.000 Y82.800 E10.7410
G1 X123.100 Y82.800 E10.7438
G0 X123.600 Y83.100 F10800
G1 X123.700 Y83.100 E10.7466 F900
G1 X123.700 Y83.200 E10.7494
G1 X123.600 Y83.200 E10.7523
G0 X123.100 Y83.700 F10800
G1 X123.000 Y83.700 E10.7551 F900
G1 X123.100 Y83.800 E10.7591
G1 X123.000 Y83.800 E10.7619
G0 F4800 E9.7619
G0 X122.600 Y84.900 F10800
G0 F4800 E10.7619
G1 X122.700 Y84.900 E10.7647 F900
G1 X122.600 Y85.000 E10.7687
G1 X122.700 Y85.000 E10.7716
G0 X123.600 Y84.600 F10800
G1 X123.700 Y84.600 E10.7744 F900
G1 X123.700 Y84.500 E10.7772
G1 X123.600 Y84.500 E10.7801
G0 X124.200 Y84.200 F10800
G1 X124.300 Y84.200 E10.7829 F900
G1 X124.200 Y84.100 E10.7869
G1 X124.300 Y84.100 E10.7897
G0 F4800 E9.7897
G0 X125.300 Y84.200 F10800
G0 F4800 E10.7897
G1 X125.200 Y84.200 E10.7925 F900
G1 X125.200 Y84.100 E10.7954
G1 X125.300 Y84.100 E10.7982
G0 X126.000 Y83.700 F10800
G1 X126.100 Y83.700 E10.8010 F900
G1 X126.100 Y83.800 E10.8038
G1 X126.000 Y83.800 E10.8067
G0 X126.300 Y84.700 F10800
G1 X126.200 Y84.700 E10.8095 F900
G1 X126.200 Y84.800 E10.8123
G1 X126.300 Y84.800 E10.8152
G0 X126.100 Y85.500 F10800
G1 X126.000 Y85.500 E10.8180 F900
G1 X126.000 Y85.600 E10.8208
G1 X126.100 Y85.600 E10.8236
G0 X126.000 Y86.500 F10800
G1 X126.100 Y86.500 E10.8265 F900
G1 X126.100 Y86.600 E10.8293
G1 X126.000 Y86.600 E10.8321
G0 X125.500 Y86.200 F10800
G1 X125.400 Y86.200 E10.8349 F900
G1 X125.500 Y86.100 E10.8389
G1 X125.400 Y86.100 E10.8418
G0 X125.400 Y85.200 F10800
G1 X125.500 Y85.200 E10.8446 F900
G1 X125.500 Y85.100 E10.8474
G1 X125.400 Y85.100 E10.8502
G0 X124.700 Y84.700 F10800
G1 X124.600 Y84.700 E10.8531 F900
G1 X124.600 Y84.800 E10.8559
G1 X124.700 Y84.800 E10.8587
G0 X124.900 Y85.500 F10800
G1 X124.800 Y85.500 E10.8616 F900
G1 X124.800 Y85.600 E10.8644
G1 X124.900 Y85.600 E10.8672
G0 X124.300 Y86.100 F10800
G1 X124.200 Y86.100 E10.8700 F900
G0 X124.000 Y85.400 F10800
G1 X124.100 Y85.400 E10.8729 F900
G1 X124.100 Y85.300 E10.8757
G1 X124.000 Y85.300 E10.8785
G0 F4800 E9.8785
G0 X123.500 Y86.300 F10800
G0 F4800 E10.8785
G1 X123.400 Y86.300 E10.8813 F900
G1 X123.400 Y86.400 E10.8842
G1 X123.500 Y86.400 E10.8870
G0 X124.200 Y86.200 F10800
G1 X124.300 Y86.200 E10.8898 F900
G0 X124.100 Y86.900 F10800
G1 X124.000 Y86.900 E10.8927 F900
G1 X124.100 Y87.000 E10.8966
G1 X124.000 Y87.000 E10.8995
G0 X123.300 Y87.300 F10800
G1 X123.200 Y87.300 E10.9023 F900
G1 X123.200 Y87.400 E10.9051
G1 X123.300 Y87.400 E10.9080
G0 X123.000 Y88.300 F10800
G1 X123.100 Y88.300 E10.9108 F900
G1 X123.000 Y88.400 E10.9148
G1 X123.100 Y88.400 E10.9176
G0 X122.500 Y88.700 F10800
G1 X122.400 Y88.700 E10.9204 F900
G1 X122.400 Y88.800 E10.9233
G1 X122.500 Y88.800 E10.9261
G0 X123.000 Y89.400 F10800
G1 X123.100 Y89.400 E10.9289 F900
G1 X123.100 Y89.300 E10.9317
G1 X123.000 Y89.300 E10.9346
G0 X122.500 Y89.700 F10800
G1 X122.400 Y89.700 E10.9374 F900
G1 X122.500 Y89.800 E10.9414
G1 X122.400 Y89.800 E10.9442
G0 F4800 E9.9442
G0 X121.000 Y91.300 F10800
G0 F4800 E10.9442
G1 X121.100 Y91.300 E10.9470 F900
G1 X121.100 Y91.400 E10.9499
G1 X121.000 Y91.400 E10.9527
G0 X120.500 Y91.900 F10800
G1 X120.400 Y91.900 E10.9555 F900
G1 X120.400 Y92.000 E10.9584
G1 X120.500 Y92.000 E10.9612
G0 X121.000 Y92.500 F10800
G1 X121.100 Y92.500 E10.9640 F900
G1 X121.000 Y92.600 E10.9680
G1 X121.100 Y92.600 E10.9708
G0 F4800 E9.9708
G0 X122.333 Y90.537 F10800
G0 X124.924 Y90.536
G0 X126.100 Y92.000
G0 F4800 E10.9708
G1 X126.000 Y92.000 E10.9737 F900
G1 X126.000 Y91.900 E10.9765
G1 X126.100 Y91.900 E10.9793
G0 X125.800 Y91.200 F10800
G1 X125.900 Y91.200 E10.9821 F900
G1 X125.800 Y91.100 E10.9861
G1 X125.900 Y91.100 E10.9890
G0 X126.700 Y90.800 F10800
G1 X126.600 Y90.800 E10.9918 F900
G1 X126.700 Y90.700 E10.9958
G1 X126.600 Y90.700 E10.9986
G0 X126.100 Y90.400 F10800
G1 X126.000 Y90.400 E11.0014 F900
G1 X126.100 Y90.300 E11.0054
G1 X126.000 Y90.300 E11.0083
G0 X125.500 Y89.700 F10800
G1 X125.400 Y89.700 E11.0111 F900
G1 X125.500 Y89.800 E11.0151
G1 X125.400 Y89.800 E11.0179
G0 X124.700 Y89.400 F10800
G1 X124.600 Y89.400 E11.0207 F900
G1 X124.700 Y89.300 E11.0247
G1 X124.600 Y89.300 E11.0276
G0 X124.100 Y89.000 F10800
G1 X124.000 Y89.000 E11.0304 F900
G1 X124.000 Y88.900 E11.0332
G1 X124.100 Y88.900 E11.0360
G0 X123.800 Y88.200 F10800
G1 X123.900 Y88.200 E11.0389 F900
G1 X123.900 Y88.100 E11.0417
G1 X123.800 Y88.100 E11.0445
G0 X124.400 Y87.600 F10800
G1 X124.500 Y87.600 E11.0474 F900
G1 X124.400 Y87.500 E11.0514
G1 X124.500 Y87.500 E11.0542
G0 X125.100 Y87.200 F10800
G1 X125.000 Y87.200 E11.0570 F900
G1 X125.000 Y87.100 E11.0598
G1 X125.100 Y87.100 E11.0627
G0 X125.800 Y87.500 F10800
G1 X125.900 Y87.500 E11.0655 F900
G1 X125.900 Y87.600 E11.0683
G1 X125.800 Y87.600 E11.0711
G0 X125.100 Y88.100 F10800
G1 X125.000 Y88.100 E11.0740 F900
G1 X125.000 Y88.200 E11.0768
G1 X125.100 Y88.200 E11.0796
G0 X125.400 Y88.700 F10800
G1 X125.500 Y88.700 E11.0824 F900
G1 X125.400 Y88.800 E11.0864
G1 X125.500 Y88.800 E11.0893
G0 X126.200 Y88.300 F10800
G1 X126.300 Y88.300 E11.0921 F900
G1 X126.300 Y88.400 E11.0949
G1 X126.200 Y88.400 E11.0978
G0 X126.200 Y89.300 F10800
G1 X126.300 Y89.300 E11.1006 F900
G1 X126.200 Y89.400 E11.1046
G1 X126.300 Y89.400 E11.1074
G0 F4800 E10.1074
G0 X127.600 Y90.500 F10800
G0 F4800 E11.1074
G1 X127.700 Y90.500 E11.1102 F900
G1 X127.600 Y90.600 E11.1142
G1 X127.700 Y90.600 E11.1171
G0 X127.300 Y91.300 F10800
G1 X127.200 Y91.300 E11.1199 F900
G1 X127.200 Y91.400 E11.1227
G1 X127.300 Y91.400 E11.1255
G0 X127.700 Y91.900 F10800
G1 X127.600 Y91.900 E11.1284 F900
G1 X127.700 Y92.000 E11.1324
G1 X127.600 Y92.000 E11.1352
G0 F4800 E10.1352
G0 X126.600 Y92.500 F10800
G0 F4800 E11.1352
G1 X126.700 Y92.500 E11.1380 F900
G1 X126.600 Y92.600 E11.1420
G1 X126.700 Y92.600 E11.1448
G0 X127.600 Y92.900 F10800
G1 X127.700 Y92.900 E11.1477 F900
G1 X127.700 Y93.000 E11.1505
G1 X127.600 Y93.000 E11.1533
G0 X127.600 Y94.000 F10800
G1 X127.700 Y94.000 E11.1562 F900
G1 X127.700 Y93.900 E11.1590
G1 X127.600 Y93.900 E11.1618
G0 X127.100 Y93.600 F10800
G1 X127.000 Y93.600 E11.1646 F900
G1 X127.100 Y93.500 E11.1686
G1 X127.000 Y93.500 E11.1715
G0 F4800 E10.1715
G0 X126.100 Y92.900 F10800
G0 F4800 E11.1715
G1 X126.000 Y92.900 E11.1743 F900
G1 X126.000 Y93.000 E11.1771
G1 X126.100 Y93.000 E11.1799
G0 X126.400 Y93.900 F10800
G1 X126.500 Y93.900 E11.1828 F900
G1 X126.500 Y94.000 E11.1856
G1 X126.400 Y94.000 E11.1884
G0 X125.900 Y94.500 F10800
G1 X125.800 Y94.500 E11.1912 F900
G1 X125.800 Y94.600 E11.1941
G1 X125.900 Y94.600 E11.1969
G0 F4800 E10.1969
