; GCode generated by CraftWare

G28 X0 Y0
G28 Z0

M104 S215 ;set head temp (no wait)
M190 S60 ;set bed temp (wait)
M109 S215 ;set head temp (wait)

; ------------------------------------
; Raft Layer #0
; ------------------------------------
M109 S226 ;set temp override (wait)
M106 S0 ;turn off fan
G21 ; mm
G90 ; abs
G92 E0 ;reset extr
G0 F1200 Z0.300
;segType:Raft
G0 F4800 E-1.0000
G0 F1200 Z2.300
G0 X41.577 Y122.543 F5400
G0 F1200 Z0.300
G0 F4800 E0.0000
G1 X44.029 Y124.995 E0.1730 F600
G1 X44.493 Y125.459 E0.2058
G1 X45.355 Y125.658 E0.2499
G1 X48.537 Y125.658 E0.4086
G1 X50.790 Y123.669 E0.5586
G1 X55.165 Y119.560 E0.8580
G1 X57.419 Y117.571 E1.0080
G1 X59.805 Y115.715 E1.1588
G1 X62.125 Y113.793 E1.3091
G1 X64.511 Y111.937 E1.4599
G1 X66.964 Y110.147 E1.6114
G1 X72.002 Y106.700 E1.9160
G1 X73.195 Y105.772 E1.9914
G1 X75.780 Y104.115 E2.1445
G1 X78.498 Y102.591 E2.3000
G1 X83.801 Y99.409 E2.6086
G1 X95.202 Y93.841 E3.2416
G1 X105.874 Y89.665 E3.8133
G1 X109.122 Y88.671 E3.9828
G1 X112.304 Y87.610 E4.1501
G1 X115.618 Y86.682 E4.3218
G1 X117.209 Y86.152 E4.4055
G1 X127.549 Y83.765 E4.9349
G1 X134.974 Y82.705 E5.3091
G1 X138.619 Y82.108 E5.4934
G1 X142.530 Y81.777 E5.6892
G1 X146.507 Y81.512 E5.8881
G1 X150.418 Y81.180 E6.0839
G1 X156.715 Y81.114 E6.3981
G1 X164.670 Y81.644 E6.7958
G1 X168.581 Y81.976 E6.9916
G1 X172.359 Y82.440 E7.1815
G1 X175.938 Y83.102 E7.3631
G1 X181.506 Y83.898 E7.6437
G1 X191.847 Y86.284 E8.1732
G1 X195.029 Y87.345 E8.3405
G1 X198.343 Y88.273 E8.5122
G1 X204.706 Y90.394 E8.8469
G1 X207.689 Y91.654 E9.0084
G1 X210.739 Y92.847 E9.1718
G1 X213.721 Y94.106 E9.3333
G1 X216.638 Y95.432 E9.4931
G1 X222.338 Y98.216 E9.8096
G1 X225.122 Y99.674 E9.9664
G1 X227.774 Y101.265 E10.1207
G1 X230.492 Y102.790 E10.2762
G1 X233.143 Y104.381 E10.4305
G1 X235.728 Y106.037 E10.5836
G1 X238.181 Y107.827 E10.7351
G1 X243.219 Y111.274 E11.0397
G1 X245.605 Y113.130 E11.1905
G1 X247.925 Y115.052 E11.3408
G1 X251.504 Y117.836 E11.5670
G1 X259.724 Y125.526 E12.1285
G1 X261.712 Y125.658 E12.2280
G1 X263.833 Y125.658 E12.3338
G1 X267.545 Y121.946 E12.5957
G1 X267.877 Y121.217 E12.6356
G1 X267.877 Y118.035 E12.7944
G1 X267.545 Y117.307 E12.8343
G1 X265.424 Y115.185 E12.9840
G1 X261.049 Y111.076 E13.2834
G1 X258.796 Y109.087 E13.4334
G1 X257.735 Y108.027 E13.5082
G1 X255.349 Y106.171 E13.6590
G1 X250.709 Y102.326 E13.9597
G1 X245.804 Y98.746 E14.2626
G1 X243.285 Y97.023 E14.4149
G1 X240.832 Y95.233 E14.5664
G1 X232.878 Y90.460 E15.0292
G1 X230.160 Y88.936 E15.1846
G1 X224.592 Y86.020 E15.4982
G1 X221.742 Y84.627 E15.6565
G1 X218.759 Y83.368 E15.8180
G1 X215.842 Y82.042 E15.9778
G1 X212.793 Y80.849 E16.1412
G1 X211.335 Y80.186 E16.2211
G1 X198.608 Y75.944 E16.8904
G1 X195.161 Y75.149 E17.0669
G1 X191.847 Y74.221 E17.2386
G1 X188.400 Y73.425 E17.4151
G1 X186.544 Y73.160 E17.5086
G1 X184.821 Y72.762 E17.5969
G1 X182.965 Y72.497 E17.6904
G1 X181.241 Y72.100 E17.7787
G1 X177.529 Y71.569 E17.9657
G1 X169.972 Y70.641 E18.3456
G1 X164.007 Y70.244 E18.6438
G1 X161.886 Y70.244 E18.7497
G1 X159.897 Y70.111 E18.8491
G1 X157.776 Y70.111 E18.9549
G1 X155.787 Y69.978 E19.0544
G1 X151.545 Y69.978 E19.2660
G1 X147.568 Y70.244 E19.4649
G1 X145.447 Y70.244 E19.5707
G1 X143.458 Y70.376 E19.6701
G1 X141.337 Y70.376 E19.7760
G1 X139.481 Y70.641 E19.8695
G1 X137.492 Y70.774 E19.9689
G1 X135.636 Y71.039 E20.0625
G1 X133.648 Y71.172 E20.1619
G1 X128.080 Y71.967 E20.4425
G1 X126.356 Y72.365 E20.5307
G1 X122.711 Y72.961 E20.7150
G1 X119.131 Y73.624 E20.8966
G1 X114.027 Y74.884 E21.1589
G1 X112.436 Y75.414 E21.2426
G1 X108.989 Y76.209 E21.4191
G1 X97.853 Y79.921 E22.0047
G1 X91.888 Y82.440 E22.3278
G1 X88.838 Y83.633 E22.4911
G1 X85.988 Y85.025 E22.6494
G1 X83.204 Y86.483 E22.8062
G1 X80.354 Y87.876 E22.9644
G1 X77.570 Y89.334 E23.1212
G1 X69.616 Y94.106 E23.5840
G1 X67.031 Y95.763 E23.7372
G1 X64.512 Y97.487 E23.8895
G1 X62.059 Y99.277 E24.0410
G1 X59.540 Y101.000 E24.1932
G1 X57.154 Y102.856 E24.3441
G1 X50.194 Y108.623 E24.7950
G1 X41.444 Y116.842 E25.3939
G1 X40.914 Y117.373 E25.4313
G1 X40.649 Y118.168 E25.4732
G1 X40.649 Y121.350 E25.6319
G1 X41.577 Y122.543 E25.7073
G0 F4800 E25.7073
G0 X42.130 Y122.013 F5400
G1 X42.130 Y117.373 E25.9388 F600
G0 F4800 E25.9388
G0 X46.130 Y113.661 F5400
G1 X46.130 Y124.929 E26.5010 F600
G0 F4800 E26.5010
G0 X50.130 Y123.206 F5400
G1 X50.130 Y109.949 E27.1624 F600
G0 F4800 E27.1624
G0 X54.130 Y106.634 F5400
G1 X54.130 Y119.494 E27.8040 F600
G0 F4800 E27.8040
G0 X58.130 Y116.047 F5400
G1 X58.130 Y103.320 E28.4389 F600
G0 F4800 E28.4389
G0 X62.130 Y100.271 F5400
G1 X62.130 Y112.733 E29.0606 F600
G0 F4800 E29.0606
G0 X66.130 Y109.683 F5400
G1 X66.130 Y97.487 E29.6691 F600
G0 F4800 E29.6691
G0 X70.130 Y94.835 F5400
G1 X70.130 Y106.899 E30.2710 F600
G0 F4800 E30.2710
G0 X74.130 Y104.248 F5400
G1 X74.130 Y92.449 E30.8596 F600
G0 F4800 E30.8596
G0 X78.130 Y90.063 F5400
G1 X78.130 Y101.862 E31.4483 F600
G0 F4800 E31.4483
G0 X82.130 Y99.475 F5400
G1 X82.130 Y88.074 E32.0171 F600
G0 F4800 E32.0171
G0 X86.130 Y85.953 F5400
G1 X86.130 Y97.354 E32.5859 F600
G0 F4800 E32.5859
G0 X90.130 Y95.366 F5400
G1 X90.130 Y84.230 E33.1415 F600
G0 F4800 E33.1415
G0 X94.130 Y82.506 F5400
G1 X94.130 Y93.377 E33.6838 F600
G0 F4800 E33.6838
G0 X98.130 Y91.786 F5400
G1 X98.130 Y80.783 E34.2328 F600
G0 F4800 E34.2328
G0 X102.130 Y79.457 F5400
G1 X102.130 Y90.195 E34.7685 F600
G0 F4800 E34.7685
G0 X106.130 Y88.737 F5400
G1 X106.130 Y78.131 E35.2977 F600
G0 F4800 E35.2977
G0 X110.130 Y76.938 F5400
G1 X110.130 Y87.411 E35.8202 F600
G0 F4800 E35.8202
G0 X114.130 Y86.218 F5400
G1 X114.130 Y75.878 E36.3361 F600
G0 F4800 E36.3361
G0 X118.130 Y74.817 F5400
G1 X118.130 Y85.158 E36.8520 F600
G0 F4800 E36.8520
G0 X122.130 Y84.230 F5400
G1 X122.130 Y74.022 E37.3613 F600
G0 F4800 E37.3613
G0 X126.130 Y73.226 F5400
G1 X126.130 Y83.302 E37.8639 F600
G0 F4800 E37.8639
G0 X130.130 Y82.639 F5400
G1 X130.130 Y72.563 E38.3666 F600
G0 F4800 E38.3666
G0 X134.130 Y72.033 F5400
G1 X134.130 Y81.976 E38.8626 F600
G0 F4800 E38.8626
G0 X138.130 Y81.446 F5400
G1 X138.130 Y71.635 E39.3521 F600
G0 F4800 E39.3521
G0 X142.130 Y71.238 F5400
G1 X142.130 Y81.048 E39.8415 F600
G0 F4800 E39.8415
G0 X146.130 Y80.783 F5400
G1 X146.130 Y71.105 E40.3243 F600
G0 F4800 E40.3243
G0 X150.130 Y70.972 F5400
G1 X150.130 Y80.385 E40.7939 F600
G0 F4800 E40.7939
G0 X154.130 Y80.385 F5400
G1 X154.130 Y70.840 E41.2702 F600
G0 F4800 E41.2702
G0 X158.130 Y70.972 F5400
G1 X158.130 Y80.385 E41.7397 F600
G0 F4800 E41.7397
G0 X162.130 Y80.783 F5400
G1 X162.130 Y71.105 E42.2226 F600
G0 F4800 E42.2226
G0 X166.130 Y71.238 F5400
G1 X166.130 Y81.048 E42.7120 F600
G0 F4800 E42.7120
G0 X170.130 Y81.313 F5400
G1 X170.130 Y71.635 E43.1948 F600
G0 F4800 E43.1948
G0 X174.130 Y72.033 F5400
G1 X174.130 Y81.976 E43.6909 F600
G0 F4800 E43.6909
G0 X178.130 Y82.639 F5400
G1 X178.130 Y72.563 E44.1936 F600
G0 F4800 E44.1936
G0 X182.130 Y73.226 F5400
G1 X182.130 Y83.302 E44.6962 F600
G0 F4800 E44.6962
G0 X186.130 Y84.230 F5400
G1 X186.130 Y74.022 E45.2055 F600
G0 F4800 E45.2055
G0 X190.130 Y74.817 F5400
G1 X190.130 Y85.158 E45.7214 F600
G0 F4800 E45.7214
G0 X194.130 Y86.218 F5400
G1 X194.130 Y75.745 E46.2439 F600
G0 F4800 E46.2439
G0 X198.130 Y76.806 F5400
G1 X198.130 Y87.411 E46.7730 F600
G0 F4800 E46.7730
G0 X202.130 Y88.737 F5400
G1 X202.130 Y78.131 E47.3022 F600
G0 F4800 E47.3022
G0 X206.130 Y79.457 F5400
G1 X206.130 Y90.195 E47.8379 F600
G0 F4800 E47.8379
G0 X210.130 Y91.654 F5400
G1 X210.130 Y80.783 E48.3802 F600
G0 F4800 E48.3802
G0 X214.130 Y82.374 F5400
G1 X214.130 Y93.377 E48.9292 F600
G0 F4800 E48.9292
G0 X218.130 Y95.233 F5400
G1 X218.130 Y84.097 E49.4848 F600
G0 F4800 E49.4848
G0 X222.130 Y85.820 F5400
G1 X222.130 Y97.222 E50.0536 F600
G0 F4800 E50.0536
G0 X226.130 Y99.343 F5400
G1 X226.130 Y87.942 E50.6224 F600
G0 F4800 E50.6224
G0 X230.130 Y89.930 F5400
G1 X230.130 Y101.729 E51.2111 F600
G0 F4800 E51.2111
G0 X234.130 Y103.983 F5400
G1 X234.130 Y92.316 E51.7931 F600
G0 F4800 E51.7931
G0 X238.130 Y94.703 F5400
G1 X238.130 Y106.767 E52.3950 F600
G0 F4800 E52.3950
G0 X242.130 Y109.418 F5400
G1 X242.130 Y97.354 E52.9968 F600
G0 F4800 E52.9968
G0 X246.130 Y100.138 F5400
G1 X246.130 Y112.467 E53.6120 F600
G0 F4800 E53.6120
G0 X250.130 Y115.782 F5400
G1 X250.130 Y103.055 E54.2469 F600
G0 F4800 E54.2469
G0 X254.130 Y106.369 F5400
G1 X254.130 Y119.229 E54.8885 F600
G0 F4800 E54.8885
G0 X258.130 Y122.941 F5400
G1 X258.130 Y109.683 E55.5499 F600
G0 F4800 E55.5499
G0 X262.130 Y113.395 F5400
G1 X262.130 Y124.929 E56.1253 F600
G0 F4800 E56.1253
G0 X266.130 Y122.278 F5400
G1 X266.130 Y117.107 E56.3832 F600
M109 S215 ;set temp back (wait)



; ------------------------------------
; Raft Layer #1
; ------------------------------------
M106 S0 ;turn off fan
G21 ; mm
G90 ; abs
G92 E0 ;reset extr
G0 F1200 Z0.600
;segType:Raft
G0 F4800 E-1.0000
G0 F1200 Z2.600
G0 X266.485 Y116.345 F7200
G0 F1200 Z0.600
G0 F4800 E0.0000
G1 X249.516 Y116.345 E0.8466 F2400
G0 F4800 E0.8466
G0 X251.107 Y117.678 F7200
G1 X267.811 Y117.678 E1.6800 F2400
G1 X267.811 Y119.011 E1.7465
G1 X252.697 Y119.011 E2.5005
G0 F4800 E2.5005
G0 X254.023 Y120.345 F7200
G1 X267.811 Y120.345 E3.1883 F2400
G1 X267.811 Y121.678 E3.2549
G1 X255.481 Y121.678 E3.8700
G0 F4800 E3.8700
G0 X257.072 Y123.011 F7200
G1 X266.352 Y123.011 E4.3330 F2400
G0 F4800 E4.3330
G0 X265.027 Y124.345 F7200
G1 X258.398 Y124.345 E4.6637 F2400
G0 F4800 E3.6637
G0 X265.159 Y115.011 F7200
G0 F4800 E4.6637
G1 X247.792 Y115.011 E5.5301 F2400
G0 F4800 E5.5301
G0 X246.201 Y113.678 F7200
G1 X263.701 Y113.678 E6.4032 F2400
G0 F4800 E6.4032
G0 X262.243 Y112.345 F7200
G1 X244.478 Y112.345 E7.2894 F2400
G0 F4800 E7.2894
G0 X242.887 Y111.011 F7200
G1 X260.784 Y111.011 E8.1823 F2400
G0 F4800 E8.1823
G0 X259.459 Y109.678 F7200
G1 X240.898 Y109.678 E9.1083 F2400
G0 F4800 E9.1083
G0 X238.910 Y108.345 F7200
G1 X258.000 Y108.345 E10.0607 F2400
G0 F4800 E10.0607
G0 X256.409 Y107.011 F7200
G1 X237.054 Y107.011 E11.0264 F2400
G0 F4800 E11.0264
G0 X235.065 Y105.678 F7200
G1 X254.819 Y105.678 E12.0119 F2400
G0 F4800 E12.0119
G0 X253.095 Y104.345 F7200
G1 X233.077 Y104.345 E13.0106 F2400
G0 F4800 E13.0106
G0 X230.823 Y103.011 F7200
G1 X251.504 Y103.011 E14.0424 F2400
G0 F4800 E14.0424
G0 X249.913 Y101.678 F7200
G1 X228.569 Y101.678 E15.1072 F2400
G0 F4800 E15.1072
G0 X226.183 Y100.345 F7200
G1 X248.057 Y100.345 E16.1986 F2400
G0 F4800 E16.1986
G0 X245.936 Y99.011 F7200
G1 X223.664 Y99.011 E17.3097 F2400
G0 F4800 E17.3097
G0 X221.013 Y97.678 F7200
G1 X244.080 Y97.678 E18.4606 F2400
G0 F4800 E18.4606
G0 X242.224 Y96.345 F7200
G1 X218.361 Y96.345 E19.6511 F2400
G0 F4800 E19.6511
G0 X215.577 Y95.011 F7200
G1 X240.368 Y95.011 E20.8879 F2400
G0 F4800 E20.8879
G0 X238.114 Y93.678 F7200
G1 X212.661 Y93.678 E22.1578 F2400
G0 F4800 E22.1578
G0 X209.346 Y92.345 F7200
G1 X235.861 Y92.345 E23.4806 F2400
G0 F4800 E23.4806
G0 X233.740 Y91.011 F7200
G1 X206.032 Y91.011 E24.8629 F2400
G0 F4800 E24.8629
G0 X202.585 Y89.678 F7200
G1 X231.486 Y89.678 E26.3048 F2400
G0 F4800 E26.3048
G0 X228.967 Y88.345 F7200
G1 X198.343 Y88.345 E27.8327 F2400
G0 F4800 E27.8327
G0 X194.101 Y87.011 F7200
G1 X226.448 Y87.011 E29.4465 F2400
G0 F4800 E29.4465
G0 X223.797 Y85.678 F7200
G1 X189.063 Y85.678 E31.1794 F2400
G0 F4800 E31.1794
G0 X183.230 Y84.345 F7200
G1 X221.145 Y84.345 E33.0710 F2400
G0 F4800 E33.0710
G0 X217.964 Y83.011 F7200
G1 X175.806 Y83.011 E35.1742 F2400
G0 F4800 E34.1742
G0 X164.935 Y81.678 F7200
G0 F4800 E35.1742
G1 X214.782 Y81.678 E37.6611 F2400
G0 F4800 E37.6611
G0 X211.600 Y80.345 F7200
G1 X96.660 Y80.345 E43.3955 F2400
G0 F4800 E43.3955
G0 X93.478 Y81.678 F7200
G1 X143.458 Y81.678 E45.8890 F2400
G0 F4800 E44.8890
G0 X132.455 Y83.011 F7200
G0 F4800 E45.8890
G1 X90.297 Y83.011 E47.9923 F2400
G0 F4800 E47.9923
G0 X87.248 Y84.345 F7200
G1 X125.031 Y84.345 E49.8773 F2400
G0 F4800 E49.8773
G0 X119.330 Y85.678 F7200
G1 X84.596 Y85.678 E51.6101 F2400
G0 F4800 E51.6101
G0 X82.077 Y87.011 F7200
G1 X114.292 Y87.011 E53.2173 F2400
G0 F4800 E53.2173
G0 X110.050 Y88.345 F7200
G1 X79.426 Y88.345 E54.7452 F2400
G0 F4800 E54.7452
G0 X76.907 Y89.678 F7200
G1 X105.808 Y89.678 E56.1870 F2400
G0 F4800 E56.1870
G0 X102.361 Y91.011 F7200
G1 X74.653 Y91.011 E57.5694 F2400
G0 F4800 E57.5694
G0 X72.532 Y92.345 F7200
G1 X99.047 Y92.345 E58.8922 F2400
G0 F4800 E58.8922
G0 X95.600 Y93.678 F7200
G1 X70.278 Y93.678 E60.1555 F2400
G0 F4800 E60.1555
G0 X68.025 Y95.011 F7200
G1 X92.816 Y95.011 E61.3923 F2400
G0 F4800 E61.3923
G0 X90.164 Y96.345 F7200
G1 X66.169 Y96.345 E62.5894 F2400
G0 F4800 E62.5894
G0 X64.313 Y97.678 F7200
G1 X87.380 Y97.678 E63.7403 F2400
G0 F4800 E63.7403
G0 X84.596 Y99.011 F7200
G1 X62.457 Y99.011 E64.8448 F2400
G0 F4800 E64.8448
G0 X60.335 Y100.345 F7200
G1 X82.077 Y100.345 E65.9295 F2400
G0 F4800 E65.9295
G0 X79.824 Y101.678 F7200
G1 X58.479 Y101.678 E66.9944 F2400
G0 F4800 E66.9944
G0 X56.889 Y103.011 F7200
G1 X77.570 Y103.011 E68.0262 F2400
G0 F4800 E68.0262
G0 X75.316 Y104.345 F7200
G1 X55.298 Y104.345 E69.0249 F2400
G0 F4800 E69.0249
G0 X53.707 Y105.678 F7200
G1 X73.328 Y105.678 E70.0038 F2400
G0 F4800 E70.0038
G0 X71.339 Y107.011 F7200
G1 X51.983 Y107.011 E70.9694 F2400
G0 F4800 E70.9694
G0 X50.393 Y108.345 F7200
G1 X69.483 Y108.345 E71.9219 F2400
G0 F4800 E71.9219
G0 X67.494 Y109.678 F7200
G1 X48.934 Y109.678 E72.8478 F2400
G0 F4800 E72.8478
G0 X47.609 Y111.011 F7200
G1 X65.638 Y111.011 E73.7473 F2400
G0 F4800 E73.7473
G0 X63.915 Y112.345 F7200
G1 X46.150 Y112.345 E74.6336 F2400
G0 F4800 E74.6336
G0 X44.692 Y113.678 F7200
G1 X62.324 Y113.678 E75.5133 F2400
G0 F4800 E75.5133
G0 X60.601 Y115.011 F7200
G1 X43.234 Y115.011 E76.3797 F2400
G0 F4800 E76.3797
G0 X41.908 Y116.345 F7200
G1 X59.010 Y116.345 E77.2329 F2400
G0 F4800 E77.2329
G0 X57.286 Y117.678 F7200
G1 X40.582 Y117.678 E78.0663 F2400
G1 X40.582 Y119.011 E78.1328
G1 X55.695 Y119.011 E78.8868
G0 F4800 E78.8868
G0 X54.370 Y120.345 F7200
G1 X40.582 Y120.345 E79.5747 F2400
G1 X40.582 Y121.678 E79.6412
G1 X52.911 Y121.678 E80.2563
G0 F4800 E80.2563
G0 X51.321 Y123.011 F7200
G1 X42.041 Y123.011 E80.7193 F2400
G0 F4800 E80.7193
G0 X43.366 Y124.345 F7200
G1 X49.862 Y124.345 E81.0434 F2400
G0 F4800 E80.0434
G0 X100.372 Y79.011 F7200
G0 F4800 E81.0434
G1 X208.021 Y79.011 E86.4140 F2400
G0 F4800 E86.4140
G0 X204.043 Y77.678 F7200
G1 X104.349 Y77.678 E91.3877 F2400
G0 F4800 E91.3877
G0 X108.194 Y76.345 F7200
G1 X200.066 Y76.345 E95.9713 F2400
G0 F4800 E95.9713
G0 X194.498 Y75.011 F7200
G1 X113.895 Y75.011 E99.9926 F2400
G0 F4800 E99.9926
G0 X119.065 Y73.678 F7200
G1 X189.328 Y73.678 E103.4981 F2400
G0 F4800 E103.4981
G0 X182.169 Y72.345 F7200
G1 X126.356 Y72.345 E106.2826 F2400
G0 F4800 E106.2826
G0 X135.902 Y71.011 F7200
G1 X172.491 Y71.011 E108.1080 F2400



; ------------------------------------
; Raft Layer #2
; ------------------------------------
M106 S0 ;turn off fan
G21 ; mm
G90 ; abs
G92 E0 ;reset extr
G0 F1200 Z0.900
;segType:Raft
G0 F4800 E-1.0000
G0 F1200 Z2.900
G0 X267.730 Y121.880 F7200
G0 F1200 Z0.900
G0 F4800 E0.0000
G1 X267.730 Y117.505 E0.2183 F2400
G1 X267.330 Y117.107 E0.2464
G1 X267.330 Y122.278 E0.5044
G1 X266.930 Y122.675 E0.5325
G1 X266.930 Y116.710 E0.8301
G1 X266.530 Y116.312 E0.8583
G1 X266.530 Y123.073 E1.1956
G1 X266.130 Y123.471 E1.2237
G1 X266.130 Y115.914 E1.6007
G1 X265.730 Y115.517 E1.6289
G1 X265.730 Y123.869 E2.0456
G1 X265.330 Y124.266 E2.0737
G1 X265.330 Y115.119 E2.5301
G1 X264.930 Y114.854 E2.5540
G1 X264.930 Y124.664 E3.0434
G1 X264.530 Y125.062 E3.0716
G1 X264.530 Y114.456 E3.6007
G1 X264.130 Y114.058 E3.6288
G1 X264.130 Y125.459 E4.1977
G1 X263.730 Y125.725 E4.2216
G1 X263.730 Y113.661 E4.8235
G1 X263.330 Y113.263 E4.8516
G1 X263.330 Y125.725 E5.4733
G1 X262.930 Y125.725 E5.4933
G1 X262.930 Y112.998 E6.1282
G1 X262.530 Y112.600 E6.1564
G1 X262.530 Y125.725 E6.8112
G1 X262.130 Y125.725 E6.8311
G1 X262.130 Y112.202 E7.5058
G1 X261.730 Y111.805 E7.5339
G1 X261.730 Y125.725 E8.2284
G1 X261.330 Y125.725 E8.2483
G1 X261.330 Y111.407 E8.9626
G1 X260.930 Y111.142 E8.9866
G1 X260.930 Y125.725 E9.7141
G1 X260.530 Y125.725 E9.7341
G1 X260.530 Y110.744 E10.4815
G1 X260.130 Y110.346 E10.5096
G1 X260.130 Y125.725 E11.2768
G1 X259.730 Y125.592 E11.2979
G1 X259.730 Y109.949 E12.0783
G1 X259.330 Y109.551 E12.1065
G1 X259.330 Y125.194 E12.8869
G1 X258.930 Y124.797 E12.9151
G1 X258.930 Y109.153 E13.6955
G1 X258.530 Y108.888 E13.7195
G1 X258.530 Y124.531 E14.4999
G1 X258.130 Y124.134 E14.5281
G1 X258.130 Y108.490 E15.3085
G1 X257.730 Y108.093 E15.3367
G1 X257.730 Y123.736 E16.1171
G1 X257.330 Y123.338 E16.1453
G1 X257.330 Y107.827 E16.9191
G1 X256.930 Y107.430 E16.9472
G1 X256.930 Y122.941 E17.7211
G1 X256.530 Y122.675 E17.7450
G1 X256.530 Y107.165 E18.5189
G1 X256.130 Y106.899 E18.5428
G1 X256.130 Y122.278 E19.3100
G1 X255.730 Y121.880 E19.3382
G1 X255.730 Y106.502 E20.1054
G1 X255.330 Y106.237 E20.1294
G1 X255.330 Y121.482 E20.8900
G1 X254.930 Y121.085 E20.9181
G1 X254.930 Y105.839 E21.6787
G1 X254.530 Y105.574 E21.7027
G1 X254.530 Y120.819 E22.4633
G1 X254.130 Y120.422 E22.4914
G1 X254.130 Y105.176 E23.2520
G1 X253.730 Y104.911 E23.2760
G1 X253.730 Y120.024 E24.0300
G1 X253.330 Y119.626 E24.0581
G1 X253.330 Y104.646 E24.8055
G1 X252.930 Y104.248 E24.8336
G1 X252.930 Y119.229 E25.5810
G1 X252.530 Y118.963 E25.6050
G1 X252.530 Y103.983 E26.3524
G1 X252.130 Y103.585 E26.3805
G1 X252.130 Y118.566 E27.1279
G1 X251.730 Y118.168 E27.1560
G1 X251.730 Y103.320 E27.8968
G1 X251.330 Y102.922 E27.9249
G1 X251.330 Y117.903 E28.6723
G1 X250.930 Y117.505 E28.7005
G1 X250.930 Y102.657 E29.4412
G1 X250.530 Y102.259 E29.4694
G1 X250.530 Y117.240 E30.2168
G1 X250.130 Y116.842 E30.2449
G1 X250.130 Y101.994 E30.9857
G1 X249.730 Y101.729 E31.0096
G1 X249.730 Y116.577 E31.7504
G1 X249.330 Y116.312 E31.7743
G1 X249.330 Y101.331 E32.5217
G1 X248.930 Y101.066 E32.5457
G1 X248.930 Y115.914 E33.2864
G1 X248.530 Y115.649 E33.3104
G1 X248.530 Y100.801 E34.0512
G1 X248.130 Y100.536 E34.0751
G1 X248.130 Y115.251 E34.8093
G1 X247.730 Y114.986 E34.8332
G1 X247.730 Y100.271 E35.5674
G1 X247.330 Y100.006 E35.5913
G1 X247.330 Y114.721 E36.3255
G1 X246.930 Y114.191 E36.3586
G1 X246.930 Y99.608 E37.0861
G1 X246.530 Y99.343 E37.1101
G1 X246.530 Y113.926 E37.8376
G1 X246.130 Y113.661 E37.8616
G1 X246.130 Y99.078 E38.5891
G1 X245.730 Y98.680 E38.6172
G1 X245.730 Y113.263 E39.3448
G1 X245.330 Y112.998 E39.3687
G1 X245.330 Y98.415 E40.0963
G1 X244.930 Y98.150 E40.1202
G1 X244.930 Y112.600 E40.8411
G1 X244.530 Y112.335 E40.8651
G1 X244.530 Y97.885 E41.5860
G1 X244.130 Y97.619 E41.6100
G1 X244.130 Y112.070 E42.3309
G1 X243.730 Y111.672 E42.3590
G1 X243.730 Y97.354 E43.0734
G1 X243.330 Y97.089 E43.0973
G1 X243.330 Y111.407 E43.8116
G1 X242.930 Y111.009 E43.8397
G1 X242.930 Y96.824 E44.5475
G1 X242.530 Y96.559 E44.5714
G1 X242.530 Y110.744 E45.2791
G1 X242.130 Y110.479 E45.3030
G1 X242.130 Y96.161 E46.0174
G1 X241.730 Y95.896 E46.0413
G1 X241.730 Y110.214 E46.7556
G1 X241.330 Y109.949 E46.7796
G1 X241.330 Y95.631 E47.4939
G1 X240.930 Y95.366 E47.5178
G1 X240.930 Y109.683 E48.2321
G1 X240.530 Y109.418 E48.2561
G1 X240.530 Y95.100 E48.9704
G1 X240.130 Y94.835 E48.9943
G1 X240.130 Y109.153 E49.7086
G1 X239.730 Y108.888 E49.7326
G1 X239.730 Y94.570 E50.4469
G1 X239.330 Y94.305 E50.4708
G1 X239.330 Y108.623 E51.1852
G1 X238.930 Y108.358 E51.2091
G1 X238.930 Y94.172 E51.9168
G1 X238.530 Y93.907 E51.9407
G1 X238.530 Y108.093 E52.6485
G1 X238.130 Y107.827 E52.6724
G1 X238.130 Y93.642 E53.3801
G1 X237.730 Y93.377 E53.4040
G1 X237.730 Y107.562 E54.1117
G1 X237.330 Y107.297 E54.1357
G1 X237.330 Y93.244 E54.8368
G1 X236.930 Y92.979 E54.8607
G1 X236.930 Y107.032 E55.5618
G1 X236.530 Y106.767 E55.5857
G1 X236.530 Y92.714 E56.2868
G1 X236.130 Y92.449 E56.3108
G1 X236.130 Y106.502 E57.0119
G1 X235.730 Y106.104 E57.0400
G1 X235.730 Y92.184 E57.7345
G1 X235.330 Y92.051 E57.7555
G1 X235.330 Y105.839 E58.4434
G1 X234.930 Y105.574 E58.4673
G1 X234.930 Y91.786 E59.1552
G1 X234.530 Y91.521 E59.1791
G1 X234.530 Y105.309 E59.8670
G1 X234.130 Y105.043 E59.8909
G1 X234.130 Y91.256 E60.5788
G1 X233.730 Y90.991 E60.6027
G1 X233.730 Y104.778 E61.2906
G1 X233.330 Y104.513 E61.3145
G1 X233.330 Y90.858 E61.9957
G1 X232.930 Y90.593 E62.0197
G1 X232.930 Y104.248 E62.7009
G1 X232.530 Y104.115 E62.7220
G1 X232.530 Y90.328 E63.4098
G1 X232.130 Y90.063 E63.4338
G1 X232.130 Y103.850 E64.1216
G1 X231.730 Y103.585 E64.1456
G1 X231.730 Y89.798 E64.8334
G1 X231.330 Y89.665 E64.8544
G1 X231.330 Y103.453 E65.5423
G1 X230.930 Y103.187 E65.5662
G1 X230.930 Y89.400 E66.2541
G1 X230.530 Y89.135 E66.2780
G1 X230.530 Y102.922 E66.9659
G1 X230.130 Y102.657 E66.9898
G1 X230.130 Y89.002 E67.6711
G1 X229.730 Y88.737 E67.6950
G1 X229.730 Y102.525 E68.3829
G1 X229.330 Y102.259 E68.4068
G1 X229.330 Y88.604 E69.0881
G1 X228.930 Y88.339 E69.1120
G1 X228.930 Y101.994 E69.7933
G1 X228.530 Y101.729 E69.8172
G1 X228.530 Y88.207 E70.4918
G1 X228.130 Y87.942 E70.5158
G1 X228.130 Y101.597 E71.1970
G1 X227.730 Y101.331 E71.2210
G1 X227.730 Y87.809 E71.8956
G1 X227.330 Y87.544 E71.9195
G1 X227.330 Y101.066 E72.5941
G1 X226.930 Y100.801 E72.6181
G1 X226.930 Y87.279 E73.2927
G1 X226.530 Y87.146 E73.3137
G1 X226.530 Y100.669 E73.9884
G1 X226.130 Y100.403 E74.0123
G1 X226.130 Y86.881 E74.6869
G1 X225.730 Y86.748 E74.7080
G1 X225.730 Y100.138 E75.3760
G1 X225.330 Y99.873 E75.3999
G1 X225.330 Y86.483 E76.0680
G1 X224.930 Y86.351 E76.0890
G1 X224.930 Y99.741 E76.7570
G1 X224.530 Y99.475 E76.7809
G1 X224.530 Y86.086 E77.4489
G1 X224.130 Y85.953 E77.4700
G1 X224.130 Y99.210 E78.1314
G1 X223.730 Y99.078 E78.1524
G1 X223.730 Y85.688 E78.8204
G1 X223.330 Y85.423 E78.8444
G1 X223.330 Y98.680 E79.5058
G1 X222.931 Y98.547 E79.5268
G1 X222.931 Y85.290 E80.1882
G1 X222.530 Y85.025 E80.2121
G1 X222.530 Y98.282 E80.8736
G1 X222.131 Y98.150 E80.8946
G1 X222.131 Y84.892 E81.5560
G1 X221.731 Y84.627 E81.5799
G1 X221.731 Y98.017 E82.2479
G1 X221.331 Y97.752 E82.2719
G1 X221.331 Y84.495 E82.9333
G1 X220.931 Y84.230 E82.9572
G1 X220.931 Y97.619 E83.6252
G1 X220.531 Y97.354 E83.6492
G1 X220.531 Y84.097 E84.3106
G1 X220.131 Y83.964 E84.3316
G1 X220.131 Y97.222 E84.9930
G1 X219.731 Y96.957 E85.0170
G1 X219.731 Y83.832 E85.6718
G1 X219.331 Y83.567 E85.6957
G1 X219.331 Y96.824 E86.3571
G1 X218.931 Y96.559 E86.3811
G1 X218.931 Y83.434 E87.0358
G1 X218.531 Y83.302 E87.0569
G1 X218.531 Y96.426 E87.7117
G1 X218.131 Y96.161 E87.7356
G1 X218.131 Y83.169 E88.3838
G1 X217.731 Y82.904 E88.4077
G1 X217.731 Y96.029 E89.0625
G1 X217.331 Y95.896 E89.0835
G1 X217.331 Y82.771 E89.7383
G1 X216.931 Y82.639 E89.7594
G1 X216.931 Y95.631 E90.4075
G1 X216.531 Y95.498 E90.4286
G1 X216.531 Y82.506 E91.0767
G1 X216.131 Y82.241 E91.1007
G1 X216.131 Y95.233 E91.7489
G1 X215.731 Y95.100 E91.7699
G1 X215.731 Y82.108 E92.4181
G1 X215.331 Y81.976 E92.4391
G1 X215.331 Y94.835 E93.0807
G1 X214.931 Y94.703 E93.1017
G1 X214.931 Y81.843 E93.7433
G1 X214.531 Y81.578 E93.7672
G1 X214.531 Y94.438 E94.4088
G1 X214.131 Y94.305 E94.4298
G1 X214.131 Y81.446 E95.0713
G1 X213.731 Y81.313 E95.0924
G1 X213.731 Y94.172 E95.7339
G1 X213.331 Y93.907 E95.7579
G1 X213.331 Y81.180 E96.3928
G1 X212.931 Y80.915 E96.4168
G1 X212.931 Y93.775 E97.0583
G1 X212.531 Y93.642 E97.0794
G1 X212.531 Y80.783 E97.7209
G1 X212.131 Y80.650 E97.7419
G1 X212.131 Y93.510 E98.3835
G1 X211.731 Y93.244 E98.4075
G1 X211.731 Y80.518 E99.0424
G1 X211.331 Y80.252 E99.0663
G1 X211.331 Y93.112 E99.7079
G1 X210.931 Y92.979 E99.7289
G1 X210.931 Y80.120 E100.3705
G1 X210.531 Y79.987 E100.3915
G1 X210.531 Y92.847 E101.0331
G1 X210.131 Y92.714 E101.0541
G1 X210.131 Y79.855 E101.6957
G1 X209.731 Y79.722 E101.7167
G1 X209.731 Y92.449 E102.3516
G1 X209.331 Y92.316 E102.3727
G1 X209.331 Y79.590 E103.0076
G1 X208.931 Y79.457 E103.0287
G1 X208.931 Y92.184 E103.6636
G1 X208.531 Y92.051 E103.6846
G1 X208.531 Y79.324 E104.3196
G1 X208.131 Y79.192 E104.3406
G1 X208.131 Y91.919 E104.9756
G1 X207.731 Y91.786 E104.9966
G1 X207.731 Y79.059 E105.6315
G1 X207.331 Y78.927 E105.6526
G1 X207.331 Y91.521 E106.2809
G1 X206.931 Y91.388 E106.3019
G1 X206.931 Y78.794 E106.9303
G1 X206.531 Y78.662 E106.9513
G1 X206.531 Y91.256 E107.5796
G1 X206.131 Y91.123 E107.6006
G1 X206.131 Y78.529 E108.2290
G1 X205.731 Y78.396 E108.2500
G1 X205.731 Y90.991 E108.8783
G1 X205.331 Y90.726 E108.9023
G1 X205.331 Y78.264 E109.5240
G1 X204.931 Y78.131 E109.5450
G1 X204.931 Y90.593 E110.1667
G1 X204.531 Y90.460 E110.1878
G1 X204.531 Y77.999 E110.8095
G1 X204.131 Y77.866 E110.8305
G1 X204.131 Y90.328 E111.4522
G1 X203.731 Y90.195 E111.4733
G1 X203.731 Y77.734 E112.0950
G1 X203.331 Y77.601 E112.1160
G1 X203.331 Y90.063 E112.7377
G1 X202.931 Y89.798 E112.7617
G1 X202.931 Y77.468 E113.3768
G1 X202.531 Y77.336 E113.3978
G1 X202.531 Y89.665 E114.0129
G1 X202.131 Y89.532 E114.0339
G1 X202.131 Y77.203 E114.6490
G1 X201.731 Y77.071 E114.6701
G1 X201.731 Y89.532 E115.2918
G1 X201.331 Y89.400 E115.3128
G1 X201.331 Y76.938 E115.9345
G1 X200.931 Y76.806 E115.9555
G1 X200.931 Y89.267 E116.5773
G1 X200.531 Y89.135 E116.5983
G1 X200.531 Y76.673 E117.2200
G1 X200.131 Y76.408 E117.2440
G1 X200.131 Y88.870 E117.8657
G1 X199.731 Y88.870 E117.8856
G1 X199.731 Y76.408 E118.5074
G1 X199.331 Y76.275 E118.5284
G1 X199.331 Y88.737 E119.1501
G1 X198.931 Y88.604 E119.1711
G1 X198.931 Y76.143 E119.7928
G1 X198.531 Y76.010 E119.8139
G1 X198.531 Y88.472 E120.4356
G1 X198.131 Y88.339 E120.4566
G1 X198.131 Y75.878 E121.0783
G1 X197.731 Y75.878 E121.0983
G1 X197.731 Y88.207 E121.7134
G1 X197.331 Y88.074 E121.7344
G1 X197.331 Y75.745 E122.3495
G1 X196.931 Y75.612 E122.3706
G1 X196.931 Y87.942 E122.9857
G1 X196.531 Y87.809 E123.0067
G1 X196.531 Y75.480 E123.6218
G1 X196.131 Y75.480 E123.6418
G1 X196.131 Y87.676 E124.2502
G1 X195.731 Y87.544 E124.2713
G1 X195.731 Y75.347 E124.8798
G1 X195.331 Y75.215 E124.9008
G1 X195.331 Y87.411 E125.5093
G1 X194.931 Y87.279 E125.5303
G1 X194.931 Y75.082 E126.1388
G1 X194.531 Y74.950 E126.1598
G1 X194.531 Y87.146 E126.7683
G1 X194.131 Y87.014 E126.7893
G1 X194.131 Y74.950 E127.3912
G1 X193.731 Y74.817 E127.4122
G1 X193.731 Y87.014 E128.0207
G1 X193.331 Y86.881 E128.0418
G1 X193.331 Y74.684 E128.6502
G1 X192.931 Y74.552 E128.6713
G1 X192.931 Y86.748 E129.2798
G1 X192.531 Y86.616 E129.3008
G1 X192.531 Y74.552 E129.9027
G1 X192.131 Y74.419 E129.9237
G1 X192.131 Y86.483 E130.5256
G1 X191.731 Y86.351 E130.5466
G1 X191.731 Y74.287 E131.1485
G1 X191.331 Y74.154 E131.1695
G1 X191.331 Y86.218 E131.7714
G1 X190.931 Y86.218 E131.7914
G1 X190.931 Y74.022 E132.3998
G1 X190.531 Y74.022 E132.4198
G1 X190.531 Y86.086 E133.0217
G1 X190.131 Y85.953 E133.0427
G1 X190.131 Y73.889 E133.6446
G1 X189.731 Y73.756 E133.6656
G1 X189.731 Y85.953 E134.2741
G1 X189.331 Y85.820 E134.2951
G1 X189.331 Y73.624 E134.9036
G1 X188.931 Y73.624 E134.9236
G1 X188.931 Y85.688 E135.5255
G1 X188.531 Y85.688 E135.5454
G1 X188.531 Y73.491 E136.1539
G1 X188.131 Y73.491 E136.1739
G1 X188.131 Y85.555 E136.7758
G1 X187.731 Y85.423 E136.7968
G1 X187.731 Y73.359 E137.3987
G1 X187.331 Y73.359 E137.4186
G1 X187.331 Y85.290 E138.0139
G1 X186.931 Y85.290 E138.0339
G1 X186.931 Y73.226 E138.6357
G1 X186.531 Y73.226 E138.6557
G1 X186.531 Y85.158 E139.2510
G1 X186.131 Y85.025 E139.2720
G1 X186.131 Y73.094 E139.8672
G1 X185.731 Y72.961 E139.8883
G1 X185.731 Y85.025 E140.4901
G1 X185.331 Y84.892 E140.5112
G1 X185.331 Y72.961 E141.1064
G1 X184.931 Y72.828 E141.1275
G1 X184.931 Y84.760 E141.7227
G1 X184.531 Y84.760 E141.7427
G1 X184.531 Y72.828 E142.3379
G1 X184.131 Y72.696 E142.3590
G1 X184.131 Y84.627 E142.9542
G1 X183.731 Y84.495 E142.9753
G1 X183.731 Y72.696 E143.5639
G1 X183.331 Y72.563 E143.5849
G1 X183.331 Y84.495 E144.1802
G1 X182.931 Y84.362 E144.2012
G1 X182.931 Y72.563 E144.7899
G1 X182.531 Y72.431 E144.8109
G1 X182.531 Y84.230 E145.3996
G1 X182.131 Y84.097 E145.4206
G1 X182.131 Y72.298 E146.0092
G1 X181.731 Y72.298 E146.0292
G1 X181.731 Y84.097 E146.6178
G1 X181.331 Y83.964 E146.6389
G1 X181.331 Y72.166 E147.2275
G1 X180.931 Y72.166 E147.2475
G1 X180.931 Y83.832 E147.8295
G1 X180.531 Y83.832 E147.8495
G1 X180.531 Y72.033 E148.4381
G1 X180.131 Y72.033 E148.4581
G1 X180.131 Y83.699 E149.0401
G1 X179.731 Y83.699 E149.0601
G1 X179.731 Y71.900 E149.6487
G1 X179.331 Y71.900 E149.6687
G1 X179.331 Y83.567 E150.2507
G1 X178.931 Y83.567 E150.2707
G1 X178.931 Y71.768 E150.8593
G1 X178.531 Y71.768 E150.8793
G1 X178.531 Y83.567 E151.4679
G1 X178.131 Y83.434 E151.4890
G1 X178.131 Y71.635 E152.0776
G1 X177.731 Y71.635 E152.0976
G1 X177.731 Y83.434 E152.6862
G1 X177.331 Y83.302 E152.7073
G1 X177.331 Y71.635 E153.2893
G1 X176.931 Y71.503 E153.3103
G1 X176.931 Y83.302 E153.8990
G1 X176.531 Y83.169 E153.9200
G1 X176.531 Y71.503 E154.5020
G1 X176.131 Y71.370 E154.5231
G1 X176.131 Y83.169 E155.1117
G1 X175.731 Y83.036 E155.1327
G1 X175.731 Y71.370 E155.7148
G1 X175.331 Y71.370 E155.7347
G1 X175.331 Y83.036 E156.3168
G1 X174.931 Y82.904 E156.3378
G1 X174.931 Y71.238 E156.9198
G1 X174.531 Y71.238 E156.9398
G1 X174.531 Y82.904 E157.5218
G1 X174.131 Y82.771 E157.5428
G1 X174.131 Y71.238 E158.1183
G1 X173.731 Y71.105 E158.1393
G1 X173.731 Y82.771 E158.7213
G1 X173.331 Y82.639 E158.7423
G1 X173.331 Y71.105 E159.3178
G1 X172.931 Y71.105 E159.3377
G1 X172.931 Y82.639 E159.9132
G1 X172.531 Y82.639 E159.9331
G1 X172.531 Y70.972 E160.5151
G1 X172.131 Y70.972 E160.5351
G1 X172.131 Y82.506 E161.1105
G1 X171.731 Y82.506 E161.1305
G1 X171.731 Y70.972 E161.7059
G1 X171.331 Y70.972 E161.7259
G1 X171.331 Y82.374 E162.2947
G1 X170.931 Y82.374 E162.3146
G1 X170.931 Y70.840 E162.8901
G1 X170.531 Y70.840 E162.9100
G1 X170.531 Y82.241 E163.4788
G1 X170.131 Y82.241 E163.4988
G1 X170.131 Y70.840 E164.0676
G1 X169.731 Y70.707 E164.0886
G1 X169.731 Y82.108 E164.6574
G1 X169.331 Y82.108 E164.6774
G1 X169.331 Y70.707 E165.2462
G1 X168.931 Y70.707 E165.2661
G1 X168.931 Y82.108 E165.8349
G1 X168.531 Y81.976 E165.8559
G1 X168.531 Y70.575 E166.4247
G1 X168.131 Y70.575 E166.4447
G1 X168.131 Y81.976 E167.0135
G1 X167.731 Y81.976 E167.0335
G1 X167.731 Y70.575 E167.6023
G1 X167.331 Y70.442 E167.6233
G1 X167.331 Y81.976 E168.1987
G1 X166.931 Y81.976 E168.2187
G1 X166.931 Y70.442 E168.7941
G1 X166.531 Y70.442 E168.8141
G1 X166.531 Y81.843 E169.3829
G1 X166.131 Y81.843 E169.4028
G1 X166.131 Y70.442 E169.9716
G1 X165.731 Y70.442 E169.9916
G1 X165.731 Y81.843 E170.5604
G1 X165.331 Y81.843 E170.5803
G1 X165.331 Y70.442 E171.1491
G1 X164.931 Y70.442 E171.1691
G1 X164.931 Y81.711 E171.7313
G1 X164.531 Y81.711 E171.7513
G1 X164.531 Y70.442 E172.3135
G1 X164.131 Y70.310 E172.3345
G1 X164.131 Y81.711 E172.9033
G1 X163.731 Y81.711 E172.9232
G1 X163.731 Y70.310 E173.4920
G1 X163.331 Y70.310 E173.5120
G1 X163.331 Y81.711 E174.0808
G1 X162.931 Y81.578 E174.1018
G1 X162.931 Y70.310 E174.6640
G1 X162.531 Y70.310 E174.6840
G1 X162.531 Y81.578 E175.2462
G1 X162.131 Y81.578 E175.2661
G1 X162.131 Y70.310 E175.8283
G1 X161.731 Y70.310 E175.8483
G1 X161.731 Y81.578 E176.4105
G1 X161.331 Y81.446 E176.4315
G1 X161.331 Y70.310 E176.9871
G1 X160.931 Y70.310 E177.0070
G1 X160.931 Y81.446 E177.5626
G1 X160.531 Y81.446 E177.5826
G1 X160.531 Y70.177 E178.1448
G1 X160.131 Y70.177 E178.1647
G1 X160.131 Y81.446 E178.7269
G1 X159.731 Y81.313 E178.7479
G1 X159.731 Y70.177 E179.3035
G1 X159.331 Y70.177 E179.3235
G1 X159.331 Y81.313 E179.8790
G1 X158.931 Y81.313 E179.8990
G1 X158.931 Y70.177 E180.4546
G1 X158.531 Y70.177 E180.4745
G1 X158.531 Y81.313 E181.0301
G1 X158.131 Y81.313 E181.0501
G1 X158.131 Y70.177 E181.6056
G1 X157.731 Y70.177 E181.6256
G1 X157.731 Y81.180 E182.1746
G1 X157.331 Y81.180 E182.1945
G1 X157.331 Y70.177 E182.7435
G1 X156.931 Y70.044 E182.7645
G1 X156.931 Y81.180 E183.3201
G1 X156.531 Y81.180 E183.3400
G1 X156.531 Y70.044 E183.8956
G1 X156.131 Y70.044 E183.9156
G1 X156.131 Y81.180 E184.4712
G1 X155.731 Y81.180 E184.4911
G1 X155.731 Y70.044 E185.0467
G1 X155.331 Y70.044 E185.0666
G1 X155.331 Y81.180 E185.6222
G1 X154.931 Y81.180 E185.6422
G1 X154.931 Y70.044 E186.1977
G1 X154.531 Y70.044 E186.2177
G1 X154.531 Y81.180 E186.7733
G1 X154.131 Y81.180 E186.7932
G1 X154.131 Y70.044 E187.3488
G1 X153.731 Y70.044 E187.3688
G1 X153.731 Y81.180 E187.9243
G1 X153.331 Y81.180 E187.9443
G1 X153.331 Y70.044 E188.4999
G1 X152.931 Y70.044 E188.5198
G1 X152.931 Y81.180 E189.0754
G1 X152.531 Y81.180 E189.0954
G1 X152.531 Y70.044 E189.6509
G1 X152.131 Y70.044 E189.6709
G1 X152.131 Y81.180 E190.2265
G1 X151.731 Y81.180 E190.2464
G1 X151.731 Y70.044 E190.8020
G1 X151.331 Y70.177 E190.8230
G1 X151.331 Y81.180 E191.3720
G1 X150.931 Y81.180 E191.3919
G1 X150.931 Y70.177 E191.9409
G1 X150.531 Y70.177 E191.9609
G1 X150.531 Y81.180 E192.5098
G1 X150.131 Y81.313 E192.5309
G1 X150.131 Y70.177 E193.0864
G1 X149.731 Y70.177 E193.1064
G1 X149.731 Y81.313 E193.6620
G1 X149.331 Y81.313 E193.6819
G1 X149.331 Y70.177 E194.2375
G1 X148.931 Y70.177 E194.2575
G1 X148.931 Y81.313 E194.8130
G1 X148.531 Y81.446 E194.8341
G1 X148.531 Y70.177 E195.3962
G1 X148.131 Y70.177 E195.4162
G1 X148.131 Y81.446 E195.9784
G1 X147.731 Y81.446 E195.9984
G1 X147.731 Y70.177 E196.5606
G1 X147.331 Y70.310 E196.5816
G1 X147.331 Y81.446 E197.1372
G1 X146.931 Y81.578 E197.1582
G1 X146.931 Y70.310 E197.7204
G1 X146.531 Y70.310 E197.7403
G1 X146.531 Y81.578 E198.3025
G1 X146.131 Y81.578 E198.3225
G1 X146.131 Y70.310 E198.8847
G1 X145.731 Y70.310 E198.9046
G1 X145.731 Y81.578 E199.4668
G1 X145.331 Y81.578 E199.4868
G1 X145.331 Y70.310 E200.0490
G1 X144.931 Y70.310 E200.0689
G1 X144.931 Y81.711 E200.6377
G1 X144.531 Y81.711 E200.6577
G1 X144.531 Y70.310 E201.2265
G1 X144.131 Y70.310 E201.2465
G1 X144.131 Y81.711 E201.8153
G1 X143.731 Y81.711 E201.8352
G1 X143.731 Y70.442 E202.3974
G1 X143.331 Y70.442 E202.4174
G1 X143.331 Y81.843 E202.9862
G1 X142.931 Y81.843 E203.0061
G1 X142.931 Y70.442 E203.5749
G1 X142.531 Y70.442 E203.5949
G1 X142.531 Y81.843 E204.1637
G1 X142.131 Y81.843 E204.1837
G1 X142.131 Y70.442 E204.7525
G1 X141.731 Y70.442 E204.7724
G1 X141.731 Y81.843 E205.3412
G1 X141.331 Y81.976 E205.3622
G1 X141.331 Y70.442 E205.9377
G1 X140.931 Y70.442 E205.9576
G1 X140.931 Y81.976 E206.5331
G1 X140.531 Y81.976 E206.5530
G1 X140.531 Y70.575 E207.1218
G1 X140.131 Y70.575 E207.1418
G1 X140.131 Y81.976 E207.7106
G1 X139.731 Y82.108 E207.7316
G1 X139.731 Y70.575 E208.3070
G1 X139.331 Y70.707 E208.3281
G1 X139.331 Y82.108 E208.8969
G1 X138.931 Y82.108 E208.9168
G1 X138.931 Y70.707 E209.4856
G1 X138.531 Y70.707 E209.5056
G1 X138.531 Y82.241 E210.0810
G1 X138.131 Y82.241 E210.1010
G1 X138.131 Y70.840 E210.6698
G1 X137.731 Y70.840 E210.6897
G1 X137.731 Y82.241 E211.2585
G1 X137.331 Y82.374 E211.2796
G1 X137.331 Y70.840 E211.8550
G1 X136.931 Y70.972 E211.8760
G1 X136.931 Y82.374 E212.4448
G1 X136.531 Y82.506 E212.4658
G1 X136.531 Y70.972 E213.0413
G1 X136.131 Y70.972 E213.0612
G1 X136.131 Y82.506 E213.6366
G1 X135.731 Y82.639 E213.6577
G1 X135.731 Y71.105 E214.2331
G1 X135.331 Y71.105 E214.2530
G1 X135.331 Y82.639 E214.8285
G1 X134.931 Y82.771 E214.8495
G1 X134.931 Y71.105 E215.4315
G1 X134.531 Y71.238 E215.4526
G1 X134.531 Y82.771 E216.0280
G1 X134.131 Y82.904 E216.0490
G1 X134.131 Y71.238 E216.6310
G1 X133.731 Y71.238 E216.6510
G1 X133.731 Y82.904 E217.2330
G1 X133.331 Y83.036 E217.2541
G1 X133.331 Y71.370 E217.8361
G1 X132.931 Y71.370 E217.8560
G1 X132.931 Y83.036 E218.4381
G1 X132.531 Y83.036 E218.4580
G1 X132.531 Y71.370 E219.0401
G1 X132.131 Y71.503 E219.0611
G1 X132.131 Y83.169 E219.6431
G1 X131.731 Y83.169 E219.6631
G1 X131.731 Y71.503 E220.2451
G1 X131.331 Y71.503 E220.2651
G1 X131.331 Y83.302 E220.8537
G1 X130.931 Y83.302 E220.8737
G1 X130.931 Y71.635 E221.4557
G1 X130.531 Y71.635 E221.4757
G1 X130.531 Y83.434 E222.0643
G1 X130.131 Y83.434 E222.0843
G1 X130.131 Y71.768 E222.6663
G1 X129.731 Y71.768 E222.6863
G1 X129.731 Y83.567 E223.2749
G1 X129.331 Y83.567 E223.2949
G1 X129.331 Y71.900 E223.8769
G1 X128.931 Y71.900 E223.8969
G1 X128.931 Y83.699 E224.4855
G1 X128.531 Y83.699 E224.5055
G1 X128.531 Y72.033 E225.0875
G1 X128.131 Y72.033 E225.1075
G1 X128.131 Y83.832 E225.6961
G1 X127.731 Y83.832 E225.7161
G1 X127.731 Y72.166 E226.2981
G1 X127.331 Y72.166 E226.3181
G1 X127.331 Y83.964 E226.9067
G1 X126.931 Y83.964 E226.9267
G1 X126.931 Y72.298 E227.5087
G1 X126.531 Y72.298 E227.5287
G1 X126.531 Y84.097 E228.1173
G1 X126.131 Y84.230 E228.1384
G1 X126.131 Y72.431 E228.7270
G1 X125.731 Y72.431 E228.7470
G1 X125.731 Y84.362 E229.3422
G1 X125.331 Y84.362 E229.3622
G1 X125.331 Y72.563 E229.9508
G1 X124.931 Y72.696 E229.9719
G1 X124.931 Y84.495 E230.5605
G1 X124.531 Y84.627 E230.5816
G1 X124.531 Y72.696 E231.1768
G1 X124.131 Y72.828 E231.1978
G1 X124.131 Y84.627 E231.7865
G1 X123.731 Y84.760 E231.8075
G1 X123.731 Y72.828 E232.4028
G1 X123.331 Y72.961 E232.4238
G1 X123.331 Y84.892 E233.0191
G1 X122.931 Y84.892 E233.0390
G1 X122.931 Y72.961 E233.6343
G1 X122.531 Y73.094 E233.6553
G1 X122.531 Y85.025 E234.2506
G1 X122.131 Y85.158 E234.2716
G1 X122.131 Y73.094 E234.8735
G1 X121.731 Y73.226 E234.8945
G1 X121.731 Y85.158 E235.4898
G1 X121.331 Y85.290 E235.5108
G1 X121.331 Y73.226 E236.1127
G1 X120.931 Y73.359 E236.1337
G1 X120.931 Y85.423 E236.7356
G1 X120.531 Y85.555 E236.7566
G1 X120.531 Y73.359 E237.3651
G1 X120.131 Y73.491 E237.3861
G1 X120.131 Y85.555 E237.9880
G1 X119.731 Y85.688 E238.0090
G1 X119.731 Y73.624 E238.6109
G1 X119.331 Y73.624 E238.6309
G1 X119.331 Y85.820 E239.2394
G1 X118.931 Y85.820 E239.2593
G1 X118.931 Y73.756 E239.8612
G1 X118.531 Y73.889 E239.8822
G1 X118.531 Y85.953 E240.4841
G1 X118.131 Y86.086 E240.5052
G1 X118.131 Y74.022 E241.1070
G1 X117.731 Y74.022 E241.1270
G1 X117.731 Y86.086 E241.7289
G1 X117.331 Y86.218 E241.7499
G1 X117.331 Y74.154 E242.3518
G1 X116.931 Y74.287 E242.3728
G1 X116.931 Y86.351 E242.9747
G1 X116.531 Y86.351 E242.9947
G1 X116.531 Y74.419 E243.5899
G1 X116.131 Y74.419 E243.6099
G1 X116.131 Y86.483 E244.2118
G1 X115.731 Y86.616 E244.2328
G1 X115.731 Y74.552 E244.8347
G1 X115.331 Y74.684 E244.8557
G1 X115.331 Y86.748 E245.4576
G1 X114.931 Y86.881 E245.4786
G1 X114.931 Y74.817 E246.0805
G1 X114.531 Y74.817 E246.1004
G1 X114.531 Y87.014 E246.7089
G1 X114.131 Y87.146 E246.7300
G1 X114.131 Y74.950 E247.3385
G1 X113.731 Y75.082 E247.3595
G1 X113.731 Y87.279 E247.9680
G1 X113.331 Y87.411 E247.9890
G1 X113.331 Y75.215 E248.5975
G1 X112.931 Y75.347 E248.6185
G1 X112.931 Y87.544 E249.2270
G1 X112.531 Y87.676 E249.2480
G1 X112.531 Y75.347 E249.8631
G1 X112.131 Y75.480 E249.8842
G1 X112.131 Y87.809 E250.4993
G1 X111.731 Y87.942 E250.5203
G1 X111.731 Y75.612 E251.1354
G1 X111.331 Y75.745 E251.1564
G1 X111.331 Y87.942 E251.7649
G1 X110.931 Y88.074 E251.7860
G1 X110.931 Y75.745 E252.4011
G1 X110.531 Y75.878 E252.4221
G1 X110.531 Y88.207 E253.0372
G1 X110.131 Y88.339 E253.0582
G1 X110.131 Y76.010 E253.6734
G1 X109.731 Y76.143 E253.6944
G1 X109.731 Y88.472 E254.3095
G1 X109.331 Y88.604 E254.3305
G1 X109.331 Y76.143 E254.9522
G1 X108.931 Y76.275 E254.9733
G1 X108.931 Y88.737 E255.5950
G1 X108.531 Y88.870 E255.6160
G1 X108.531 Y76.408 E256.2377
G1 X108.131 Y76.540 E256.2588
G1 X108.131 Y89.002 E256.8805
G1 X107.731 Y89.135 E256.9015
G1 X107.731 Y76.673 E257.5233
G1 X107.331 Y76.806 E257.5443
G1 X107.331 Y89.267 E258.1660
G1 X106.931 Y89.400 E258.1871
G1 X106.931 Y76.938 E258.8088
G1 X106.531 Y77.071 E258.8298
G1 X106.531 Y89.532 E259.4516
G1 X106.131 Y89.665 E259.4726
G1 X106.131 Y77.203 E260.0943
G1 X105.731 Y77.336 E260.1153
G1 X105.731 Y89.798 E260.7371
G1 X105.331 Y89.930 E260.7581
G1 X105.331 Y77.468 E261.3798
G1 X104.931 Y77.601 E261.4009
G1 X104.931 Y90.063 E262.0226
G1 X104.531 Y90.195 E262.0436
G1 X104.531 Y77.734 E262.6654
G1 X104.131 Y77.866 E262.6864
G1 X104.131 Y90.460 E263.3147
G1 X103.731 Y90.593 E263.3357
G1 X103.731 Y77.999 E263.9641
G1 X103.331 Y78.131 E263.9851
G1 X103.331 Y90.726 E264.6134
G1 X102.931 Y90.858 E264.6344
G1 X102.931 Y78.264 E265.2628
G1 X102.531 Y78.396 E265.2838
G1 X102.531 Y90.991 E265.9121
G1 X102.131 Y91.256 E265.9361
G1 X102.131 Y78.529 E266.5710
G1 X101.731 Y78.662 E266.5921
G1 X101.731 Y91.388 E267.2270
G1 X101.331 Y91.521 E267.2480
G1 X101.331 Y78.794 E267.8830
G1 X100.931 Y78.927 E267.9040
G1 X100.931 Y91.654 E268.5390
G1 X100.531 Y91.786 E268.5600
G1 X100.531 Y79.059 E269.1949
G1 X100.131 Y79.192 E269.2160
G1 X100.131 Y91.919 E269.8509
G1 X99.731 Y92.184 E269.8749
G1 X99.731 Y79.324 E270.5164
G1 X99.331 Y79.457 E270.5375
G1 X99.331 Y92.316 E271.1790
G1 X98.931 Y92.449 E271.2001
G1 X98.931 Y79.590 E271.8416
G1 X98.531 Y79.855 E271.8656
G1 X98.531 Y92.582 E272.5005
G1 X98.131 Y92.714 E272.5216
G1 X98.131 Y79.987 E273.1565
G1 X97.731 Y79.987 E273.1765
G1 X97.731 Y92.979 E273.8246
G1 X97.331 Y93.112 E273.8457
G1 X97.331 Y80.252 E274.4872
G1 X96.931 Y80.385 E274.5083
G1 X96.931 Y93.244 E275.1498
G1 X96.531 Y93.377 E275.1708
G1 X96.531 Y80.518 E275.8124
G1 X96.131 Y80.650 E275.8334
G1 X96.131 Y93.510 E276.4750
G1 X95.731 Y93.642 E276.4960
G1 X95.731 Y80.915 E277.1310
G1 X95.331 Y81.048 E277.1520
G1 X95.331 Y93.907 E277.7936
G1 X94.931 Y94.040 E277.8146
G1 X94.931 Y81.180 E278.4562
G1 X94.531 Y81.313 E278.4772
G1 X94.531 Y94.172 E279.1188
G1 X94.131 Y94.438 E279.1427
G1 X94.131 Y81.578 E279.7843
G1 X93.731 Y81.711 E279.8053
G1 X93.731 Y94.570 E280.4469
G1 X93.331 Y94.835 E280.4709
G1 X93.331 Y81.843 E281.1190
G1 X92.931 Y81.976 E281.1401
G1 X92.931 Y94.968 E281.7882
G1 X92.531 Y95.233 E281.8122
G1 X92.531 Y82.241 E282.4603
G1 X92.131 Y82.374 E282.4814
G1 X92.131 Y95.366 E283.1295
G1 X91.731 Y95.631 E283.1535
G1 X91.731 Y82.506 E283.8083
G1 X91.331 Y82.771 E283.8322
G1 X91.331 Y95.763 E284.4804
G1 X90.931 Y96.029 E284.5043
G1 X90.931 Y82.904 E285.1591
G1 X90.531 Y83.036 E285.1802
G1 X90.531 Y96.161 E285.8349
G1 X90.131 Y96.426 E285.8589
G1 X90.131 Y83.169 E286.5203
G1 X89.731 Y83.434 E286.5443
G1 X89.731 Y96.559 E287.1990
G1 X89.331 Y96.691 E287.2201
G1 X89.331 Y83.567 E287.8749
G1 X88.931 Y83.699 E287.8959
G1 X88.931 Y96.957 E288.5573
G1 X88.531 Y97.089 E288.5783
G1 X88.531 Y83.832 E289.2397
G1 X88.131 Y84.097 E289.2637
G1 X88.131 Y97.354 E289.9251
G1 X87.731 Y97.487 E289.9461
G1 X87.731 Y84.230 E290.6075
G1 X87.331 Y84.362 E290.6286
G1 X87.331 Y97.752 E291.2966
G1 X86.931 Y97.885 E291.3176
G1 X86.931 Y84.627 E291.9790
G1 X86.531 Y84.760 E292.0000
G1 X86.531 Y98.150 E292.6681
G1 X86.131 Y98.282 E292.6891
G1 X86.131 Y85.025 E293.3505
G1 X85.731 Y85.158 E293.3715
G1 X85.731 Y98.547 E294.0396
G1 X85.331 Y98.680 E294.0606
G1 X85.331 Y85.423 E294.7220
G1 X84.931 Y85.555 E294.7430
G1 X84.931 Y98.813 E295.4044
G1 X84.531 Y99.078 E295.4284
G1 X84.531 Y85.820 E296.0898
G1 X84.131 Y86.086 E296.1138
G1 X84.131 Y99.343 E296.7752
G1 X83.731 Y99.608 E296.7991
G1 X83.731 Y86.351 E297.4605
G1 X83.331 Y86.483 E297.4815
G1 X83.331 Y99.873 E298.1496
G1 X82.931 Y100.138 E298.1735
G1 X82.931 Y86.748 E298.8416
G1 X82.531 Y86.881 E298.8626
G1 X82.531 Y100.271 E299.5306
G1 X82.131 Y100.536 E299.5546
G1 X82.131 Y87.146 E300.2226
G1 X81.731 Y87.279 E300.2436
G1 X81.731 Y100.801 E300.9183
G1 X81.331 Y101.066 E300.9422
G1 X81.331 Y87.544 E301.6168
G1 X80.931 Y87.676 E301.6379
G1 X80.931 Y101.199 E302.3125
G1 X80.531 Y101.464 E302.3364
G1 X80.531 Y87.942 E303.0111
G1 X80.131 Y88.074 E303.0321
G1 X80.131 Y101.729 E303.7133
G1 X79.731 Y101.862 E303.7344
G1 X79.731 Y88.339 E304.4090
G1 X79.331 Y88.472 E304.4300
G1 X79.331 Y102.127 E305.1112
G1 X78.931 Y102.392 E305.1352
G1 X78.931 Y88.737 E305.8164
G1 X78.531 Y88.870 E305.8375
G1 X78.531 Y102.657 E306.5253
G1 X78.131 Y102.790 E306.5464
G1 X78.131 Y89.135 E307.2276
G1 X77.731 Y89.267 E307.2486
G1 X77.731 Y103.055 E307.9365
G1 X77.331 Y103.320 E307.9605
G1 X77.331 Y89.532 E308.6483
G1 X76.931 Y89.798 E308.6723
G1 X76.931 Y103.585 E309.3602
G1 X76.531 Y103.718 E309.3812
G1 X76.531 Y90.063 E310.0624
G1 X76.131 Y90.195 E310.0834
G1 X76.131 Y103.983 E310.7713
G1 X75.731 Y104.248 E310.7953
G1 X75.731 Y90.460 E311.4831
G1 X75.331 Y90.726 E311.5071
G1 X75.331 Y104.513 E312.1950
G1 X74.931 Y104.778 E312.2189
G1 X74.931 Y90.991 E312.9068
G1 X74.531 Y91.256 E312.9307
G1 X74.531 Y105.043 E313.6186
G1 X74.131 Y105.309 E313.6426
G1 X74.131 Y91.388 E314.3370
G1 X73.731 Y91.654 E314.3610
G1 X73.731 Y105.574 E315.0555
G1 X73.331 Y105.839 E315.0794
G1 X73.331 Y91.919 E315.7739
G1 X72.931 Y92.184 E315.7979
G1 X72.931 Y106.104 E316.4924
G1 X72.531 Y106.369 E316.5163
G1 X72.531 Y92.449 E317.2108
G1 X72.131 Y92.582 E317.2319
G1 X72.131 Y106.634 E317.9329
G1 X71.731 Y106.899 E317.9569
G1 X71.731 Y92.847 E318.6580
G1 X71.331 Y93.112 E318.6819
G1 X71.331 Y107.165 E319.3830
G1 X70.931 Y107.430 E319.4070
G1 X70.931 Y93.377 E320.1080
G1 X70.531 Y93.642 E320.1320
G1 X70.531 Y107.695 E320.8331
G1 X70.131 Y107.960 E320.8570
G1 X70.131 Y93.775 E321.5647
G1 X69.731 Y94.040 E321.5887
G1 X69.731 Y108.225 E322.2964
G1 X69.331 Y108.490 E322.3204
G1 X69.331 Y94.305 E323.0281
G1 X68.931 Y94.570 E323.0520
G1 X68.931 Y108.755 E323.7597
G1 X68.531 Y109.021 E323.7837
G1 X68.531 Y94.835 E324.4914
G1 X68.131 Y94.968 E324.5124
G1 X68.131 Y109.418 E325.2333
G1 X67.731 Y109.683 E325.2573
G1 X67.731 Y95.366 E325.9716
G1 X67.331 Y95.631 E325.9956
G1 X67.331 Y109.949 E326.7099
G1 X66.931 Y110.214 E326.7338
G1 X66.931 Y95.896 E327.4482
G1 X66.531 Y96.161 E327.4721
G1 X66.531 Y110.479 E328.1864
G1 X66.131 Y110.744 E328.2104
G1 X66.131 Y96.426 E328.9247
G1 X65.731 Y96.691 E328.9487
G1 X65.731 Y111.009 E329.6630
G1 X65.331 Y111.274 E329.6870
G1 X65.331 Y96.957 E330.4013
G1 X64.931 Y97.222 E330.4252
G1 X64.931 Y111.539 E331.1396
G1 X64.531 Y111.937 E331.1677
G1 X64.531 Y97.487 E331.8886
G1 X64.131 Y97.752 E331.9126
G1 X64.131 Y112.202 E332.6335
G1 X63.731 Y112.600 E332.6616
G1 X63.731 Y98.150 E333.3826
G1 X63.331 Y98.415 E333.4065
G1 X63.331 Y112.865 E334.1274
G1 X62.931 Y113.130 E334.1514
G1 X62.931 Y98.680 E334.8723
G1 X62.531 Y98.945 E334.8963
G1 X62.531 Y113.528 E335.6238
G1 X62.131 Y113.793 E335.6477
G1 X62.131 Y99.210 E336.3753
G1 X61.731 Y99.475 E336.3992
G1 X61.731 Y114.191 E337.1334
G1 X61.331 Y114.456 E337.1574
G1 X61.331 Y99.741 E337.8915
G1 X60.931 Y100.138 E337.9197
G1 X60.931 Y114.854 E338.6538
G1 X60.531 Y115.251 E338.6820
G1 X60.531 Y100.403 E339.4227
G1 X60.131 Y100.669 E339.4467
G1 X60.131 Y115.517 E340.1875
G1 X59.731 Y115.914 E340.2156
G1 X59.731 Y100.934 E340.9630
G1 X59.331 Y101.199 E340.9870
G1 X59.331 Y116.179 E341.7343
G1 X58.931 Y116.445 E341.7583
G1 X58.931 Y101.597 E342.4991
G1 X58.531 Y101.862 E342.5230
G1 X58.531 Y116.842 E343.2704
G1 X58.131 Y117.107 E343.2944
G1 X58.131 Y102.259 E344.0351
G1 X57.731 Y102.525 E344.0591
G1 X57.731 Y117.505 E344.8065
G1 X57.331 Y117.770 E344.8304
G1 X57.331 Y102.790 E345.5778
G1 X56.931 Y103.187 E345.6059
G1 X56.931 Y118.035 E346.3467
G1 X56.531 Y118.433 E346.3749
G1 X56.531 Y103.453 E347.1222
G1 X56.131 Y103.850 E347.1504
G1 X56.131 Y118.831 E347.8977
G1 X55.731 Y119.096 E347.9217
G1 X55.731 Y104.115 E348.6691
G1 X55.331 Y104.513 E348.6972
G1 X55.331 Y119.494 E349.4446
G1 X54.931 Y119.891 E349.4727
G1 X54.931 Y104.778 E350.2267
G1 X54.531 Y105.176 E350.2549
G1 X54.531 Y120.289 E351.0089
G1 X54.131 Y120.687 E351.0370
G1 X54.131 Y105.441 E351.7976
G1 X53.731 Y105.839 E351.8258
G1 X53.731 Y120.952 E352.5798
G1 X53.331 Y121.350 E352.6079
G1 X53.331 Y106.104 E353.3685
G1 X52.931 Y106.369 E353.3925
G1 X52.931 Y121.747 E354.1597
G1 X52.531 Y122.145 E354.1878
G1 X52.531 Y106.767 E354.9551
G1 X52.131 Y107.032 E354.9790
G1 X52.131 Y122.410 E355.7463
G1 X51.731 Y122.808 E355.7744
G1 X51.731 Y107.430 E356.5417
G1 X51.331 Y107.695 E356.5656
G1 X51.331 Y123.206 E357.3395
G1 X50.931 Y123.603 E357.3676
G1 X50.931 Y108.093 E358.1414
G1 X50.531 Y108.358 E358.1654
G1 X50.531 Y124.001 E358.9458
G1 X50.131 Y124.266 E358.9698
G1 X50.131 Y108.755 E359.7436
G1 X49.731 Y109.153 E359.7718
G1 X49.731 Y124.664 E360.5456
G1 X49.331 Y125.062 E360.5737
G1 X49.331 Y109.418 E361.3542
G1 X48.931 Y109.816 E361.3823
G1 X48.931 Y125.459 E362.1628
G1 X48.531 Y125.725 E362.1867
G1 X48.531 Y110.214 E362.9606
G1 X48.131 Y110.611 E362.9887
G1 X48.131 Y125.725 E363.7427
G1 X47.731 Y125.725 E363.7627
G1 X47.731 Y111.009 E364.4968
G1 X47.331 Y111.274 E364.5208
G1 X47.331 Y125.725 E365.2417
G1 X46.931 Y125.725 E365.2617
G1 X46.931 Y111.672 E365.9628
G1 X46.531 Y112.070 E365.9909
G1 X46.531 Y125.725 E366.6721
G1 X46.131 Y125.725 E366.6921
G1 X46.131 Y112.467 E367.3535
G1 X45.731 Y112.865 E367.3816
G1 X45.731 Y125.725 E368.0232
G1 X45.331 Y125.725 E368.0432
G1 X45.331 Y113.130 E368.6715
G1 X44.931 Y113.528 E368.6996
G1 X44.931 Y125.725 E369.3081
G1 X44.531 Y125.592 E369.3291
G1 X44.531 Y113.926 E369.9112
G1 X44.131 Y114.323 E369.9393
G1 X44.131 Y125.194 E370.4817
G1 X43.731 Y124.797 E370.5098
G1 X43.731 Y114.721 E371.0125
G1 X43.331 Y114.986 E371.0364
G1 X43.331 Y124.399 E371.5060
G1 X42.931 Y124.001 E371.5342
G1 X42.931 Y115.384 E371.9641
G1 X42.531 Y115.782 E371.9922
G1 X42.531 Y123.603 E372.3824
G1 X42.131 Y123.206 E372.4106
G1 X42.131 Y116.179 E372.7611
G1 X41.731 Y116.577 E372.7893
G1 X41.731 Y122.808 E373.1001
G1 X41.331 Y122.410 E373.1282
G1 X41.331 Y116.975 E373.3994
G1 X40.931 Y117.373 E373.4276
G1 X40.931 Y122.013 E373.6591



; ------------------------------------
; Raft Layer #3
; ------------------------------------
M106 S255 ;set fan speed
G21 ; mm
G90 ; abs
G92 E0 ;reset extr
G0 F1200 Z1.200
;segType:Raft
G0 F4800 E-1.0000
G0 F1200 Z3.200
G0 X44.427 Y125.411 F7200
G0 F1200 Z1.200
G0 F4800 E0.0000
G1 X48.802 Y125.411 E0.2183 F2400
G1 X49.199 Y125.011 E0.2464
G1 X44.029 Y125.011 E0.5044
G1 X43.631 Y124.611 E0.5325
G1 X49.597 Y124.611 E0.8301
G1 X49.995 Y124.211 E0.8583
G1 X43.234 Y124.211 E1.1956
G1 X42.836 Y123.811 E1.2237
G1 X50.525 Y123.811 E1.6073
G1 X50.923 Y123.411 E1.6355
G1 X42.438 Y123.411 E2.0588
G1 X42.041 Y123.011 E2.0869
G1 X51.321 Y123.011 E2.5499
G1 X51.718 Y122.611 E2.5780
G1 X41.643 Y122.611 E3.0807
G1 X41.113 Y122.211 E3.1139
G1 X52.381 Y122.211 E3.6760
G1 X52.779 Y121.811 E3.7042
G1 X40.715 Y121.811 E4.3061
G1 X40.582 Y121.411 E4.3271
G1 X53.177 Y121.411 E4.9554
G1 X53.574 Y121.011 E4.9836
G1 X40.582 Y121.011 E5.6317
G1 X40.582 Y120.611 E5.6517
G1 X54.105 Y120.611 E6.3263
G1 X54.502 Y120.211 E6.3545
G1 X40.582 Y120.211 E7.0489
G1 X40.582 Y119.811 E7.0689
G1 X54.900 Y119.811 E7.7832
G1 X55.298 Y119.411 E7.8114
G1 X40.582 Y119.411 E8.5455
G1 X40.582 Y119.011 E8.5655
G1 X55.695 Y119.011 E9.3195
G1 X56.226 Y118.611 E9.3526
G1 X40.582 Y118.611 E10.1331
G1 X40.582 Y118.211 E10.1530
G1 X56.623 Y118.211 E10.9533
G1 X57.154 Y117.811 E10.9865
G1 X40.582 Y117.811 E11.8132
G1 X40.847 Y117.411 E11.8372
G1 X57.684 Y117.411 E12.6771
G1 X58.082 Y117.011 E12.7053
G1 X41.245 Y117.011 E13.5453
G1 X41.643 Y116.611 E13.5734
G1 X58.612 Y116.611 E14.4200
G1 X59.142 Y116.211 E14.4531
G1 X42.041 Y116.211 E15.3064
G1 X42.438 Y115.811 E15.3345
G1 X59.673 Y115.811 E16.1943
G1 X60.070 Y115.411 E16.2225
G1 X42.836 Y115.411 E17.0823
G1 X43.234 Y115.011 E17.1104
G1 X60.601 Y115.011 E17.9769
G1 X61.131 Y114.611 E18.0100
G1 X43.764 Y114.611 E18.8765
G1 X44.162 Y114.211 E18.9046
G1 X61.661 Y114.211 E19.7776
G1 X62.059 Y113.811 E19.8058
G1 X44.559 Y113.811 E20.6788
G1 X44.957 Y113.411 E20.7070
G1 X62.589 Y113.411 E21.5866
G1 X63.120 Y113.011 E21.6198
G1 X45.355 Y113.011 E22.5061
G1 X45.885 Y112.611 E22.5392
G1 X63.517 Y112.611 E23.4189
G1 X64.048 Y112.211 E23.4520
G1 X46.283 Y112.211 E24.3383
G1 X46.681 Y111.811 E24.3664
G1 X64.578 Y111.811 E25.2593
G1 X65.108 Y111.411 E25.2925
G1 X47.078 Y111.411 E26.1920
G1 X47.609 Y111.011 E26.2251
G1 X65.638 Y111.011 E27.1246
G1 X66.169 Y110.611 E27.1578
G1 X48.006 Y110.611 E28.0639
G1 X48.404 Y110.211 E28.0920
G1 X66.699 Y110.211 E29.0048
G1 X67.362 Y109.811 E29.0434
G1 X48.802 Y109.811 E29.9694
G1 X49.199 Y109.411 E29.9975
G1 X67.892 Y109.411 E30.9301
G1 X68.422 Y109.011 E30.9632
G1 X49.730 Y109.011 E31.8958
G1 X50.127 Y108.611 E31.9239
G1 X69.085 Y108.611 E32.8697
G1 X69.616 Y108.211 E32.9029
G1 X50.525 Y108.211 E33.8553
G1 X51.055 Y107.811 E33.8884
G1 X70.278 Y107.811 E34.8475
G1 X70.809 Y107.411 E34.8806
G1 X51.586 Y107.411 E35.8397
G1 X51.983 Y107.011 E35.8678
G1 X71.339 Y107.011 E36.8334
G1 X72.002 Y106.611 E36.8721
G1 X52.514 Y106.611 E37.8443
G1 X53.044 Y106.211 E37.8775
G1 X72.532 Y106.211 E38.8497
G1 X73.062 Y105.811 E38.8829
G1 X53.442 Y105.811 E39.8617
G1 X53.972 Y105.411 E39.8949
G1 X73.725 Y105.411 E40.8804
G1 X74.256 Y105.011 E40.9135
G1 X54.502 Y105.011 E41.8990
G1 X54.900 Y104.611 E41.9272
G1 X74.918 Y104.611 E42.9259
G1 X75.581 Y104.211 E42.9645
G1 X55.430 Y104.211 E43.9698
G1 X55.961 Y103.811 E44.0030
G1 X76.244 Y103.811 E45.0149
G1 X76.907 Y103.411 E45.0535
G1 X56.358 Y103.411 E46.0787
G1 X56.889 Y103.011 E46.1119
G1 X77.570 Y103.011 E47.1436
G1 X78.233 Y102.611 E47.1823
G1 X57.419 Y102.611 E48.2207
G1 X57.817 Y102.211 E48.2488
G1 X78.896 Y102.211 E49.3005
G1 X79.558 Y101.811 E49.3391
G1 X58.347 Y101.811 E50.3973
G1 X58.877 Y101.411 E50.4305
G1 X80.354 Y101.411 E51.5019
G1 X81.017 Y101.011 E51.5406
G1 X59.407 Y101.011 E52.6187
G1 X59.938 Y100.611 E52.6518
G1 X81.680 Y100.611 E53.7365
G1 X82.342 Y100.211 E53.7751
G1 X60.468 Y100.211 E54.8664
G1 X61.131 Y99.811 E54.9051
G1 X83.005 Y99.811 E55.9964
G1 X83.668 Y99.411 E56.0350
G1 X61.661 Y99.411 E57.1329
G1 X62.191 Y99.011 E57.1661
G1 X84.464 Y99.011 E58.2772
G0 F4800 E57.2772
G0 X75.316 Y90.611 F7200
G0 F4800 E58.2772
G1 X103.421 Y90.611 E59.6794 F2400
G1 X104.349 Y90.211 E59.7298
G1 X75.979 Y90.211 E61.1452
G1 X76.642 Y89.811 E61.1838
G1 X105.410 Y89.811 E62.6191
G0 F4800 E62.6191
G0 X106.603 Y89.411 F7200
G1 X77.305 Y89.411 E64.0808 F2400
G1 X78.100 Y89.011 E64.1252
G1 X107.929 Y89.011 E65.6134
G0 F4800 E65.6134
G0 X109.122 Y88.611 F7200
G1 X78.896 Y88.611 E67.1214 F2400
G1 X79.691 Y88.211 E67.1658
G1 X110.448 Y88.211 E68.7002
G0 F4800 E68.7002
G0 X111.773 Y87.811 F7200
G1 X80.486 Y87.811 E70.2612 F2400
G1 X81.282 Y87.411 E70.3056
G1 X112.967 Y87.411 E71.8863
G0 F4800 E71.8863
G0 X114.292 Y87.011 F7200
G1 X82.077 Y87.011 E73.4935 F2400
G1 X82.873 Y86.611 E73.5380
G1 X115.618 Y86.611 E75.1716
G0 F4800 E75.1716
G0 X117.076 Y86.211 F7200
G1 X83.668 Y86.211 E76.8384 F2400
G1 X84.331 Y85.811 E76.8770
G1 X118.800 Y85.811 E78.5967
G0 F4800 E78.5967
G0 X120.523 Y85.411 F7200
G1 X85.126 Y85.411 E80.3626 F2400
G1 X85.922 Y85.011 E80.4070
G1 X122.247 Y85.011 E82.2193
G0 F4800 E82.2193
G0 X123.970 Y84.611 F7200
G1 X86.717 Y84.611 E84.0778 F2400
G1 X87.513 Y84.211 E84.1222
G1 X125.693 Y84.211 E86.0271
G0 F4800 E86.0271
G0 X127.417 Y83.811 F7200
G1 X88.441 Y83.811 E87.9716 F2400
G1 X89.369 Y83.411 E88.0220
G1 X129.936 Y83.411 E90.0459
G0 F4800 E90.0459
G0 X132.455 Y83.011 F7200
G1 X90.297 Y83.011 E92.1492 F2400
G0 F4800 E92.1492
G0 X97.058 Y80.211 F7200
G1 X211.335 Y80.211 E97.8505 F2400
G1 X212.263 Y80.611 E97.9009
G1 X95.997 Y80.611 E103.7014
G1 X95.069 Y81.011 E103.7518
G1 X213.191 Y81.011 E109.6449
G0 F4800 E109.6449
G0 X210.407 Y79.811 F7200
G1 X98.119 Y79.811 E115.2470 F2400
G0 F4800 E115.2470
G0 X99.179 Y79.411 F7200
G1 X209.214 Y79.411 E120.7367 F2400
G0 F4800 E120.7367
G0 X208.021 Y79.011 F7200
G1 X100.372 Y79.011 E126.1073 F2400
G0 F4800 E126.1073
G0 X101.565 Y78.611 F7200
G1 X206.828 Y78.611 E131.3588 F2400
G0 F4800 E131.3588
G0 X205.634 Y78.211 F7200
G1 X102.759 Y78.211 E136.4913 F2400
G0 F4800 E136.4913
G0 X103.952 Y77.811 F7200
G1 X204.441 Y77.811 E141.5048 F2400
G0 F4800 E141.5048
G0 X203.248 Y77.411 F7200
G1 X105.145 Y77.411 E146.3992 F2400
G0 F4800 E146.3992
G0 X106.338 Y77.011 F7200
G1 X202.055 Y77.011 E151.1745 F2400
G0 F4800 E151.1745
G0 X200.862 Y76.611 F7200
G1 X107.399 Y76.611 E155.8374 F2400
G0 F4800 E155.8374
G0 X108.857 Y76.211 F7200
G1 X199.536 Y76.211 E160.3614 F2400
G0 F4800 E160.3614
G0 X198.078 Y75.811 F7200
G1 X110.315 Y75.811 E164.7399 F2400
G0 F4800 E164.7399
G0 X112.436 Y75.411 F7200
G1 X195.957 Y75.411 E168.9067 F2400
G0 F4800 E168.9067
G0 X194.498 Y75.011 F7200
G1 X113.895 Y75.011 E172.9281 F2400
G0 F4800 E172.9281
G0 X115.485 Y74.611 F7200
G1 X192.907 Y74.611 E176.7907 F2400
G0 F4800 E176.7907
G0 X191.449 Y74.211 F7200
G1 X117.076 Y74.211 E180.5012 F2400
G0 F4800 E180.5012
G0 X118.535 Y73.811 F7200
G1 X189.858 Y73.811 E184.0595 F2400
G0 F4800 E184.0595
G0 X187.870 Y73.411 F7200
G1 X120.391 Y73.411 E187.4260 F2400
G0 F4800 E187.4260
G0 X122.644 Y73.011 F7200
G1 X185.749 Y73.011 E190.5743 F2400
G0 F4800 E190.5743
G0 X183.627 Y72.611 F7200
G1 X124.898 Y72.611 E193.5044 F2400
G0 F4800 E193.5044
G0 X127.152 Y72.211 F7200
G1 X181.374 Y72.211 E196.2095 F2400
G0 F4800 E196.2095
G0 X179.253 Y71.811 F7200
G1 X129.273 Y71.811 E198.7030 F2400
G0 F4800 E198.7030
G0 X132.189 Y71.411 F7200
G1 X176.071 Y71.411 E200.8922 F2400
G0 F4800 E200.8922
G0 X172.491 Y71.011 F7200
G1 X135.902 Y71.011 E202.7177 F2400
G0 F4800 E202.7177
G0 X139.614 Y70.611 F7200
G1 X168.779 Y70.611 E204.1728 F2400
G0 F4800 E204.1728
G0 X160.692 Y70.211 F7200
G1 X147.568 Y70.211 E204.8276 F2400
G0 F4800 E203.8276
G0 X146.905 Y81.411 F7200
G0 F4800 E204.8276
G1 X94.141 Y81.411 E207.4600 F2400
G1 X93.213 Y81.811 E207.5104
G1 X141.602 Y81.811 E209.9245
G0 F4800 E209.9245
G0 X137.625 Y82.211 F7200
G1 X92.285 Y82.211 E212.1865 F2400
G1 X91.357 Y82.611 E212.2370
G1 X135.106 Y82.611 E214.4196
G0 F4800 E213.4196
G0 X161.488 Y81.411 F7200
G0 F4800 E214.4196
G1 X214.252 Y81.411 E217.0520 F2400
G1 X215.180 Y81.811 E217.1024
G1 X166.658 Y81.811 E219.5231
G0 F4800 E219.5231
G0 X170.635 Y82.211 F7200
G1 X216.108 Y82.211 E221.7917 F2400
G1 X217.036 Y82.611 E221.8422
G1 X173.287 Y82.611 E224.0248
G0 F4800 E224.0248
G0 X175.806 Y83.011 F7200
G1 X217.964 Y83.011 E226.1281 F2400
G0 F4800 E225.1281
G0 X213.058 Y93.811 F7200
G0 F4800 E226.1281
G1 X238.380 Y93.811 E227.3913 F2400
G1 X239.042 Y94.211 E227.4300
G1 X213.986 Y94.211 E228.6800
G1 X214.782 Y94.611 E228.7244
G1 X239.705 Y94.611 E229.9679
G1 X240.368 Y95.011 E230.0065
G1 X215.577 Y95.011 E231.2433
G1 X216.373 Y95.411 E231.2877
G1 X240.898 Y95.411 E232.5113
G1 X241.429 Y95.811 E232.5445
G1 X217.168 Y95.811 E233.7549
G1 X218.096 Y96.211 E233.8053
G1 X242.092 Y96.211 E235.0024
G1 X242.622 Y96.611 E235.0356
G1 X218.892 Y96.611 E236.2195
G1 X219.687 Y97.011 E236.2639
G1 X243.152 Y97.011 E237.4346
G1 X243.683 Y97.411 E237.4677
G1 X220.482 Y97.411 E238.6252
G1 X221.278 Y97.811 E238.6696
G1 X244.345 Y97.811 E239.8204
G1 X244.876 Y98.211 E239.8536
G1 X222.206 Y98.211 E240.9846
G1 X223.001 Y98.611 E241.0290
G1 X245.406 Y98.611 E242.1468
G1 X246.201 Y99.011 E242.1912
G1 X223.929 Y99.011 E243.3024
G1 X224.592 Y99.411 E243.3410
G1 X246.732 Y99.411 E244.4455
G1 X247.262 Y99.811 E244.4787
G1 X225.388 Y99.811 E245.5700
G1 X226.050 Y100.211 E245.6086
G1 X247.925 Y100.211 E246.6999
G1 X248.455 Y100.611 E246.7331
G1 X226.713 Y100.611 E247.8178
G1 X227.376 Y101.011 E247.8564
G1 X248.985 Y101.011 E248.9345
G1 X249.516 Y101.411 E248.9676
G1 X228.039 Y101.411 E250.0391
G1 X228.702 Y101.811 E250.0777
G1 X250.046 Y101.811 E251.1426
G1 X250.576 Y102.211 E251.1757
G1 X229.497 Y102.211 E252.2274
G1 X230.160 Y102.611 E252.2660
G1 X250.974 Y102.611 E253.3044
G1 X251.504 Y103.011 E253.3375
G1 X230.823 Y103.011 E254.3693
G1 X231.486 Y103.411 E254.4079
G1 X252.035 Y103.411 E255.4331
G1 X252.432 Y103.811 E255.4612
G1 X232.149 Y103.811 E256.4732
G1 X232.944 Y104.211 E256.5176
G1 X252.963 Y104.211 E257.5163
G1 X253.493 Y104.611 E257.5495
G1 X233.474 Y104.611 E258.5482
G1 X234.137 Y105.011 E258.5868
G1 X253.891 Y105.011 E259.5723
G1 X254.421 Y105.411 E259.6055
G1 X234.668 Y105.411 E260.5910
G1 X235.330 Y105.811 E260.6296
G1 X254.951 Y105.811 E261.6085
G1 X255.349 Y106.211 E261.6366
G1 X235.861 Y106.211 E262.6089
G1 X236.391 Y106.611 E262.6420
G1 X255.879 Y106.611 E263.6143
G1 X256.409 Y107.011 E263.6474
G1 X237.054 Y107.011 E264.6131
G1 X237.584 Y107.411 E264.6462
G1 X256.940 Y107.411 E265.6119
G1 X257.337 Y107.811 E265.6400
G1 X238.114 Y107.811 E266.5990
G1 X238.777 Y108.211 E266.6377
G1 X257.868 Y108.211 E267.5901
G1 X258.265 Y108.611 E267.6182
G1 X239.308 Y108.611 E268.5640
G1 X239.970 Y109.011 E268.6027
G1 X258.663 Y109.011 E269.5353
G1 X259.193 Y109.411 E269.5684
G1 X240.501 Y109.411 E270.5010
G1 X241.031 Y109.811 E270.5341
G1 X259.591 Y109.811 E271.4601
G1 X259.989 Y110.211 E271.4882
G1 X241.694 Y110.211 E272.4010
G1 X242.224 Y110.611 E272.4341
G1 X260.387 Y110.611 E273.3403
G1 X260.784 Y111.011 E273.3684
G1 X242.887 Y111.011 E274.2613
G1 X243.285 Y111.411 E274.2894
G1 X261.315 Y111.411 E275.1889
G1 X261.712 Y111.811 E275.2171
G1 X243.815 Y111.811 E276.1099
G1 X244.345 Y112.211 E276.1431
G1 X262.110 Y112.211 E277.0294
G1 X262.508 Y112.611 E277.0575
G1 X244.876 Y112.611 E277.9372
G1 X245.273 Y113.011 E277.9653
G1 X262.905 Y113.011 E278.8450
G1 X263.436 Y113.411 E278.8781
G1 X245.804 Y113.411 E279.7578
G1 X246.334 Y113.811 E279.7909
G1 X263.833 Y113.811 E280.6640
G1 X264.231 Y114.211 E280.6921
G1 X246.864 Y114.211 E281.5585
G1 X247.262 Y114.611 E281.5867
G1 X264.629 Y114.611 E282.4531
G1 X265.159 Y115.011 E282.4862
G1 X247.792 Y115.011 E283.3527
G1 X248.323 Y115.411 E283.3858
G1 X265.557 Y115.411 E284.2456
G1 X265.955 Y115.811 E284.2738
G1 X248.853 Y115.811 E285.1270
G1 X249.251 Y116.211 E285.1551
G1 X266.352 Y116.211 E286.0083
G1 X266.750 Y116.611 E286.0365
G1 X249.781 Y116.611 E286.8831
G1 X250.311 Y117.011 E286.9162
G1 X267.148 Y117.011 E287.7562
G1 X267.545 Y117.411 E287.7843
G1 X250.841 Y117.411 E288.6177
G1 X251.239 Y117.811 E288.6459
G1 X267.811 Y117.811 E289.4726
G1 X267.811 Y118.211 E289.4926
G1 X251.769 Y118.211 E290.2929
G1 X252.167 Y118.611 E290.3210
G1 X267.811 Y118.611 E291.1015
G1 X267.811 Y119.011 E291.1214
G1 X252.697 Y119.011 E291.8754
G1 X253.095 Y119.411 E291.9035
G1 X267.811 Y119.411 E292.6377
G1 X267.811 Y119.811 E292.6577
G1 X253.493 Y119.811 E293.3720
G1 X253.891 Y120.211 E293.4001
G1 X267.811 Y120.211 E294.0946
G1 X267.811 Y120.611 E294.1146
G1 X254.288 Y120.611 E294.7892
G1 X254.819 Y121.011 E294.8223
G1 X267.811 Y121.011 E295.4705
G1 X267.811 Y121.411 E295.4905
G1 X255.216 Y121.411 E296.1188
G1 X255.614 Y121.811 E296.1469
G1 X267.678 Y121.811 E296.7488
G1 X267.280 Y122.211 E296.7769
G1 X256.012 Y122.211 E297.3391
G1 X256.675 Y122.611 E297.3778
G1 X266.750 Y122.611 E297.8804
G1 X266.352 Y123.011 E297.9086
G1 X257.072 Y123.011 E298.3715
G1 X257.470 Y123.411 E298.3997
G1 X265.955 Y123.411 E298.8230
G1 X265.557 Y123.811 E298.8511
G1 X257.868 Y123.811 E299.2347
G1 X258.265 Y124.211 E299.2629
G1 X265.159 Y124.211 E299.6068
G1 X264.761 Y124.611 E299.6349
G1 X258.796 Y124.611 E299.9326
G1 X259.193 Y125.011 E299.9607
G1 X264.364 Y125.011 E300.2186
G1 X263.966 Y125.411 E300.2468
G1 X259.591 Y125.411 E300.4650
G0 F4800 E299.4650
G0 X211.998 Y93.411 F7200
G0 F4800 E300.4650
G1 X237.717 Y93.411 E301.7482 F2400
G1 X237.054 Y93.011 E301.7868
G1 X211.070 Y93.011 E303.0831
G0 F4800 E303.0831
G0 X210.009 Y92.611 F7200
G1 X236.391 Y92.611 E304.3993 F2400
G1 X235.728 Y92.211 E304.4380
G1 X208.949 Y92.211 E305.7740
G1 X208.021 Y91.811 E305.8244
G1 X235.065 Y91.811 E307.1737
G1 X234.402 Y91.411 E307.2123
G1 X206.960 Y91.411 E308.5814
G1 X206.032 Y91.011 E308.6318
G1 X233.740 Y91.011 E310.0142
G1 X233.077 Y90.611 E310.0528
G1 X204.971 Y90.611 E311.4550
G1 X204.043 Y90.211 E311.5054
G1 X232.414 Y90.211 E312.9208
G1 X231.751 Y89.811 E312.9595
G1 X202.983 Y89.811 E314.3947
G0 F4800 E314.3947
G0 X201.657 Y89.411 F7200
G1 X230.956 Y89.411 E315.8564 F2400
G1 X230.293 Y89.011 E315.8950
G1 X200.464 Y89.011 E317.3832
G0 F4800 E317.3832
G0 X199.138 Y88.611 F7200
G1 X229.497 Y88.611 E318.8978 F2400
G1 X228.702 Y88.211 E318.9422
G1 X197.813 Y88.211 E320.4833
G0 F4800 E320.4833
G0 X196.619 Y87.811 F7200
G1 X227.906 Y87.811 E322.0442 F2400
G1 X227.111 Y87.411 E322.0887
G1 X195.294 Y87.411 E323.6760
G0 F4800 E323.6760
G0 X194.101 Y87.011 F7200
G1 X226.448 Y87.011 E325.2899 F2400
G1 X225.653 Y86.611 E325.3343
G1 X192.775 Y86.611 E326.9746
G0 F4800 E326.9746
G0 X191.317 Y86.211 F7200
G1 X224.857 Y86.211 E328.6479 F2400
G1 X224.062 Y85.811 E328.6924
G1 X189.593 Y85.811 E330.4120
G0 F4800 E330.4120
G0 X187.870 Y85.411 F7200
G1 X223.266 Y85.411 E332.1780 F2400
G1 X222.471 Y85.011 E332.2224
G1 X186.146 Y85.011 E334.0347
G0 F4800 E334.0347
G0 X184.423 Y84.611 F7200
G1 X221.676 Y84.611 E335.8932 F2400
G1 X220.880 Y84.211 E335.9377
G1 X182.699 Y84.211 E337.8425
G0 F4800 E337.8425
G0 X180.976 Y83.811 F7200
G1 X219.952 Y83.811 E339.7870 F2400
G1 X219.024 Y83.411 E339.8374
G1 X178.457 Y83.411 E341.8613
G0 F4800 E340.8613
G0 X102.361 Y91.011 F7200
G0 F4800 E341.8613
G1 X74.653 Y91.011 E343.2437 F2400
G1 X73.990 Y91.411 E343.2823
G1 X101.300 Y91.411 E344.6448
G1 X100.372 Y91.811 E344.6952
G1 X73.328 Y91.811 E346.0445
G1 X72.665 Y92.211 E346.0831
G1 X99.312 Y92.211 E347.4125
G1 X98.384 Y92.611 E347.4630
G1 X72.002 Y92.611 E348.7792
G0 F4800 E347.7792
G0 X62.987 Y98.611 F7200
G0 F4800 E348.7792
G1 X85.524 Y98.611 E349.9035 F2400
G1 X86.320 Y98.211 E349.9480
G1 X63.517 Y98.211 E351.0856
G1 X64.048 Y97.811 E351.1187
G1 X87.115 Y97.811 E352.2696
G1 X87.910 Y97.411 E352.3140
G1 X64.710 Y97.411 E353.4715
G1 X65.241 Y97.011 E353.5046
G1 X88.706 Y97.011 E354.6753
G1 X89.501 Y96.611 E354.7197
G1 X65.771 Y96.611 E355.9036
G1 X66.434 Y96.211 E355.9423
G1 X90.429 Y96.211 E357.1394
G1 X91.225 Y95.811 E357.1839
G1 X66.964 Y95.811 E358.3942
G1 X67.494 Y95.411 E358.4274
G1 X92.020 Y95.411 E359.6510
G1 X92.816 Y95.011 E359.6954
G1 X68.025 Y95.011 E360.9322
G1 X68.688 Y94.611 E360.9708
G1 X93.611 Y94.611 E362.2143
G1 X94.406 Y94.211 E362.2587
G1 X69.350 Y94.211 E363.5088
G1 X70.013 Y93.811 E363.5474
G1 X95.334 Y93.811 E364.8107
G1 X96.262 Y93.411 E364.8611
G1 X70.676 Y93.411 E366.1376
G1 X71.339 Y93.011 E366.1763
G1 X97.323 Y93.011 E367.4726



; ------------------------------------
; Raft Layer #4
; ------------------------------------
M106 S255 ;set fan speed
G21 ; mm
G90 ; abs
G92 E0 ;reset extr
G0 F1200 Z1.400
;segType:Raft
G0 F4800 E-1.0000
G0 F1200 Z3.400
G0 X40.931 Y122.013 F7200
G0 F1200 Z1.400
G0 F4800 E0.0000
G1 X40.931 Y117.373 E0.1543 F2400
G1 X41.331 Y116.975 E0.1731
G1 X41.331 Y122.410 E0.3539
G1 X41.731 Y122.808 E0.3726
G1 X41.731 Y116.577 E0.5799
G1 X42.131 Y116.179 E0.5986
G1 X42.131 Y123.206 E0.8323
G1 X42.531 Y123.603 E0.8511
G1 X42.531 Y115.782 E1.1112
G1 X42.931 Y115.384 E1.1300
G1 X42.931 Y124.001 E1.4166
G1 X43.331 Y124.399 E1.4354
G1 X43.331 Y114.986 E1.7484
G1 X43.731 Y114.721 E1.7644
G1 X43.731 Y124.797 E2.0995
G1 X44.131 Y125.194 E2.1183
G1 X44.131 Y114.323 E2.4798
G1 X44.531 Y113.926 E2.4986
G1 X44.531 Y125.592 E2.8866
G1 X44.931 Y125.725 E2.9006
G1 X44.931 Y113.528 E3.3063
G1 X45.331 Y113.130 E3.3251
G1 X45.331 Y125.725 E3.7440
G1 X45.731 Y125.725 E3.7573
G1 X45.731 Y112.865 E4.1850
G1 X46.131 Y112.467 E4.2037
G1 X46.131 Y125.725 E4.6447
G1 X46.531 Y125.725 E4.6580
G1 X46.531 Y112.070 E5.1121
G1 X46.931 Y111.672 E5.1309
G1 X46.931 Y125.725 E5.5983
G1 X47.331 Y125.725 E5.6116
G1 X47.331 Y111.274 E6.0922
G1 X47.731 Y111.009 E6.1082
G1 X47.731 Y125.725 E6.5976
G1 X48.131 Y125.725 E6.6109
G1 X48.131 Y110.611 E7.1136
G1 X48.531 Y110.214 E7.1323
G1 X48.531 Y125.725 E7.6482
G1 X48.931 Y125.459 E7.6642
G1 X48.931 Y109.816 E8.1845
G1 X49.331 Y109.418 E8.2033
G1 X49.331 Y125.062 E8.7236
G1 X49.731 Y124.664 E8.7423
G1 X49.731 Y109.153 E9.2582
G1 X50.131 Y108.755 E9.2770
G1 X50.131 Y124.266 E9.7929
G1 X50.531 Y124.001 E9.8088
G1 X50.531 Y108.358 E10.3291
G1 X50.931 Y108.093 E10.3451
G1 X50.931 Y123.603 E10.8610
G1 X51.331 Y123.206 E10.8798
G1 X51.331 Y107.695 E11.3957
G1 X51.731 Y107.430 E11.4116
G1 X51.731 Y122.808 E11.9231
G1 X52.131 Y122.410 E11.9419
G1 X52.131 Y107.032 E12.4534
G1 X52.531 Y106.767 E12.4693
G1 X52.531 Y122.145 E12.9808
G1 X52.931 Y121.747 E12.9996
G1 X52.931 Y106.369 E13.5111
G1 X53.331 Y106.104 E13.5270
G1 X53.331 Y121.350 E14.0341
G1 X53.731 Y120.952 E14.0529
G1 X53.731 Y105.839 E14.5555
G1 X54.131 Y105.441 E14.5743
G1 X54.131 Y120.687 E15.0814
G1 X54.531 Y120.289 E15.1001
G1 X54.531 Y105.176 E15.6028
G1 X54.931 Y104.778 E15.6215
G1 X54.931 Y119.891 E16.1242
G1 X55.331 Y119.494 E16.1430
G1 X55.331 Y104.513 E16.6412
G1 X55.731 Y104.115 E16.6600
G1 X55.731 Y119.096 E17.1583
G1 X56.131 Y118.831 E17.1742
G1 X56.131 Y103.850 E17.6725
G1 X56.531 Y103.453 E17.6912
G1 X56.531 Y118.433 E18.1895
G1 X56.931 Y118.035 E18.2083
G1 X56.931 Y103.187 E18.7021
G1 X57.331 Y102.790 E18.7209
G1 X57.331 Y117.770 E19.2191
G1 X57.731 Y117.505 E19.2351
G1 X57.731 Y102.525 E19.7333
G1 X58.131 Y102.259 E19.7493
G1 X58.131 Y117.107 E20.2431
G1 X58.531 Y116.842 E20.2591
G1 X58.531 Y101.862 E20.7574
G1 X58.931 Y101.597 E20.7733
G1 X58.931 Y116.445 E21.2672
G1 X59.331 Y116.179 E21.2831
G1 X59.331 Y101.199 E21.7814
G1 X59.731 Y100.934 E21.7974
G1 X59.731 Y115.914 E22.2956
G1 X60.131 Y115.517 E22.3144
G1 X60.131 Y100.669 E22.8082
G1 X60.531 Y100.403 E22.8242
G1 X60.531 Y115.251 E23.3180
G1 X60.931 Y114.854 E23.3368
G1 X60.931 Y100.138 E23.8262
G1 X61.331 Y99.741 E23.8450
G1 X61.331 Y114.456 E24.3344
G1 X61.731 Y114.191 E24.3504
G1 X61.731 Y99.475 E24.8398
G1 X62.131 Y99.210 E24.8558
G1 X62.131 Y113.793 E25.3408
G1 X62.531 Y113.528 E25.3568
G1 X62.531 Y98.945 E25.8418
G1 X62.931 Y98.680 E25.8578
G1 X62.931 Y113.130 E26.3384
G1 X63.331 Y112.865 E26.3544
G1 X63.331 Y98.415 E26.8350
G1 X63.731 Y98.150 E26.8509
G1 X63.731 Y112.600 E27.3316
G1 X64.131 Y112.202 E27.3503
G1 X64.131 Y97.752 E27.8309
G1 X64.531 Y97.487 E27.8469
G1 X64.531 Y111.937 E28.3275
G1 X64.931 Y111.539 E28.3463
G1 X64.931 Y97.222 E28.8225
G1 X65.331 Y96.957 E28.8385
G1 X65.331 Y111.274 E29.3147
G1 X65.731 Y111.009 E29.3306
G1 X65.731 Y96.691 E29.8068
G1 X66.131 Y96.426 E29.8228
G1 X66.131 Y110.744 E30.2990
G1 X66.531 Y110.479 E30.3150
G1 X66.531 Y96.161 E30.7912
G1 X66.931 Y95.896 E30.8071
G1 X66.931 Y110.214 E31.2834
G1 X67.331 Y109.949 E31.2993
G1 X67.331 Y95.631 E31.7755
G1 X67.731 Y95.366 E31.7915
G1 X67.731 Y109.683 E32.2677
G1 X68.131 Y109.418 E32.2837
G1 X68.131 Y94.968 E32.7643
G1 X68.531 Y94.835 E32.7783
G1 X68.531 Y109.021 E33.2501
G1 X68.931 Y108.755 E33.2661
G1 X68.931 Y94.570 E33.7379
G1 X69.331 Y94.305 E33.7538
G1 X69.331 Y108.490 E34.2256
G1 X69.731 Y108.225 E34.2416
G1 X69.731 Y94.040 E34.7134
G1 X70.131 Y93.775 E34.7293
G1 X70.131 Y107.960 E35.2011
G1 X70.531 Y107.695 E35.2171
G1 X70.531 Y93.642 E35.6845
G1 X70.931 Y93.377 E35.7005
G1 X70.931 Y107.430 E36.1678
G1 X71.331 Y107.165 E36.1838
G1 X71.331 Y93.112 E36.6512
G1 X71.731 Y92.847 E36.6672
G1 X71.731 Y106.899 E37.1346
G1 X72.131 Y106.634 E37.1505
G1 X72.131 Y92.582 E37.6179
G1 X72.531 Y92.449 E37.6319
G1 X72.531 Y106.369 E38.0949
G1 X72.931 Y106.104 E38.1109
G1 X72.931 Y92.184 E38.5738
G1 X73.331 Y91.919 E38.5898
G1 X73.331 Y105.839 E39.0528
G1 X73.731 Y105.574 E39.0688
G1 X73.731 Y91.654 E39.5317
G1 X74.131 Y91.388 E39.5477
G1 X74.131 Y105.309 E40.0107
G1 X74.531 Y105.043 E40.0266
G1 X74.531 Y91.256 E40.4852
G1 X74.931 Y90.991 E40.5012
G1 X74.931 Y104.778 E40.9597
G1 X75.331 Y104.513 E40.9757
G1 X75.331 Y90.726 E41.4343
G1 X75.731 Y90.460 E41.4502
G1 X75.731 Y104.248 E41.9088
G1 X76.131 Y103.983 E41.9248
G1 X76.131 Y90.195 E42.3833
G1 X76.531 Y90.063 E42.3974
G1 X76.531 Y103.718 E42.8515
G1 X76.931 Y103.585 E42.8655
G1 X76.931 Y89.798 E43.3241
G1 X77.331 Y89.532 E43.3401
G1 X77.331 Y103.320 E43.7986
G1 X77.731 Y103.055 E43.8146
G1 X77.731 Y89.267 E44.2732
G1 X78.131 Y89.135 E44.2872
G1 X78.131 Y102.790 E44.7413
G1 X78.531 Y102.657 E44.7554
G1 X78.531 Y88.870 E45.2139
G1 X78.931 Y88.737 E45.2280
G1 X78.931 Y102.392 E45.6821
G1 X79.331 Y102.127 E45.6981
G1 X79.331 Y88.472 E46.1522
G1 X79.731 Y88.339 E46.1663
G1 X79.731 Y101.862 E46.6160
G1 X80.131 Y101.729 E46.6300
G1 X80.131 Y88.074 E47.0842
G1 X80.531 Y87.942 E47.0982
G1 X80.531 Y101.464 E47.5480
G1 X80.931 Y101.199 E47.5639
G1 X80.931 Y87.676 E48.0137
G1 X81.331 Y87.544 E48.0277
G1 X81.331 Y101.066 E48.4774
G1 X81.731 Y100.801 E48.4934
G1 X81.731 Y87.279 E48.9432
G1 X82.131 Y87.146 E48.9572
G1 X82.131 Y100.536 E49.4025
G1 X82.531 Y100.271 E49.4185
G1 X82.531 Y86.881 E49.8638
G1 X82.931 Y86.748 E49.8779
G1 X82.931 Y100.138 E50.3232
G1 X83.331 Y99.873 E50.3392
G1 X83.331 Y86.483 E50.7845
G1 X83.731 Y86.351 E50.7985
G1 X83.731 Y99.608 E51.2395
G1 X84.131 Y99.343 E51.2554
G1 X84.131 Y86.086 E51.6964
G1 X84.531 Y85.820 E51.7123
G1 X84.531 Y99.078 E52.1533
G1 X84.931 Y98.813 E52.1692
G1 X84.931 Y85.555 E52.6102
G1 X85.331 Y85.423 E52.6242
G1 X85.331 Y98.680 E53.0651
G1 X85.731 Y98.547 E53.0791
G1 X85.731 Y85.158 E53.5245
G1 X86.131 Y85.025 E53.5385
G1 X86.131 Y98.282 E53.9794
G1 X86.531 Y98.150 E53.9934
G1 X86.531 Y84.760 E54.4388
G1 X86.931 Y84.627 E54.4528
G1 X86.931 Y97.885 E54.8937
G1 X87.331 Y97.752 E54.9077
G1 X87.331 Y84.362 E55.3531
G1 X87.731 Y84.230 E55.3671
G1 X87.731 Y97.487 E55.8080
G1 X88.131 Y97.354 E55.8221
G1 X88.131 Y84.097 E56.2630
G1 X88.531 Y83.832 E56.2790
G1 X88.531 Y97.089 E56.7199
G1 X88.931 Y96.957 E56.7339
G1 X88.931 Y83.699 E57.1748
G1 X89.331 Y83.567 E57.1889
G1 X89.331 Y96.691 E57.6254
G1 X89.731 Y96.559 E57.6394
G1 X89.731 Y83.434 E58.0759
G1 X90.131 Y83.169 E58.0919
G1 X90.131 Y96.426 E58.5328
G1 X90.531 Y96.161 E58.5488
G1 X90.531 Y83.036 E58.9853
G1 X90.931 Y82.904 E58.9993
G1 X90.931 Y96.029 E59.4359
G1 X91.331 Y95.763 E59.4518
G1 X91.331 Y82.771 E59.8839
G1 X91.731 Y82.506 E59.8999
G1 X91.731 Y95.631 E60.3364
G1 X92.131 Y95.366 E60.3524
G1 X92.131 Y82.374 E60.7845
G1 X92.531 Y82.241 E60.7985
G1 X92.531 Y95.233 E61.2306
G1 X92.931 Y94.968 E61.2466
G1 X92.931 Y81.976 E61.6787
G1 X93.331 Y81.843 E61.6927
G1 X93.331 Y94.835 E62.1249
G1 X93.731 Y94.570 E62.1408
G1 X93.731 Y81.711 E62.5685
G1 X94.131 Y81.578 E62.5825
G1 X94.131 Y94.438 E63.0102
G1 X94.531 Y94.172 E63.0262
G1 X94.531 Y81.313 E63.4539
G1 X94.931 Y81.180 E63.4679
G1 X94.931 Y94.040 E63.8956
G1 X95.331 Y93.907 E63.9096
G1 X95.331 Y81.048 E64.3374
G1 X95.731 Y80.915 E64.3514
G1 X95.731 Y93.642 E64.7747
G1 X96.131 Y93.510 E64.7887
G1 X96.131 Y80.650 E65.2164
G1 X96.531 Y80.518 E65.2304
G1 X96.531 Y93.377 E65.6581
G1 X96.931 Y93.244 E65.6721
G1 X96.931 Y80.385 E66.0999
G1 X97.331 Y80.252 E66.1139
G1 X97.331 Y93.112 E66.5416
G1 X97.731 Y92.979 E66.5556
G1 X97.731 Y79.987 E66.9877
G1 X98.131 Y79.987 E67.0010
G1 X98.131 Y92.714 E67.4243
G1 X98.531 Y92.582 E67.4383
G1 X98.531 Y79.855 E67.8616
G1 X98.931 Y79.590 E67.8776
G1 X98.931 Y92.449 E68.3053
G1 X99.331 Y92.316 E68.3193
G1 X99.331 Y79.457 E68.7470
G1 X99.731 Y79.324 E68.7611
G1 X99.731 Y92.184 E69.1888
G1 X100.131 Y91.919 E69.2047
G1 X100.131 Y79.192 E69.6280
G1 X100.531 Y79.059 E69.6420
G1 X100.531 Y91.786 E70.0653
G1 X100.931 Y91.654 E70.0794
G1 X100.931 Y78.927 E70.5027
G1 X101.331 Y78.794 E70.5167
G1 X101.331 Y91.521 E70.9400
G1 X101.731 Y91.388 E70.9540
G1 X101.731 Y78.662 E71.3773
G1 X102.131 Y78.529 E71.3913
G1 X102.131 Y91.256 E71.8146
G1 X102.531 Y90.991 E71.8306
G1 X102.531 Y78.396 E72.2495
G1 X102.931 Y78.264 E72.2635
G1 X102.931 Y90.858 E72.6824
G1 X103.331 Y90.726 E72.6964
G1 X103.331 Y78.131 E73.1153
G1 X103.731 Y77.999 E73.1293
G1 X103.731 Y90.593 E73.5482
G1 X104.131 Y90.460 E73.5622
G1 X104.131 Y77.866 E73.9811
G1 X104.531 Y77.734 E73.9951
G1 X104.531 Y90.195 E74.4096
G1 X104.931 Y90.063 E74.4236
G1 X104.931 Y77.601 E74.8381
G1 X105.331 Y77.468 E74.8521
G1 X105.331 Y89.930 E75.2666
G1 X105.731 Y89.798 E75.2806
G1 X105.731 Y77.336 E75.6951
G1 X106.131 Y77.203 E75.7091
G1 X106.131 Y89.665 E76.1236
G1 X106.531 Y89.532 E76.1376
G1 X106.531 Y77.071 E76.5521
G1 X106.931 Y76.938 E76.5661
G1 X106.931 Y89.400 E76.9806
G1 X107.331 Y89.267 E76.9946
G1 X107.331 Y76.806 E77.4091
G1 X107.731 Y76.673 E77.4231
G1 X107.731 Y89.135 E77.8376
G1 X108.131 Y89.002 E77.8516
G1 X108.131 Y76.540 E78.2661
G1 X108.531 Y76.408 E78.2801
G1 X108.531 Y88.870 E78.6946
G1 X108.931 Y88.737 E78.7086
G1 X108.931 Y76.275 E79.1231
G1 X109.331 Y76.143 E79.1371
G1 X109.331 Y88.604 E79.5516
G1 X109.731 Y88.472 E79.5656
G1 X109.731 Y76.143 E79.9756
G1 X110.131 Y76.010 E79.9897
G1 X110.131 Y88.339 E80.3997
G1 X110.531 Y88.207 E80.4137
G1 X110.531 Y75.878 E80.8238
G1 X110.931 Y75.745 E80.8378
G1 X110.931 Y88.074 E81.2479
G1 X111.331 Y87.942 E81.2619
G1 X111.331 Y75.745 E81.6676
G1 X111.731 Y75.612 E81.6816
G1 X111.731 Y87.942 E82.0917
G1 X112.131 Y87.809 E82.1057
G1 X112.131 Y75.480 E82.5158
G1 X112.531 Y75.347 E82.5298
G1 X112.531 Y87.676 E82.9398
G1 X112.931 Y87.544 E82.9539
G1 X112.931 Y75.347 E83.3595
G1 X113.331 Y75.215 E83.3735
G1 X113.331 Y87.411 E83.7792
G1 X113.731 Y87.279 E83.7932
G1 X113.731 Y75.082 E84.1989
G1 X114.131 Y74.950 E84.2129
G1 X114.131 Y87.146 E84.6186
G1 X114.531 Y87.014 E84.6326
G1 X114.531 Y74.817 E85.0382
G1 X114.931 Y74.817 E85.0515
G1 X114.931 Y86.881 E85.4528
G1 X115.331 Y86.748 E85.4668
G1 X115.331 Y74.684 E85.8681
G1 X115.731 Y74.552 E85.8821
G1 X115.731 Y86.616 E86.2833
G1 X116.131 Y86.483 E86.2973
G1 X116.131 Y74.419 E86.6986
G1 X116.531 Y74.419 E86.7119
G1 X116.531 Y86.351 E87.1087
G1 X116.931 Y86.351 E87.1221
G1 X116.931 Y74.287 E87.5233
G1 X117.331 Y74.154 E87.5373
G1 X117.331 Y86.218 E87.9386
G1 X117.731 Y86.086 E87.9526
G1 X117.731 Y74.022 E88.3538
G1 X118.131 Y74.022 E88.3671
G1 X118.131 Y86.086 E88.7684
G1 X118.531 Y85.953 E88.7824
G1 X118.531 Y73.889 E89.1837
G1 X118.931 Y73.756 E89.1977
G1 X118.931 Y85.820 E89.5989
G1 X119.331 Y85.820 E89.6122
G1 X119.331 Y73.624 E90.0179
G1 X119.731 Y73.624 E90.0312
G1 X119.731 Y85.688 E90.4325
G1 X120.131 Y85.555 E90.4465
G1 X120.131 Y73.491 E90.8477
G1 X120.531 Y73.359 E90.8617
G1 X120.531 Y85.555 E91.2674
G1 X120.931 Y85.423 E91.2814
G1 X120.931 Y73.359 E91.6827
G1 X121.331 Y73.226 E91.6967
G1 X121.331 Y85.290 E92.0979
G1 X121.731 Y85.158 E92.1120
G1 X121.731 Y73.226 E92.5088
G1 X122.131 Y73.094 E92.5228
G1 X122.131 Y85.158 E92.9241
G1 X122.531 Y85.025 E92.9381
G1 X122.531 Y73.094 E93.3349
G1 X122.931 Y72.961 E93.3489
G1 X122.931 Y84.892 E93.7458
G1 X123.331 Y84.892 E93.7591
G1 X123.331 Y72.961 E94.1559
G1 X123.731 Y72.828 E94.1699
G1 X123.731 Y84.760 E94.5668
G1 X124.131 Y84.627 E94.5808
G1 X124.131 Y72.828 E94.9732
G1 X124.531 Y72.696 E94.9873
G1 X124.531 Y84.627 E95.3841
G1 X124.931 Y84.495 E95.3981
G1 X124.931 Y72.696 E95.7905
G1 X125.331 Y72.563 E95.8046
G1 X125.331 Y84.362 E96.1970
G1 X125.731 Y84.362 E96.2103
G1 X125.731 Y72.431 E96.6071
G1 X126.131 Y72.431 E96.6204
G1 X126.131 Y84.230 E97.0129
G1 X126.531 Y84.097 E97.0269
G1 X126.531 Y72.298 E97.4193
G1 X126.931 Y72.298 E97.4326
G1 X126.931 Y83.964 E97.8207
G1 X127.331 Y83.964 E97.8340
G1 X127.331 Y72.166 E98.2264
G1 X127.731 Y72.166 E98.2397
G1 X127.731 Y83.832 E98.6277
G1 X128.131 Y83.832 E98.6410
G1 X128.131 Y72.033 E99.0335
G1 X128.531 Y72.033 E99.0468
G1 X128.531 Y83.699 E99.4348
G1 X128.931 Y83.699 E99.4481
G1 X128.931 Y71.900 E99.8405
G1 X129.331 Y71.900 E99.8538
G1 X129.331 Y83.567 E100.2419
G1 X129.731 Y83.567 E100.2552
G1 X129.731 Y71.768 E100.6476
G1 X130.131 Y71.768 E100.6609
G1 X130.131 Y83.434 E101.0489
G1 X130.531 Y83.434 E101.0622
G1 X130.531 Y71.635 E101.4547
G1 X130.931 Y71.635 E101.4680
G1 X130.931 Y83.302 E101.8560
G1 X131.331 Y83.302 E101.8693
G1 X131.331 Y71.503 E102.2617
G1 X131.731 Y71.503 E102.2750
G1 X131.731 Y83.169 E102.6631
G1 X132.131 Y83.169 E102.6764
G1 X132.131 Y71.503 E103.0644
G1 X132.531 Y71.370 E103.0784
G1 X132.531 Y83.036 E103.4664
G1 X132.931 Y83.036 E103.4797
G1 X132.931 Y71.370 E103.8678
G1 X133.331 Y71.370 E103.8811
G1 X133.331 Y83.036 E104.2691
G1 X133.731 Y82.904 E104.2831
G1 X133.731 Y71.238 E104.6711
G1 X134.131 Y71.238 E104.6844
G1 X134.131 Y82.904 E105.0725
G1 X134.531 Y82.771 E105.0865
G1 X134.531 Y71.238 E105.4701
G1 X134.931 Y71.105 E105.4841
G1 X134.931 Y82.771 E105.8721
G1 X135.331 Y82.639 E105.8861
G1 X135.331 Y71.105 E106.2698
G1 X135.731 Y71.105 E106.2831
G1 X135.731 Y82.639 E106.6667
G1 X136.131 Y82.506 E106.6807
G1 X136.131 Y70.972 E107.0643
G1 X136.531 Y70.972 E107.0776
G1 X136.531 Y82.506 E107.4612
G1 X136.931 Y82.374 E107.4752
G1 X136.931 Y70.972 E107.8544
G1 X137.331 Y70.840 E107.8685
G1 X137.331 Y82.374 E108.2521
G1 X137.731 Y82.241 E108.2661
G1 X137.731 Y70.840 E108.6453
G1 X138.131 Y70.840 E108.6586
G1 X138.131 Y82.241 E109.0378
G1 X138.531 Y82.241 E109.0511
G1 X138.531 Y70.707 E109.4347
G1 X138.931 Y70.707 E109.4480
G1 X138.931 Y82.108 E109.8272
G1 X139.331 Y82.108 E109.8405
G1 X139.331 Y70.707 E110.2197
G1 X139.731 Y70.575 E110.2338
G1 X139.731 Y82.108 E110.6174
G1 X140.131 Y81.976 E110.6314
G1 X140.131 Y70.575 E111.0106
G1 X140.531 Y70.575 E111.0239
G1 X140.531 Y81.976 E111.4031
G1 X140.931 Y81.976 E111.4164
G1 X140.931 Y70.442 E111.8000
G1 X141.331 Y70.442 E111.8133
G1 X141.331 Y81.976 E112.1969
G1 X141.731 Y81.843 E112.2110
G1 X141.731 Y70.442 E112.5902
G1 X142.131 Y70.442 E112.6035
G1 X142.131 Y81.843 E112.9827
G1 X142.531 Y81.843 E112.9960
G1 X142.531 Y70.442 E113.3752
G1 X142.931 Y70.442 E113.3885
G1 X142.931 Y81.843 E113.7677
G1 X143.331 Y81.843 E113.7810
G1 X143.331 Y70.442 E114.1602
G1 X143.731 Y70.442 E114.1735
G1 X143.731 Y81.711 E114.5483
G1 X144.131 Y81.711 E114.5616
G1 X144.131 Y70.310 E114.9408
G1 X144.531 Y70.310 E114.9541
G1 X144.531 Y81.711 E115.3333
G1 X144.931 Y81.711 E115.3466
G1 X144.931 Y70.310 E115.7258
G1 X145.331 Y70.310 E115.7391
G1 X145.331 Y81.578 E116.1139
G1 X145.731 Y81.578 E116.1272
G1 X145.731 Y70.310 E116.5020
G1 X146.131 Y70.310 E116.5153
G1 X146.131 Y81.578 E116.8901
G1 X146.531 Y81.578 E116.9034
G1 X146.531 Y70.310 E117.2782
G1 X146.931 Y70.310 E117.2915
G1 X146.931 Y81.578 E117.6663
G1 X147.331 Y81.446 E117.6803
G1 X147.331 Y70.310 E118.0507
G1 X147.731 Y70.177 E118.0647
G1 X147.731 Y81.446 E118.4395
G1 X148.131 Y81.446 E118.4528
G1 X148.131 Y70.177 E118.8276
G1 X148.531 Y70.177 E118.8409
G1 X148.531 Y81.446 E119.2157
G1 X148.931 Y81.313 E119.2297
G1 X148.931 Y70.177 E119.6001
G1 X149.331 Y70.177 E119.6134
G1 X149.331 Y81.313 E119.9838
G1 X149.731 Y81.313 E119.9971
G1 X149.731 Y70.177 E120.3675
G1 X150.131 Y70.177 E120.3808
G1 X150.131 Y81.313 E120.7512
G1 X150.531 Y81.180 E120.7652
G1 X150.531 Y70.177 E121.1312
G1 X150.931 Y70.177 E121.1445
G1 X150.931 Y81.180 E121.5105
G1 X151.331 Y81.180 E121.5238
G1 X151.331 Y70.177 E121.8897
G1 X151.731 Y70.044 E121.9038
G1 X151.731 Y81.180 E122.2741
G1 X152.131 Y81.180 E122.2875
G1 X152.131 Y70.044 E122.6578
G1 X152.531 Y70.044 E122.6711
G1 X152.531 Y81.180 E123.0415
G1 X152.931 Y81.180 E123.0548
G1 X152.931 Y70.044 E123.4252
G1 X153.331 Y70.044 E123.4385
G1 X153.331 Y81.180 E123.8089
G1 X153.731 Y81.180 E123.8222
G1 X153.731 Y70.044 E124.1926
G1 X154.131 Y70.044 E124.2059
G1 X154.131 Y81.180 E124.5763
G1 X154.531 Y81.180 E124.5896
G1 X154.531 Y70.044 E124.9600
G1 X154.931 Y70.044 E124.9733
G1 X154.931 Y81.180 E125.3437
G1 X155.331 Y81.180 E125.3570
G1 X155.331 Y70.044 E125.7274
G1 X155.731 Y70.044 E125.7407
G1 X155.731 Y81.180 E126.1110
G1 X156.131 Y81.180 E126.1244
G1 X156.131 Y70.044 E126.4947
G1 X156.531 Y70.044 E126.5080
G1 X156.531 Y81.180 E126.8784
G1 X156.931 Y81.180 E126.8917
G1 X156.931 Y70.044 E127.2621
G1 X157.331 Y70.177 E127.2761
G1 X157.331 Y81.180 E127.6421
G1 X157.731 Y81.180 E127.6554
G1 X157.731 Y70.177 E128.0214
G1 X158.131 Y70.177 E128.0347
G1 X158.131 Y81.313 E128.4051
G1 X158.531 Y81.313 E128.4184
G1 X158.531 Y70.177 E128.7888
G1 X158.931 Y70.177 E128.8021
G1 X158.931 Y81.313 E129.1725
G1 X159.331 Y81.313 E129.1858
G1 X159.331 Y70.177 E129.5562
G1 X159.731 Y70.177 E129.5695
G1 X159.731 Y81.313 E129.9399
G1 X160.131 Y81.446 E129.9539
G1 X160.131 Y70.177 E130.3287
G1 X160.531 Y70.177 E130.3420
G1 X160.531 Y81.446 E130.7168
G1 X160.931 Y81.446 E130.7301
G1 X160.931 Y70.310 E131.1005
G1 X161.331 Y70.310 E131.1138
G1 X161.331 Y81.446 E131.4842
G1 X161.731 Y81.578 E131.4982
G1 X161.731 Y70.310 E131.8730
G1 X162.131 Y70.310 E131.8863
G1 X162.131 Y81.578 E132.2611
G1 X162.531 Y81.578 E132.2744
G1 X162.531 Y70.310 E132.6492
G1 X162.931 Y70.310 E132.6625
G1 X162.931 Y81.578 E133.0373
G1 X163.331 Y81.711 E133.0514
G1 X163.331 Y70.310 E133.4306
G1 X163.731 Y70.310 E133.4439
G1 X163.731 Y81.711 E133.8231
G1 X164.131 Y81.711 E133.8364
G1 X164.131 Y70.310 E134.2156
G1 X164.531 Y70.442 E134.2296
G1 X164.531 Y81.711 E134.6044
G1 X164.931 Y81.711 E134.6177
G1 X164.931 Y70.442 E134.9925
G1 X165.331 Y70.442 E135.0059
G1 X165.331 Y81.843 E135.3851
G1 X165.731 Y81.843 E135.3984
G1 X165.731 Y70.442 E135.7776
G1 X166.131 Y70.442 E135.7909
G1 X166.131 Y81.843 E136.1701
G1 X166.531 Y81.843 E136.1834
G1 X166.531 Y70.442 E136.5626
G1 X166.931 Y70.442 E136.5759
G1 X166.931 Y81.976 E136.9595
G1 X167.331 Y81.976 E136.9728
G1 X167.331 Y70.442 E137.3565
G1 X167.731 Y70.575 E137.3705
G1 X167.731 Y81.976 E137.7497
G1 X168.131 Y81.976 E137.7630
G1 X168.131 Y70.575 E138.1422
G1 X168.531 Y70.575 E138.1555
G1 X168.531 Y81.976 E138.5347
G1 X168.931 Y82.108 E138.5488
G1 X168.931 Y70.707 E138.9280
G1 X169.331 Y70.707 E138.9413
G1 X169.331 Y82.108 E139.3205
G1 X169.731 Y82.108 E139.3338
G1 X169.731 Y70.707 E139.7130
G1 X170.131 Y70.840 E139.7270
G1 X170.131 Y82.241 E140.1062
G1 X170.531 Y82.241 E140.1195
G1 X170.531 Y70.840 E140.4988
G1 X170.931 Y70.840 E140.5121
G1 X170.931 Y82.374 E140.8957
G1 X171.331 Y82.374 E140.9090
G1 X171.331 Y70.972 E141.2882
G1 X171.731 Y70.972 E141.3015
G1 X171.731 Y82.506 E141.6851
G1 X172.131 Y82.506 E141.6984
G1 X172.131 Y70.972 E142.0821
G1 X172.531 Y70.972 E142.0954
G1 X172.531 Y82.639 E142.4834
G1 X172.931 Y82.639 E142.4967
G1 X172.931 Y71.105 E142.8803
G1 X173.331 Y71.105 E142.8936
G1 X173.331 Y82.639 E143.2772
G1 X173.731 Y82.771 E143.2913
G1 X173.731 Y71.105 E143.6793
G1 X174.131 Y71.238 E143.6933
G1 X174.131 Y82.771 E144.0769
G1 X174.531 Y82.904 E144.0910
G1 X174.531 Y71.238 E144.4790
G1 X174.931 Y71.238 E144.4923
G1 X174.931 Y82.904 E144.8803
G1 X175.331 Y83.036 E144.8944
G1 X175.331 Y71.370 E145.2824
G1 X175.731 Y71.370 E145.2957
G1 X175.731 Y83.036 E145.6837
G1 X176.131 Y83.169 E145.6977
G1 X176.131 Y71.370 E146.0902
G1 X176.531 Y71.503 E146.1042
G1 X176.531 Y83.169 E146.4922
G1 X176.931 Y83.302 E146.5063
G1 X176.931 Y71.503 E146.8987
G1 X177.331 Y71.635 E146.9127
G1 X177.331 Y83.302 E147.3007
G1 X177.731 Y83.434 E147.3148
G1 X177.731 Y71.635 E147.7072
G1 X178.131 Y71.635 E147.7205
G1 X178.131 Y83.434 E148.1129
G1 X178.531 Y83.567 E148.1269
G1 X178.531 Y71.768 E148.5194
G1 X178.931 Y71.768 E148.5327
G1 X178.931 Y83.567 E148.9251
G1 X179.331 Y83.567 E148.9384
G1 X179.331 Y71.900 E149.3265
G1 X179.731 Y71.900 E149.3398
G1 X179.731 Y83.699 E149.7322
G1 X180.131 Y83.699 E149.7455
G1 X180.131 Y72.033 E150.1335
G1 X180.531 Y72.033 E150.1468
G1 X180.531 Y83.832 E150.5393
G1 X180.931 Y83.832 E150.5526
G1 X180.931 Y72.166 E150.9406
G1 X181.331 Y72.166 E150.9539
G1 X181.331 Y83.964 E151.3463
G1 X181.731 Y84.097 E151.3603
G1 X181.731 Y72.298 E151.7528
G1 X182.131 Y72.298 E151.7661
G1 X182.131 Y84.097 E152.1585
G1 X182.531 Y84.230 E152.1725
G1 X182.531 Y72.431 E152.5650
G1 X182.931 Y72.563 E152.5790
G1 X182.931 Y84.362 E152.9714
G1 X183.331 Y84.495 E152.9855
G1 X183.331 Y72.563 E153.3823
G1 X183.731 Y72.696 E153.3963
G1 X183.731 Y84.495 E153.7888
G1 X184.131 Y84.627 E153.8028
G1 X184.131 Y72.696 E154.1996
G1 X184.531 Y72.828 E154.2136
G1 X184.531 Y84.760 E154.6105
G1 X184.931 Y84.760 E154.6238
G1 X184.931 Y72.828 E155.0206
G1 X185.331 Y72.961 E155.0346
G1 X185.331 Y84.892 E155.4315
G1 X185.731 Y85.025 E155.4455
G1 X185.731 Y72.961 E155.8467
G1 X186.131 Y73.094 E155.8608
G1 X186.131 Y85.025 E156.2576
G1 X186.531 Y85.158 E156.2716
G1 X186.531 Y73.226 E156.6685
G1 X186.931 Y73.226 E156.6818
G1 X186.931 Y85.290 E157.0830
G1 X187.331 Y85.290 E157.0963
G1 X187.331 Y73.359 E157.4932
G1 X187.731 Y73.359 E157.5065
G1 X187.731 Y85.423 E157.9077
G1 X188.131 Y85.555 E157.9217
G1 X188.131 Y73.491 E158.3230
G1 X188.531 Y73.491 E158.3363
G1 X188.531 Y85.688 E158.7419
G1 X188.931 Y85.688 E158.7552
G1 X188.931 Y73.624 E159.1565
G1 X189.331 Y73.624 E159.1698
G1 X189.331 Y85.820 E159.5754
G1 X189.731 Y85.953 E159.5895
G1 X189.731 Y73.756 E159.9951
G1 X190.131 Y73.889 E160.0091
G1 X190.131 Y85.953 E160.4104
G1 X190.531 Y86.086 E160.4244
G1 X190.531 Y74.022 E160.8257
G1 X190.931 Y74.022 E160.8390
G1 X190.931 Y86.218 E161.2446
G1 X191.331 Y86.218 E161.2579
G1 X191.331 Y74.154 E161.6592
G1 X191.731 Y74.287 E161.6732
G1 X191.731 Y86.351 E162.0744
G1 X192.131 Y86.483 E162.0885
G1 X192.131 Y74.419 E162.4897
G1 X192.531 Y74.552 E162.5037
G1 X192.531 Y86.616 E162.9050
G1 X192.931 Y86.748 E162.9190
G1 X192.931 Y74.552 E163.3247
G1 X193.331 Y74.684 E163.3387
G1 X193.331 Y86.881 E163.7443
G1 X193.731 Y87.014 E163.7584
G1 X193.731 Y74.817 E164.1640
G1 X194.131 Y74.950 E164.1780
G1 X194.131 Y87.014 E164.5793
G1 X194.531 Y87.146 E164.5933
G1 X194.531 Y74.950 E164.9990
G1 X194.931 Y75.082 E165.0130
G1 X194.931 Y87.279 E165.4186
G1 X195.331 Y87.411 E165.4327
G1 X195.331 Y75.215 E165.8383
G1 X195.731 Y75.347 E165.8523
G1 X195.731 Y87.544 E166.2580
G1 X196.131 Y87.676 E166.2720
G1 X196.131 Y75.480 E166.6777
G1 X196.531 Y75.480 E166.6910
G1 X196.531 Y87.809 E167.1010
G1 X196.931 Y87.942 E167.1151
G1 X196.931 Y75.612 E167.5251
G1 X197.331 Y75.745 E167.5391
G1 X197.331 Y88.074 E167.9492
G1 X197.731 Y88.207 E167.9632
G1 X197.731 Y75.878 E168.3733
G1 X198.131 Y75.878 E168.3866
G1 X198.131 Y88.339 E168.8011
G1 X198.531 Y88.472 E168.8151
G1 X198.531 Y76.010 E169.2296
G1 X198.931 Y76.143 E169.2436
G1 X198.931 Y88.604 E169.6581
G1 X199.331 Y88.737 E169.6721
G1 X199.331 Y76.275 E170.0866
G1 X199.731 Y76.408 E170.1006
G1 X199.731 Y88.870 E170.5151
G1 X200.131 Y88.870 E170.5284
G1 X200.131 Y76.408 E170.9428
G1 X200.531 Y76.673 E170.9588
G1 X200.531 Y89.135 E171.3733
G1 X200.931 Y89.267 E171.3873
G1 X200.931 Y76.806 E171.8018
G1 X201.331 Y76.938 E171.8158
G1 X201.331 Y89.400 E172.2303
G1 X201.731 Y89.532 E172.2443
G1 X201.731 Y77.071 E172.6588
G1 X202.131 Y77.203 E172.6728
G1 X202.131 Y89.532 E173.0829
G1 X202.531 Y89.665 E173.0969
G1 X202.531 Y77.336 E173.5069
G1 X202.931 Y77.468 E173.5210
G1 X202.931 Y89.798 E173.9310
G1 X203.331 Y90.063 E173.9470
G1 X203.331 Y77.601 E174.3615
G1 X203.731 Y77.734 E174.3755
G1 X203.731 Y90.195 E174.7900
G1 X204.131 Y90.328 E174.8040
G1 X204.131 Y77.866 E175.2185
G1 X204.531 Y77.999 E175.2325
G1 X204.531 Y90.460 E175.6470
G1 X204.931 Y90.593 E175.6610
G1 X204.931 Y78.131 E176.0755
G1 X205.331 Y78.264 E176.0895
G1 X205.331 Y90.726 E176.5040
G1 X205.731 Y90.991 E176.5199
G1 X205.731 Y78.396 E176.9388
G1 X206.131 Y78.529 E176.9528
G1 X206.131 Y91.123 E177.3717
G1 X206.531 Y91.256 E177.3857
G1 X206.531 Y78.662 E177.8046
G1 X206.931 Y78.794 E177.8186
G1 X206.931 Y91.388 E178.2375
G1 X207.331 Y91.521 E178.2515
G1 X207.331 Y78.927 E178.6704
G1 X207.731 Y79.059 E178.6845
G1 X207.731 Y91.786 E179.1077
G1 X208.131 Y91.919 E179.1218
G1 X208.131 Y79.192 E179.5451
G1 X208.531 Y79.324 E179.5591
G1 X208.531 Y92.051 E179.9824
G1 X208.931 Y92.184 E179.9964
G1 X208.931 Y79.457 E180.4197
G1 X209.331 Y79.590 E180.4337
G1 X209.331 Y92.316 E180.8570
G1 X209.731 Y92.449 E180.8710
G1 X209.731 Y79.722 E181.2943
G1 X210.131 Y79.855 E181.3084
G1 X210.131 Y92.714 E181.7361
G1 X210.531 Y92.847 E181.7501
G1 X210.531 Y79.987 E182.1778
G1 X210.931 Y80.120 E182.1918
G1 X210.931 Y92.979 E182.6195
G1 X211.331 Y93.112 E182.6335
G1 X211.331 Y80.252 E183.0612
G1 X211.731 Y80.518 E183.0772
G1 X211.731 Y93.244 E183.5005
G1 X212.131 Y93.510 E183.5165
G1 X212.131 Y80.650 E183.9442
G1 X212.531 Y80.783 E183.9582
G1 X212.531 Y93.642 E184.3859
G1 X212.931 Y93.775 E184.3999
G1 X212.931 Y80.915 E184.8276
G1 X213.331 Y81.180 E184.8436
G1 X213.331 Y93.907 E185.2669
G1 X213.731 Y94.172 E185.2828
G1 X213.731 Y81.313 E185.7105
G1 X214.131 Y81.446 E185.7246
G1 X214.131 Y94.305 E186.1523
G1 X214.531 Y94.438 E186.1663
G1 X214.531 Y81.578 E186.5940
G1 X214.931 Y81.843 E186.6099
G1 X214.931 Y94.703 E187.0376
G1 X215.331 Y94.835 E187.0517
G1 X215.331 Y81.976 E187.4794
G1 X215.731 Y82.108 E187.4934
G1 X215.731 Y95.100 E187.9255
G1 X216.131 Y95.233 E187.9395
G1 X216.131 Y82.241 E188.3716
G1 X216.531 Y82.506 E188.3876
G1 X216.531 Y95.498 E188.8197
G1 X216.931 Y95.631 E188.8337
G1 X216.931 Y82.639 E189.2659
G1 X217.331 Y82.771 E189.2799
G1 X217.331 Y95.896 E189.7164
G1 X217.731 Y96.029 E189.7304
G1 X217.731 Y82.904 E190.1670
G1 X218.131 Y83.169 E190.1829
G1 X218.131 Y96.161 E190.6150
G1 X218.531 Y96.426 E190.6310
G1 X218.531 Y83.302 E191.0675
G1 X218.931 Y83.434 E191.0815
G1 X218.931 Y96.559 E191.5181
G1 X219.331 Y96.824 E191.5340
G1 X219.331 Y83.567 E191.9750
G1 X219.731 Y83.832 E191.9909
G1 X219.731 Y96.957 E192.4274
G1 X220.131 Y97.222 E192.4434
G1 X220.131 Y83.964 E192.8843
G1 X220.531 Y84.097 E192.8984
G1 X220.531 Y97.354 E193.3393
G1 X220.931 Y97.619 E193.3552
G1 X220.931 Y84.230 E193.8006
G1 X221.331 Y84.495 E193.8165
G1 X221.331 Y97.752 E194.2575
G1 X221.731 Y98.017 E194.2734
G1 X221.731 Y84.627 E194.7188
G1 X222.131 Y84.892 E194.7347
G1 X222.131 Y98.150 E195.1757
G1 X222.530 Y98.282 E195.1897
G1 X222.530 Y85.025 E195.6306
G1 X222.931 Y85.290 E195.6466
G1 X222.931 Y98.547 E196.0875
G1 X223.330 Y98.680 E196.1016
G1 X223.330 Y85.423 E196.5425
G1 X223.730 Y85.688 E196.5584
G1 X223.730 Y99.078 E197.0038
G1 X224.130 Y99.210 E197.0178
G1 X224.130 Y85.953 E197.4587
G1 X224.530 Y86.086 E197.4728
G1 X224.530 Y99.475 E197.9181
G1 X224.930 Y99.741 E197.9341
G1 X224.930 Y86.351 E198.3794
G1 X225.330 Y86.483 E198.3934
G1 X225.330 Y99.873 E198.8388
G1 X225.730 Y100.138 E198.8547
G1 X225.730 Y86.748 E199.3001
G1 X226.130 Y86.881 E199.3141
G1 X226.130 Y100.403 E199.7639
G1 X226.530 Y100.669 E199.7798
G1 X226.530 Y87.146 E200.2296
G1 X226.930 Y87.279 E200.2436
G1 X226.930 Y100.801 E200.6934
G1 X227.330 Y101.066 E200.7093
G1 X227.330 Y87.544 E201.1591
G1 X227.730 Y87.809 E201.1750
G1 X227.730 Y101.331 E201.6248
G1 X228.130 Y101.597 E201.6407
G1 X228.130 Y87.942 E202.0949
G1 X228.530 Y88.207 E202.1109
G1 X228.530 Y101.729 E202.5606
G1 X228.930 Y101.994 E202.5766
G1 X228.930 Y88.339 E203.0307
G1 X229.330 Y88.604 E203.0467
G1 X229.330 Y102.259 E203.5009
G1 X229.730 Y102.525 E203.5168
G1 X229.730 Y88.737 E203.9754
G1 X230.130 Y89.002 E203.9914
G1 X230.130 Y102.657 E204.4455
G1 X230.530 Y102.922 E204.4615
G1 X230.530 Y89.135 E204.9201
G1 X230.930 Y89.400 E204.9360
G1 X230.930 Y103.187 E205.3946
G1 X231.330 Y103.453 E205.4105
G1 X231.330 Y89.665 E205.8691
G1 X231.730 Y89.798 E205.8831
G1 X231.730 Y103.585 E206.3417
G1 X232.130 Y103.850 E206.3577
G1 X232.130 Y90.063 E206.8162
G1 X232.530 Y90.328 E206.8322
G1 X232.530 Y104.115 E207.2908
G1 X232.930 Y104.248 E207.3048
G1 X232.930 Y90.593 E207.7590
G1 X233.330 Y90.858 E207.7749
G1 X233.330 Y104.513 E208.2291
G1 X233.730 Y104.778 E208.2450
G1 X233.730 Y90.991 E208.7036
G1 X234.130 Y91.256 E208.7196
G1 X234.130 Y105.043 E209.1782
G1 X234.530 Y105.309 E209.1941
G1 X234.530 Y91.521 E209.6527
G1 X234.930 Y91.786 E209.6686
G1 X234.930 Y105.574 E210.1272
G1 X235.330 Y105.839 E210.1432
G1 X235.330 Y92.051 E210.6018
G1 X235.730 Y92.184 E210.6158
G1 X235.730 Y106.104 E211.0788
G1 X236.130 Y106.502 E211.0975
G1 X236.130 Y92.449 E211.5649
G1 X236.530 Y92.714 E211.5809
G1 X236.530 Y106.767 E212.0483
G1 X236.930 Y107.032 E212.0642
G1 X236.930 Y92.979 E212.5316
G1 X237.330 Y93.244 E212.5476
G1 X237.330 Y107.297 E213.0150
G1 X237.730 Y107.562 E213.0309
G1 X237.730 Y93.377 E213.5027
G1 X238.130 Y93.642 E213.5187
G1 X238.130 Y107.827 E213.9905
G1 X238.530 Y108.093 E214.0065
G1 X238.530 Y93.907 E214.4783
G1 X238.930 Y94.172 E214.4942
G1 X238.930 Y108.358 E214.9660
G1 X239.330 Y108.623 E214.9820
G1 X239.330 Y94.305 E215.4582
G1 X239.730 Y94.570 E215.4742
G1 X239.730 Y108.888 E215.9504
G1 X240.130 Y109.153 E215.9663
G1 X240.130 Y94.835 E216.4425
G1 X240.530 Y95.100 E216.4585
G1 X240.530 Y109.418 E216.9347
G1 X240.930 Y109.683 E216.9507
G1 X240.930 Y95.366 E217.4269
G1 X241.330 Y95.631 E217.4429
G1 X241.330 Y109.949 E217.9191
G1 X241.730 Y110.214 E217.9350
G1 X241.730 Y95.896 E218.4112
G1 X242.130 Y96.161 E218.4272
G1 X242.130 Y110.479 E218.9034
G1 X242.530 Y110.744 E218.9194
G1 X242.530 Y96.559 E219.3912
G1 X242.930 Y96.824 E219.4071
G1 X242.930 Y111.009 E219.8789
G1 X243.330 Y111.407 E219.8977
G1 X243.330 Y97.089 E220.3739
G1 X243.730 Y97.354 E220.3899
G1 X243.730 Y111.672 E220.8661
G1 X244.130 Y112.070 E220.8849
G1 X244.130 Y97.619 E221.3655
G1 X244.530 Y97.885 E221.3814
G1 X244.530 Y112.335 E221.8621
G1 X244.930 Y112.600 E221.8780
G1 X244.930 Y98.150 E222.3586
G1 X245.330 Y98.415 E222.3746
G1 X245.330 Y112.998 E222.8596
G1 X245.730 Y113.263 E222.8756
G1 X245.730 Y98.680 E223.3606
G1 X246.130 Y99.078 E223.3794
G1 X246.130 Y113.661 E223.8644
G1 X246.530 Y113.926 E223.8804
G1 X246.530 Y99.343 E224.3654
G1 X246.930 Y99.608 E224.3814
G1 X246.930 Y114.191 E224.8664
G1 X247.330 Y114.721 E224.8885
G1 X247.330 Y100.006 E225.3779
G1 X247.730 Y100.271 E225.3939
G1 X247.730 Y114.986 E225.8833
G1 X248.130 Y115.251 E225.8993
G1 X248.130 Y100.536 E226.3887
G1 X248.530 Y100.801 E226.4047
G1 X248.530 Y115.649 E226.8986
G1 X248.930 Y115.914 E226.9145
G1 X248.930 Y101.066 E227.4084
G1 X249.330 Y101.331 E227.4243
G1 X249.330 Y116.312 E227.9226
G1 X249.730 Y116.577 E227.9386
G1 X249.730 Y101.729 E228.4324
G1 X250.130 Y101.994 E228.4484
G1 X250.130 Y116.842 E228.9422
G1 X250.530 Y117.240 E228.9610
G1 X250.530 Y102.259 E229.4592
G1 X250.930 Y102.657 E229.4780
G1 X250.930 Y117.505 E229.9719
G1 X251.330 Y117.903 E229.9906
G1 X251.330 Y102.922 E230.4889
G1 X251.730 Y103.320 E230.5077
G1 X251.730 Y118.168 E231.0015
G1 X252.130 Y118.566 E231.0203
G1 X252.130 Y103.585 E231.5185
G1 X252.530 Y103.983 E231.5373
G1 X252.530 Y118.963 E232.0356
G1 X252.930 Y119.229 E232.0515
G1 X252.930 Y104.248 E232.5498
G1 X253.330 Y104.646 E232.5686
G1 X253.330 Y119.626 E233.0668
G1 X253.730 Y120.024 E233.0856
G1 X253.730 Y104.911 E233.5883
G1 X254.130 Y105.176 E233.6042
G1 X254.130 Y120.422 E234.1113
G1 X254.530 Y120.819 E234.1301
G1 X254.530 Y105.574 E234.6371
G1 X254.930 Y105.839 E234.6531
G1 X254.930 Y121.085 E235.1602
G1 X255.330 Y121.482 E235.1790
G1 X255.330 Y106.237 E235.6860
G1 X255.730 Y106.502 E235.7020
G1 X255.730 Y121.880 E236.2135
G1 X256.130 Y122.278 E236.2323
G1 X256.130 Y106.899 E236.7437
G1 X256.530 Y107.165 E236.7597
G1 X256.530 Y122.675 E237.2756
G1 X256.930 Y122.941 E237.2916
G1 X256.930 Y107.430 E237.8075
G1 X257.330 Y107.827 E237.8262
G1 X257.330 Y123.338 E238.3421
G1 X257.730 Y123.736 E238.3609
G1 X257.730 Y108.093 E238.8812
G1 X258.130 Y108.490 E238.9000
G1 X258.130 Y124.134 E239.4203
G1 X258.530 Y124.531 E239.4391
G1 X258.530 Y108.888 E239.9594
G1 X258.930 Y109.153 E239.9753
G1 X258.930 Y124.797 E240.4956
G1 X259.330 Y125.194 E240.5144
G1 X259.330 Y109.551 E241.0347
G1 X259.730 Y109.949 E241.0535
G1 X259.730 Y125.592 E241.5738
G1 X260.130 Y125.725 E241.5878
G1 X260.130 Y110.346 E242.0993
G1 X260.530 Y110.744 E242.1181
G1 X260.530 Y125.725 E242.6163
G1 X260.930 Y125.725 E242.6296
G1 X260.930 Y111.142 E243.1147
G1 X261.330 Y111.407 E243.1306
G1 X261.330 Y125.725 E243.6068
G1 X261.730 Y125.725 E243.6201
G1 X261.730 Y111.805 E244.0831
G1 X262.130 Y112.202 E244.1019
G1 X262.130 Y125.725 E244.5516
G1 X262.530 Y125.725 E244.5649
G1 X262.530 Y112.600 E245.0014
G1 X262.930 Y112.998 E245.0202
G1 X262.930 Y125.725 E245.4435
G1 X263.330 Y125.725 E245.4568
G1 X263.330 Y113.263 E245.8713
G1 X263.730 Y113.661 E245.8900
G1 X263.730 Y125.725 E246.2913
G1 X264.130 Y125.459 E246.3072
G1 X264.130 Y114.058 E246.6865
G1 X264.530 Y114.456 E246.7052
G1 X264.530 Y125.062 E247.0580
G1 X264.930 Y124.664 E247.0767
G1 X264.930 Y114.854 E247.4030
G1 X265.330 Y115.119 E247.4190
G1 X265.330 Y124.266 E247.7232
G1 X265.730 Y123.869 E247.7420
G1 X265.730 Y115.517 E248.0198
G1 X266.130 Y115.914 E248.0386
G1 X266.130 Y123.471 E248.2899
G1 X266.530 Y123.073 E248.3086
G1 X266.530 Y116.312 E248.5335
G1 X266.930 Y116.710 E248.5523
G1 X266.930 Y122.675 E248.7507
G1 X267.330 Y122.278 E248.7695
G1 X267.330 Y117.107 E248.9414
G1 X267.730 Y117.505 E248.9602
G1 X267.730 Y121.880 E249.1057


; ------------------------------------
; Layer #0
; ------------------------------------
M106 S255 ;set fan speed
G21 ; mm
G90 ; abs
G92 E0 ;reset extr
G0 F1200 Z1.850
;segType:HShell
G0 F4800 E-1.0000
G0 F1200 Z1.850
G0 X254.767 Y113.458 F5400
G0 F4800 E0.0000
G1 X253.677 Y111.693 E0.0690 F2400
G0 X254.623 Y112.465 F5400
G1 X255.871 Y114.486 E0.1480 F2400
G0 F4800 E0.1480
G0 X256.671 Y114.258 F5400
G1 X258.081 Y116.542 E0.2373 F2400
G0 F4800 E0.2373
G0 X258.900 Y116.346 F5400
G1 X260.291 Y118.598 E0.3253 F2400
G0 F4800 E0.3253
G0 X261.129 Y118.434 F5400
G1 X262.059 Y119.941 E0.3842 F2400
;segType:Perimeter
G0 F4800 E0.3842
G0 X262.276 Y120.198 F5400
G1 X261.876 Y120.890 E0.4108 F1440
G1 X261.866 Y120.885 E0.4112
G1 X254.063 Y113.623 E0.7657
G1 X245.146 Y106.469 E1.1459
G1 X235.702 Y99.995 E1.5268
G1 X225.802 Y94.249 E1.9075
G1 X215.507 Y89.267 E2.2879
G1 X204.862 Y85.069 E2.6685
G1 X193.929 Y81.680 E3.0492
G1 X182.777 Y79.124 E3.4297
G1 X171.460 Y77.410 E3.8104
G1 X160.051 Y76.552 E4.1909
G1 X148.609 Y76.552 E4.5715
G1 X137.195 Y77.411 E4.9522
