; GCode generated by CraftWare

G28 X0 Y0
G28 Z0

M190 S60 ;set bed temp (wait)
M109 S215 ;set head temp (wait)
; ------------------------------------
; Layer #0
; ------------------------------------
G21 ; mm
G90 ; abs
G92 E0 ; reset extr
M106 S0
;segType:Skirt
G0 F4800 E-1.0000
G0 F300 Z0.200
G0 X100.134 Y118.176 F10800
G0 F4800 E0.0000
G1 X138.960 Y118.176 E1.2907 F600
G1 X139.147 Y118.237 E1.2973
G1 X139.147 Y123.378 E1.4682
G1 X141.760 Y125.948 E1.5900
G1 X141.947 Y126.131 E1.5987
G1 X142.195 Y126.254 E1.6079
G1 X159.617 Y126.254 E2.1871
G1 X159.928 Y126.070 E2.1991
G1 X162.542 Y123.500 E2.3209
G1 X162.542 Y76.990 E3.8671
G1 X162.480 Y76.561 E3.8815
G1 X159.742 Y73.869 E4.0091
G1 X142.320 Y73.869 E4.5883
G1 X141.885 Y73.930 E4.6029
G1 X139.147 Y76.622 E4.7306
G1 X139.147 Y81.763 E4.9015
G1 X138.711 Y81.824 E4.9161
G1 X100.134 Y81.824 E6.1986
G1 X97.396 Y84.517 E6.3262
G1 X97.334 Y84.945 E6.3406
G1 X97.334 Y115.299 E7.3497
G1 X97.520 Y115.605 E7.3616
G1 X100.134 Y118.176 E7.4834
G1 X100.134 Y118.543 E7.4956
G1 X138.711 Y118.543 E8.7781
G1 X138.721 Y118.614 E8.7805
G0 F4800 E7.7805
G0 X120.040 Y114.693 F10800
G0 X117.704 Y114.203
G0 X115.369 Y113.713
G0 F4800 E8.7805
;segType:HShell
G1 X143.254 Y86.287 E10.0807 F600
;segType:Perimeter
G0 X142.934 Y86.253 F10800
G1 X143.191 Y85.642 E10.1028 F360
G1 X143.191 Y77.697 E10.3669
G1 X158.666 Y77.697 E10.8813
G1 X158.666 Y122.303 E12.3642
G1 X143.191 Y122.303 E12.8786
G1 X143.191 Y114.303 E13.1446
G1 X101.334 Y114.303 E14.5361
G1 X101.334 Y85.697 E15.4871
G1 X143.135 Y85.697 E16.8767
G1 X143.757 Y85.444
;segType:Loop
G0 X143.592 Y84.686 F10800
G1 X143.592 Y78.090 E17.0960 F600
G1 X158.266 Y78.090 E17.5838
G1 X158.266 Y121.910 E19.0405
G1 X143.592 Y121.910 E19.5284
G1 X143.592 Y113.910 E19.7943
G1 X138.761 Y113.910 E19.9549
G1 X138.883 Y113.826 E19.9598
G1 X139.144 Y113.573 E19.9719
G1 X139.358 Y113.279 E19.9840
G1 X139.519 Y112.954 E19.9961
G1 X139.623 Y112.607 E20.0081
G1 X139.666 Y112.248 E20.0201
G1 X139.648 Y111.887 E20.0321
G1 X139.570 Y111.534 E20.0442
G1 X139.432 Y111.199 E20.0562
G1 X139.240 Y110.891 E20.0682
G1 X138.998 Y110.620 E20.0804
G1 X138.713 Y110.393 E20.0925
G1 X138.393 Y110.216 E20.1046
G1 X138.047 Y110.097 E20.1168
G1 X137.685 Y110.037 E20.1290
G1 X137.318 Y110.040 E20.1412
G1 X136.958 Y110.104 E20.1533
G1 X136.613 Y110.229 E20.1655
G1 X136.296 Y110.409 E20.1776
G1 X136.014 Y110.640 E20.1897
G1 X135.775 Y110.914 E20.2018
G1 X135.587 Y111.225 E20.2139
G1 X135.455 Y111.562 E20.2259
G1 X135.380 Y111.916 E20.2380
G1 X135.368 Y112.277 E20.2500
G1 X135.416 Y112.636 E20.2620
G1 X135.524 Y112.981 E20.2741
G1 X135.690 Y113.304 E20.2861
G1 X135.908 Y113.594 E20.2982
G1 X136.172 Y113.845 E20.3103
G1 X136.270 Y113.910 E20.3142
G1 X108.361 Y113.910 E21.2420
G1 X108.483 Y113.826 E21.2469
G1 X108.744 Y113.572 E21.2590
G1 X108.958 Y113.279 E21.2711
G1 X109.119 Y112.954 E21.2831
G1 X109.223 Y112.607 E21.2952
G1 X109.266 Y112.248 E21.3072
G1 X109.249 Y111.887 E21.3192
G1 X109.170 Y111.534 E21.3313
G1 X109.032 Y111.199 E21.3433
G1 X108.840 Y110.891 E21.3554
G1 X108.598 Y110.620 E21.3675
G1 X108.313 Y110.393 E21.3796
G1 X107.993 Y110.216 E21.3917
G1 X107.635 Y110.093 E21.4043
G1 X107.108 Y110.027 E21.4220
G1 X106.570 Y110.100 E21.4400
G1 X106.214 Y110.229 E21.4526
G1 X105.896 Y110.409 E21.4647
G1 X105.614 Y110.640 E21.4768
G1 X105.375 Y110.915 E21.4890
G1 X105.187 Y111.225 E21.5010
G1 X105.055 Y111.562 E21.5130
G1 X104.981 Y111.916 E21.5251
G1 X104.967 Y112.277 E21.5371
G1 X105.016 Y112.636 E21.5491
G1 X105.124 Y112.981 E21.5611
G1 X105.290 Y113.304 E21.5732
G1 X105.508 Y113.595 E21.5853
G1 X105.772 Y113.844 E21.5974
G1 X105.870 Y113.910 E21.6013
G1 X101.734 Y113.910 E21.7388
G1 X101.734 Y86.090 E22.6637
G1 X106.637 Y86.090 E22.8266
G1 X106.558 Y86.104 E22.8293
G1 X106.214 Y86.229 E22.8415
G1 X105.896 Y86.409 E22.8536
G1 X105.614 Y86.640 E22.8657
G1 X105.375 Y86.915 E22.8778
G1 X105.187 Y87.225 E22.8899
G1 X105.055 Y87.562 E22.9019
G1 X104.981 Y87.916 E22.9140
G1 X104.967 Y88.277 E22.9260
G1 X105.016 Y88.636 E22.9380
G1 X105.124 Y88.981 E22.9500
G1 X105.290 Y89.303 E22.9621
G1 X105.508 Y89.595 E22.9742
G1 X105.772 Y89.845 E22.9863
G1 X106.076 Y90.047 E22.9984
G1 X106.410 Y90.195 E23.0106
G1 X106.766 Y90.285 E23.0228
G1 X107.131 Y90.314 E23.0349
G1 X107.496 Y90.280 E23.0471
G1 X107.850 Y90.186 E23.0593
G1 X108.182 Y90.033 E23.0715
G1 X108.483 Y89.827 E23.0836
G1 X108.744 Y89.572 E23.0957
G1 X108.958 Y89.279 E23.1078
G1 X109.119 Y88.954 E23.1198
G1 X109.223 Y88.608 E23.1318
G1 X109.266 Y88.249 E23.1439
G1 X109.249 Y87.887 E23.1559
G1 X109.170 Y87.534 E23.1679
G1 X109.032 Y87.199 E23.1800
G1 X108.840 Y86.891 E23.1920
G1 X108.598 Y86.620 E23.2041
G1 X108.313 Y86.393 E23.2162
G1 X107.993 Y86.216 E23.2284
G1 X107.646 Y86.097 E23.2406
G1 X107.606 Y86.090 E23.2419
G1 X137.043 Y86.090 E24.2205
G1 X136.970 Y86.100 E24.2230
G1 X136.613 Y86.229 E24.2356
G1 X136.296 Y86.409 E24.2477
G1 X136.014 Y86.640 E24.2598
G1 X135.775 Y86.915 E24.2719
G1 X135.587 Y87.225 E24.2840
G1 X135.455 Y87.562 E24.2960
G1 X135.380 Y87.916 E24.3080
G1 X135.368 Y88.277 E24.3201
G1 X135.416 Y88.636 E24.3321
G1 X135.525 Y88.981 E24.3441
G1 X135.690 Y89.304 E24.3562
G1 X135.908 Y89.594 E24.3683
G1 X136.172 Y89.845 E24.3804
G1 X136.476 Y90.047 E24.3925
G1 X136.810 Y90.195 E24.4046
G1 X137.166 Y90.285 E24.4168
G1 X137.531 Y90.314 E24.4290
G1 X137.896 Y90.280 E24.4412
G1 X138.250 Y90.186 E24.4534
G1 X138.582 Y90.033 E24.4655
G1 X138.883 Y89.827 E24.4776
G1 X139.144 Y89.573 E24.4898
G1 X139.358 Y89.279 E24.5018
G1 X139.519 Y88.954 E24.5139
G1 X139.623 Y88.607 E24.5259
G1 X139.666 Y88.249 E24.5379
G1 X139.648 Y87.887 E24.5500
G1 X139.570 Y87.534 E24.5620
G1 X139.432 Y87.199 E24.5740
G1 X139.240 Y86.891 E24.5861
G1 X138.998 Y86.620 E24.5982
G1 X138.713 Y86.393 E24.6103
G1 X138.393 Y86.216 E24.6225
G1 X138.035 Y86.093 E24.6350
G1 X138.012 Y86.090 E24.6358
G1 X143.592 Y86.090 E24.8213
G1 X143.592 Y84.870 E24.8619
G0 X152.053 Y84.799 F10800
G1 X152.263 Y84.761 E24.8689 F600
G1 X152.733 Y84.758 E24.8846
G1 X153.196 Y84.834 E24.9002
G1 X153.640 Y84.988 E24.9158
G1 X154.050 Y85.214 E24.9313
G1 X154.416 Y85.505 E24.9469
G1 X154.729 Y85.855 E24.9625
G1 X154.974 Y86.249 E24.9779
G1 X155.151 Y86.680 E24.9934
G1 X155.252 Y87.134 E25.0089
G1 X155.274 Y87.598 E25.0243
G1 X155.219 Y88.059 E25.0398
G1 X155.086 Y88.505 E25.0552
G1 X154.878 Y88.922 E25.0707
G1 X154.604 Y89.299 E25.0862
G1 X154.269 Y89.625 E25.1018
G1 X153.882 Y89.890 E25.1173
G1 X153.456 Y90.086 E25.1329
G1 X153.003 Y90.207 E25.1485
G1 X152.535 Y90.250 E25.1641
G1 X152.067 Y90.213 E25.1797
G1 X151.612 Y90.098 E25.1954
G1 X151.183 Y89.908 E25.2109
G1 X150.793 Y89.648 E25.2265
G1 X150.453 Y89.327 E25.2421
G1 X150.174 Y88.954 E25.2576
G1 X149.961 Y88.540 E25.2730
G1 X149.822 Y88.096 E25.2885
G1 X149.760 Y87.635 E25.3040
G1 X149.776 Y87.170 E25.3194
G1 X149.872 Y86.715 E25.3349
G1 X150.042 Y86.282 E25.3503
G1 X150.284 Y85.884 E25.3658
G1 X150.551 Y85.575 E25.3794
G1 X150.946 Y85.238 E25.3967
G1 X151.359 Y85.003 E25.4125
G1 X151.800 Y84.844 E25.4281
G1 X151.870 Y84.832 E25.4304
;segType:Perimeter
G0 X150.560 Y85.454 F10800
G1 X151.228 Y85.532 E25.4528 F360
G1 X151.529 Y85.361 E25.4643
G1 X151.906 Y85.225 E25.4776
G1 X152.300 Y85.155 E25.4909
G1 X152.701 Y85.152 E25.5042
G1 X153.096 Y85.217 E25.5175
G1 X153.475 Y85.348 E25.5309
G1 X153.825 Y85.541 E25.5441
G1 X154.138 Y85.790 E25.5574
G1 X154.406 Y86.090 E25.5708
G1 X154.616 Y86.427 E25.5840
G1 X154.767 Y86.796 E25.5973
G1 X154.854 Y87.185 E25.6105
G1 X154.873 Y87.584 E25.6238
G1 X154.825 Y87.980 E25.6371
G1 X154.711 Y88.362 E25.6503
G1 X154.534 Y88.720 E25.6636
G1 X154.299 Y89.043 E25.6769
G1 X154.012 Y89.321 E25.6902
G1 X153.682 Y89.548 E25.7035
G1 X153.318 Y89.715 E25.7168
G1 X152.931 Y89.819 E25.7301
G1 X152.532 Y89.855 E25.7434
G1 X152.133 Y89.824 E25.7567
G1 X151.745 Y89.726 E25.7700
G1 X151.379 Y89.563 E25.7834
G1 X151.046 Y89.342 E25.7967
G1 X150.755 Y89.067 E25.8099
G1 X150.516 Y88.747 E25.8232
G1 X150.334 Y88.392 E25.8365
G1 X150.214 Y88.011 E25.8498
G1 X150.161 Y87.616 E25.8630
G1 X150.175 Y87.217 E25.8763
G1 X150.257 Y86.826 E25.8896
G1 X150.403 Y86.455 E25.9028
G1 X150.610 Y86.114 E25.9161
G1 X150.836 Y85.852 E25.9276
G1 X151.137 Y85.596 E25.9407
G1 X151.280 Y84.949
G0 X149.989 Y87.195 F10800
G0 X151.447 Y109.972
;segType:Loop
G1 X151.807 Y109.842 E25.9535 F600
G1 X152.263 Y109.762 E25.9689
G1 X152.741 Y109.758 E25.9848
G1 X153.197 Y109.835 E26.0001
G1 X153.649 Y109.991 E26.0160
G1 X154.051 Y110.214 E26.0313
G1 X154.416 Y110.505 E26.0468
G1 X154.727 Y110.853 E26.0623
G1 X154.974 Y111.249 E26.0778
G1 X155.151 Y111.680 E26.0933
G1 X155.252 Y112.133 E26.1088
G1 X155.274 Y112.598 E26.1242
G1 X155.219 Y113.059 E26.1397
G1 X155.086 Y113.505 E26.1551
G1 X154.878 Y113.922 E26.1706
G1 X154.604 Y114.299 E26.1861
G1 X154.268 Y114.625 E26.2017
G1 X153.882 Y114.890 E26.2173
G1 X153.456 Y115.086 E26.2328
G1 X153.003 Y115.207 E26.2484
G1 X152.535 Y115.250 E26.2640
G1 X152.067 Y115.213 E26.2797
G1 X151.612 Y115.098 E26.2953
G1 X151.183 Y114.908 E26.3109
G1 X150.811 Y114.660 E26.3257
G1 X150.455 Y114.329 E26.3419
G1 X150.174 Y113.954 E26.3575
G1 X149.961 Y113.540 E26.3730
G1 X149.822 Y113.096 E26.3884
G1 X149.760 Y112.635 E26.4039
G1 X149.776 Y112.170 E26.4193
G1 X149.872 Y111.715 E26.4348
G1 X150.042 Y111.282 E26.4503
G1 X150.284 Y110.883 E26.4658
G1 X150.590 Y110.531 E26.4813
G1 X150.952 Y110.234 E26.4968
G1 X151.278 Y110.049 E26.5093
G0 X150.235 Y111.374 F10800
G0 X149.974 Y112.625
G0 X150.357 Y113.844
G0 X150.711 Y114.685
;segType:Perimeter
G1 X150.722 Y114.023 E26.5313 F360
G1 X150.516 Y113.747 E26.5428
G1 X150.334 Y113.392 E26.5560
G1 X150.214 Y113.011 E26.5693
G1 X150.161 Y112.616 E26.5826
G1 X150.175 Y112.217 E26.5958
G1 X150.257 Y111.827 E26.6091
G1 X150.403 Y111.455 E26.6224
G1 X150.610 Y111.114 E26.6356
G1 X150.872 Y110.812 E26.6489
G1 X151.181 Y110.558 E26.6622
G1 X151.529 Y110.361 E26.6755
G1 X151.912 Y110.223 E26.6890
G1 X152.300 Y110.155 E26.7022
G1 X152.708 Y110.152 E26.7157
G1 X153.097 Y110.217 E26.7288
G1 X153.483 Y110.351 E26.7424
G1 X153.825 Y110.541 E26.7554
G1 X154.138 Y110.790 E26.7687
G1 X154.404 Y111.088 E26.7820
G1 X154.616 Y111.427 E26.7953
G1 X154.767 Y111.796 E26.8085
G1 X154.854 Y112.185 E26.8218
G1 X154.873 Y112.584 E26.8351
G1 X154.825 Y112.980 E26.8483
G1 X154.711 Y113.362 E26.8616
G1 X154.534 Y113.720 E26.8749
G1 X154.299 Y114.043 E26.8881
G1 X154.012 Y114.322 E26.9014
G1 X153.681 Y114.548 E26.9148
G1 X153.318 Y114.715 E26.9280
G1 X152.931 Y114.819 E26.9414
G1 X152.532 Y114.855 E26.9547
G1 X152.133 Y114.824 E26.9680
G1 X151.745 Y114.726 E26.9813
G1 X151.379 Y114.563 E26.9946
G1 X151.062 Y114.352 E27.0073
G1 X150.796 Y114.105 E27.0193
G1 X150.128 Y114.036
;segType:HShell
G0 X158.066 Y89.392 F10800
G1 X137.266 Y109.849 E27.9892 F600
;segType:Perimeter
G0 X137.250 Y109.956 F10800
G1 X137.709 Y110.440 E28.0114 F360
G1 X137.947 Y110.479 E28.0194
G1 X138.228 Y110.576 E28.0293
G1 X138.488 Y110.720 E28.0391
G1 X138.720 Y110.904 E28.0490
G1 X138.917 Y111.126 E28.0588
G1 X139.074 Y111.377 E28.0687
G1 X139.186 Y111.650 E28.0785
G1 X139.251 Y111.939 E28.0884
G1 X139.265 Y112.235 E28.0982
G1 X139.229 Y112.528 E28.1080
G1 X139.145 Y112.811 E28.1178
G1 X139.013 Y113.077 E28.1277
G1 X138.839 Y113.316 E28.1375
G1 X138.626 Y113.523 E28.1474
G1 X138.381 Y113.691 E28.1573
G1 X138.111 Y113.815 E28.1671
G1 X137.824 Y113.892 E28.1770
G1 X137.528 Y113.919 E28.1869
G1 X137.232 Y113.896 E28.1968
G1 X136.944 Y113.823 E28.2067
G1 X136.672 Y113.702 E28.2165
G1 X136.425 Y113.538 E28.2264
G1 X136.210 Y113.334 E28.2363
G1 X136.032 Y113.097 E28.2461
G1 X135.897 Y112.834 E28.2560
G1 X135.808 Y112.551 E28.2658
G1 X135.769 Y112.258 E28.2756
G1 X135.779 Y111.963 E28.2855
G1 X135.840 Y111.673 E28.2953
G1 X135.948 Y111.398 E28.3051
G1 X136.102 Y111.144 E28.3150
G1 X136.296 Y110.921 E28.3248
G1 X136.525 Y110.733 E28.3347
G1 X136.784 Y110.586 E28.3446
G1 X137.063 Y110.485 E28.3544
G1 X137.356 Y110.433 E28.3643
G1 X137.597 Y110.432 E28.3723
G1 X138.127 Y110.024
G0 X135.593 Y87.941 F10800
G0 X135.950 Y87.038
G0 X137.058 Y85.997
G1 X137.566 Y86.431 E28.3945 F360
G1 X137.943 Y86.478 E28.4072
G1 X138.228 Y86.576 E28.4172
G1 X138.488 Y86.720 E28.4271
G1 X138.720 Y86.905 E28.4369
G1 X138.917 Y87.126 E28.4468
G1 X139.074 Y87.377 E28.4566
G1 X139.186 Y87.650 E28.4665
G1 X139.251 Y87.939 E28.4763
G1 X139.265 Y88.235 E28.4861
G1 X139.229 Y88.528 E28.4960
G1 X139.145 Y88.812 E28.5058
G1 X139.013 Y89.077 E28.5156
G1 X138.839 Y89.316 E28.5255
G1 X138.626 Y89.523 E28.5354
G1 X138.381 Y89.691 E28.5452
G1 X138.112 Y89.815 E28.5551
G1 X137.824 Y89.892 E28.5650
G1 X137.528 Y89.919 E28.5748
G1 X137.232 Y89.896 E28.5847
G1 X136.944 Y89.823 E28.5946
G1 X136.672 Y89.702 E28.6045
G1 X136.425 Y89.538 E28.6144
G1 X136.210 Y89.334 E28.6242
G1 X136.032 Y89.097 E28.6341
G1 X135.897 Y88.834 E28.6439
G1 X135.808 Y88.551 E28.6538
G1 X135.769 Y88.258 E28.6636
G1 X135.779 Y87.963 E28.6734
G1 X135.840 Y87.673 E28.6832
G1 X135.948 Y87.398 E28.6931
G1 X136.102 Y87.145 E28.7029
G1 X136.296 Y86.921 E28.7128
G1 X136.525 Y86.733 E28.7226
G1 X136.784 Y86.586 E28.7325
G1 X137.067 Y86.484 E28.7425
G1 X137.455 Y86.432 E28.7555
G1 X137.958 Y85.993
G0 F4800 E27.7555
G0 X107.922 Y90.370 F10800
G0 F4800 E28.7555
;segType:HShell
G1 X101.934 Y96.259 E29.0347 F600
G1 X101.934 Y95.739
G1 X107.261 Y90.499 E29.2832
;segType:Perimeter
G0 X107.192 Y90.404 F10800
G1 X106.777 Y89.882 E29.3053 F360
G1 X106.544 Y89.823 E29.3133
G1 X106.272 Y89.702 E29.3232
G1 X106.025 Y89.538 E29.3331
G1 X105.809 Y89.334 E29.3429
G1 X105.632 Y89.097 E29.3528
G1 X105.497 Y88.833 E29.3626
G1 X105.408 Y88.551 E29.3724
G1 X105.369 Y88.258 E29.3823
G1 X105.379 Y87.963 E29.3921
G1 X105.440 Y87.673 E29.4019
G1 X105.548 Y87.398 E29.4118
G1 X105.702 Y87.145 E29.4216
G1 X105.896 Y86.921 E29.4315
G1 X106.125 Y86.733 E29.4413
G1 X106.384 Y86.586 E29.4512
G1 X106.663 Y86.485 E29.4611
G1 X106.956 Y86.433 E29.4710
G1 X107.253 Y86.431 E29.4809
G1 X107.547 Y86.479 E29.4907
G1 X107.827 Y86.576 E29.5006
G1 X108.088 Y86.720 E29.5105
G1 X108.320 Y86.904 E29.5203
G1 X108.517 Y87.126 E29.5302
G1 X108.674 Y87.377 E29.5401
G1 X108.786 Y87.650 E29.5499
G1 X108.851 Y87.939 E29.5597
G1 X108.865 Y88.235 E29.5696
G1 X108.830 Y88.528 E29.5794
G1 X108.745 Y88.812 E29.5892
G1 X108.613 Y89.077 E29.5991
G1 X108.439 Y89.316 E29.6089
G1 X108.226 Y89.523 E29.6188
G1 X107.981 Y89.691 E29.6286
G1 X107.712 Y89.815 E29.6385
G1 X107.424 Y89.892 E29.6484
G1 X107.128 Y89.919 E29.6583
G1 X106.888 Y89.900 E29.6663
G1 X106.324 Y90.261
;segType:HShell
G0 X130.570 Y86.287 F10800
G1 X106.559 Y109.903 E30.7859 F600
;segType:Perimeter
G0 X106.658 Y109.998 F10800
G1 X107.166 Y110.431 E30.8081 F360
G1 X107.543 Y110.478 E30.8207
G1 X107.827 Y110.576 E30.8307
G1 X108.088 Y110.720 E30.8406
G1 X108.320 Y110.904 E30.8505
G1 X108.517 Y111.126 E30.8603
G1 X108.674 Y111.377 E30.8702
G1 X108.786 Y111.650 E30.8800
G1 X108.851 Y111.939 E30.8898
G1 X108.865 Y112.235 E30.8997
G1 X108.830 Y112.528 E30.9095
G1 X108.745 Y112.812 E30.9194
G1 X108.613 Y113.077 E30.9292
G1 X108.439 Y113.316 E30.9390
G1 X108.226 Y113.523 E30.9489
G1 X107.981 Y113.691 E30.9588
G1 X107.711 Y113.815 E30.9686
G1 X107.425 Y113.892 E30.9785
G1 X107.128 Y113.919 E30.9884
G1 X106.832 Y113.896 E30.9983
G1 X106.544 Y113.823 E31.0082
G1 X106.272 Y113.702 E31.0180
G1 X106.025 Y113.538 E31.0279
G1 X105.810 Y113.334 E31.0378
G1 X105.632 Y113.097 E31.0476
G1 X105.497 Y112.833 E31.0575
G1 X105.408 Y112.551 E31.0673
G1 X105.369 Y112.258 E31.0771
G1 X105.379 Y111.963 E31.0870
G1 X105.440 Y111.673 E31.0968
G1 X105.548 Y111.398 E31.1066
G1 X105.702 Y111.145 E31.1165
G1 X105.896 Y110.921 E31.1263
G1 X106.125 Y110.733 E31.1362
G1 X106.384 Y110.586 E31.1461
G1 X106.667 Y110.484 E31.1561
G1 X107.054 Y110.432 E31.1691
G1 X107.558 Y109.993
;segType:HShell
G0 X107.157 Y109.835 F10800
G1 X131.099 Y86.287 E32.2855 F600
G1 X131.627 Y86.287
G1 X107.626 Y109.894 E33.4046
G1 X108.026 Y110.020
G1 X132.156 Y86.287 E34.5297
G1 X132.684 Y86.287
G1 X108.372 Y110.200 E35.6634
G1 X108.671 Y110.425
G1 X133.213 Y86.287 E36.8077
G1 X133.741 Y86.287
G1 X108.928 Y110.692 E37.9647
G1 X109.143 Y111.000
G1 X134.270 Y86.287 E39.1364
G1 X134.798 Y86.287
G1 X109.312 Y111.354 E40.3247
G1 X109.426 Y111.762
G1 X135.327 Y86.287 E41.5325
G1 X135.855 Y86.287
G1 X109.466 Y112.242 E42.7630
G0 X108.449 Y110.772 F10800
G0 X107.586 Y110.299
G0 X106.622 Y110.306
G0 X105.765 Y110.790
G0 X104.845 Y111.589
G1 X102.685 Y113.713 E42.8636 F600
G1 X103.214 Y113.713
G1 X104.771 Y112.182 E42.9362
G1 X104.817 Y112.656
G1 X103.742 Y113.713 E42.9863
G1 X104.271 Y113.713
G1 X104.939 Y113.056 E43.0175
G1 X105.116 Y113.402
G1 X104.799 Y113.713 E43.0323
G0 X107.130 Y114.103 F10800
G0 X108.075 Y113.850
G0 X109.352 Y112.874
G1 X135.337 Y87.317 E44.2439 F600
G1 X135.178 Y87.993
G1 X109.027 Y113.713 E45.4633
G1 X109.556 Y113.713
G1 X135.195 Y88.495 E46.6588
G1 X135.295 Y88.917
G1 X110.084 Y113.713 E47.8343
G1 X110.613 Y113.713
G1 X135.454 Y89.281 E48.9926
G1 X135.661 Y89.597
G1 X111.141 Y113.713 E50.1359
G1 X111.670 Y113.713
G1 X135.911 Y89.871 E51.2663
G1 X136.203 Y90.103
G1 X112.198 Y113.713 E52.3856
G1 X112.727 Y113.713
G1 X136.540 Y90.291 E53.4960
G1 X136.929 Y90.429
G1 X113.255 Y113.713 E54.5999
G1 X113.784 Y113.713
G1 X137.385 Y90.500 E55.7004
G1 X137.942 Y90.472
G1 X114.312 Y113.713 E56.8022
G1 X114.841 Y113.713
G1 X138.884 Y90.066 E57.9233
G0 X139.452 Y88.241 F10800
G0 X139.242 Y86.595
G1 X139.555 Y86.287 E57.9379 F600
G1 X140.083 Y86.287
G1 X139.472 Y86.888 E57.9664
G1 X139.658 Y87.224
G1 X140.612 Y86.287 E58.0108
G1 X141.140 Y86.287
G1 X139.792 Y87.613 E58.0737
G1 X139.857 Y88.068
G1 X141.669 Y86.287 E58.1581
G1 X142.197 Y86.287
G1 X139.822 Y88.623 E58.2689
G0 X139.403 Y89.555 F10800
G1 X142.726 Y86.287 E58.4238 F600
G0 X143.989 Y78.287 F10800
G1 X143.792 Y78.481 E58.4330 F600
G1 X143.792 Y79.001
G1 X144.518 Y78.287 E58.4668
G1 X145.046 Y78.287
G1 X143.792 Y79.521 E58.5253
G1 X143.792 Y80.041
G1 X145.575 Y78.287 E58.6085
G1 X146.103 Y78.287
G1 X143.792 Y80.560 E58.7162
G1 X143.792 Y81.080
G1 X146.631 Y78.287 E58.8487
G1 X147.160 Y78.287
G1 X143.792 Y81.600 E59.0057
G1 X143.792 Y82.120
G1 X147.688 Y78.287 E59.1874
G1 X148.217 Y78.287
G1 X143.792 Y82.640 E59.3938
G1 X143.792 Y83.159
G1 X148.745 Y78.287 E59.6248
G1 X149.274 Y78.287
G1 X143.792 Y83.679 E59.8804
G1 X143.792 Y84.199
G1 X149.802 Y78.287 E60.1607
G1 X150.331 Y78.287
G1 X143.792 Y84.719 E60.4656
G1 X143.792 Y85.239
G1 X150.859 Y78.287 E60.7952
G1 X151.388 Y78.287
G1 X143.792 Y85.758 E61.1494
G1 X143.792 Y86.278
G1 X151.916 Y78.287 E61.5282
G1 X152.445 Y78.287
G1 X116.426 Y113.713 E63.2077
G1 X116.955 Y113.713
G1 X152.973 Y78.287 E64.8872
G1 X153.502 Y78.287
G1 X117.483 Y113.713 E66.5667
G1 X118.012 Y113.713
G1 X154.030 Y78.287 E68.2462
G1 X154.559 Y78.287
G1 X118.540 Y113.713 E69.9257
G1 X119.069 Y113.713
G1 X155.087 Y78.287 E71.6052
G1 X155.616 Y78.287
G1 X119.597 Y113.713 E73.2847
G1 X120.126 Y113.713
G1 X156.144 Y78.287 E74.9641
G1 X156.673 Y78.287
G1 X120.654 Y113.713 E76.6436
G1 X121.183 Y113.713
G1 X157.201 Y78.287 E78.3231
G1 X157.730 Y78.287
G1 X150.806 Y85.097 E78.6460
G0 X151.794 Y84.645 F10800
G1 X158.066 Y78.476 E78.9385 F600
G1 X158.066 Y78.996
G1 X152.405 Y84.564 E79.2024
G1 X152.909 Y84.588
G1 X158.066 Y79.515 E79.4429
G1 X158.066 Y80.035
G1 X153.346 Y84.678 E79.6630
G1 X153.735 Y84.815
G1 X158.066 Y80.555 E79.8650
G1 X158.066 Y81.075
G1 X154.074 Y85.001 E80.0511
G1 X154.378 Y85.222
G1 X158.066 Y81.595 E80.2231
G1 X158.066 Y82.114
G1 X154.653 Y85.472 E80.3823
G1 X154.898 Y85.750
G1 X158.066 Y82.634 E80.5300
G1 X158.066 Y83.154
G1 X155.099 Y86.073 E80.6683
G1 X155.264 Y86.430
G1 X158.066 Y83.674 E80.7990
G1 X158.066 Y84.194
G1 X155.388 Y86.828 E80.9239
G1 X155.459 Y87.278
G1 X158.066 Y84.713 E81.0455
G1 X158.066 Y85.233
G1 X155.451 Y87.806 E81.1674
G0 X158.066 Y88.872 F10800
G1 X136.538 Y110.046 E82.1713 F600
G0 X135.181 Y111.901 F10800
G1 X133.338 Y113.713 E82.2572 F600
G1 X133.867 Y113.713
G1 X135.185 Y112.417 E82.3187
G1 X135.274 Y112.849
G1 X134.395 Y113.713 E82.3596
G1 X134.924 Y113.713
G1 X135.424 Y113.221 E82.3829
G1 X135.623 Y113.545
G1 X135.452 Y113.713 E82.3909
G0 X137.530 Y114.103 F10800
G0 X138.475 Y113.850
G0 X139.834 Y112.522
G1 X158.066 Y94.590 E83.2410 F600
G1 X158.066 Y94.070
G1 X139.853 Y111.983 E84.0902
G1 X139.776 Y111.540
G1 X158.066 Y93.550 E84.9431
G1 X158.066 Y93.030
G1 X139.632 Y111.161 E85.8026
G1 X139.438 Y110.832
G1 X158.066 Y92.511 E86.6712
G1 X158.066 Y91.991
G1 X139.199 Y110.547 E87.5510
G1 X138.919 Y110.304
G1 X158.066 Y91.471 E88.4438
G1 X158.066 Y90.951
G1 X138.595 Y110.102 E89.3517
G1 X138.222 Y109.949
G1 X158.066 Y90.431 E90.2770
G1 X158.066 Y89.912
G1 X137.789 Y109.855 E91.2225
G0 X150.397 Y110.450 F10800
G1 X143.792 Y116.946 E91.5305 F600
G1 X143.792 Y117.466
G1 X149.675 Y111.680 E91.8048
G1 X149.572 Y112.301
G1 X143.792 Y117.986 E92.0743
G1 X143.792 Y118.506
G1 X149.582 Y112.811 E92.3443
G1 X149.662 Y113.252
G1 X143.792 Y119.026 E92.6180
G1 X143.792 Y119.545
G1 X149.791 Y113.645 E92.8978
G1 X149.968 Y113.990
G1 X143.792 Y120.065 E93.1858
G1 X143.792 Y120.585
G1 X150.183 Y114.298 E93.4838
G1 X150.429 Y114.576
G1 X143.792 Y121.105 E93.7934
G1 X143.792 Y121.625
G1 X150.704 Y114.826 E94.1156
G1 X151.019 Y115.036
G1 X144.230 Y121.713 E94.4322
G1 X144.759 Y121.713
G1 X151.373 Y115.208 E94.7406
G1 X151.766 Y115.340
G1 X145.287 Y121.713 E95.0427
G1 X145.816 Y121.713
G1 X152.212 Y115.422 E95.3410
G1 X152.733 Y115.430
G1 X146.344 Y121.713 E95.6388
G1 X146.873 Y121.713
G1 X153.384 Y115.309 E95.9425
G0 X157.971 Y121.713 F10800
G1 X158.066 Y121.619 E95.9469 F600
G1 X158.066 Y121.100
G1 X157.443 Y121.713 E95.9760
G1 X156.914 Y121.713
G1 X158.066 Y120.580 E96.0297
G1 X158.066 Y120.060
G1 X156.386 Y121.713 E96.1081
G1 X155.857 Y121.713
G1 X158.066 Y119.540 E96.2111
G1 X158.066 Y119.020
G1 X155.329 Y121.713 E96.3387
G1 X154.800 Y121.713
G1 X158.066 Y118.501 E96.4910
G1 X158.066 Y117.981
G1 X154.272 Y121.713 E96.6680
G1 X153.743 Y121.713
G1 X158.066 Y117.461 E96.8696
G1 X158.066 Y116.941
G1 X153.215 Y121.713 E97.0958
G1 X152.686 Y121.713
G1 X158.066 Y116.421 E97.3467
G1 X158.066 Y115.902
G1 X152.158 Y121.713 E97.6222
G1 X151.629 Y121.713
G1 X158.066 Y115.382 E97.9223
G1 X158.066 Y114.862
G1 X151.101 Y121.713 E98.2471
G1 X150.572 Y121.713
G1 X158.066 Y114.342 E98.5966
G1 X158.066 Y113.822
G1 X150.044 Y121.713 E98.9707
G1 X149.515 Y121.713
G1 X158.066 Y113.303 E99.3694
G1 X158.066 Y112.783
G1 X148.987 Y121.713 E99.7928
G1 X148.458 Y121.713
G1 X158.066 Y112.263 E100.2408
G1 X158.066 Y111.743
G1 X147.930 Y121.713 E100.7134
G1 X147.401 Y121.713
G1 X158.066 Y111.223 E101.2107
G1 X158.066 Y110.704
G1 X155.326 Y113.399 E101.3385
G1 X155.457 Y112.750
G1 X158.066 Y110.184 E101.4602
G1 X158.066 Y109.664
G1 X155.457 Y112.231 E101.5818
G1 X155.379 Y111.787
G1 X158.066 Y109.144 E101.7071
G1 X158.066 Y108.624
G1 X155.250 Y111.395 E101.8385
G1 X155.080 Y111.042
G1 X158.066 Y108.105 E101.9777
G1 X158.066 Y107.585
G1 X154.876 Y110.722 E102.1265
G1 X154.629 Y110.446
G1 X158.066 Y107.065 E102.2868
G1 X158.066 Y106.545
G1 X154.351 Y110.200 E102.4600
G1 X154.042 Y109.983
G1 X158.066 Y106.025 E102.6477
G1 X158.066 Y105.506
G1 X153.700 Y109.800 E102.8513
G1 X153.309 Y109.665
G1 X158.066 Y104.986 E103.0731
G1 X158.066 Y104.466
G1 X152.867 Y109.580 E103.3155
G1 X152.354 Y109.564
G1 X158.066 Y103.946 E103.5819
G1 X158.066 Y103.426
G1 X151.728 Y109.661 E103.8774
G0 X150.501 Y110.347 F10800
G1 X158.066 Y102.907 E104.2302 F600
G1 X158.066 Y102.387
G1 X143.792 Y116.427 E104.8958
G1 X143.792 Y115.907
G1 X158.066 Y101.867 E105.5614
G1 X158.066 Y101.347
G1 X143.792 Y115.387 E106.2270
G1 X143.792 Y114.867
G1 X158.066 Y100.827 E106.8926
G1 X158.066 Y100.308
G1 X143.792 Y114.347 E107.5582
G1 X143.792 Y113.828
G1 X158.066 Y99.788 E108.2238
G1 X158.066 Y99.268
G1 X143.379 Y113.713 E108.9086
G1 X142.851 Y113.713
G1 X158.066 Y98.748 E109.6181
G1 X158.066 Y98.228
G1 X142.323 Y113.713 E110.3522
G1 X141.794 Y113.713
G1 X158.066 Y97.709 E111.1110
G1 X158.066 Y97.189
G1 X141.266 Y113.713 E111.8944
G1 X140.737 Y113.713
G1 X158.066 Y96.669 E112.7024
G1 X158.066 Y96.149
G1 X140.209 Y113.713 E113.5351
G1 X139.680 Y113.713
G1 X158.066 Y95.629 E114.3924
G1 X158.066 Y95.110
G1 X139.569 Y113.303 E115.2549
G0 X137.858 Y114.073 F10800
G0 X136.882 Y113.996
G0 X136.069 Y113.455
G0 X135.625 Y112.591
G0 X135.394 Y111.171
G1 X132.810 Y113.713 E115.3754 F600
G1 X132.281 Y113.713
G1 X158.066 Y88.352 E116.5777
G1 X158.066 Y87.832
G1 X131.753 Y113.713 E117.8047
G1 X131.224 Y113.713
G1 X158.066 Y87.312 E119.0563
G1 X158.066 Y86.793
G1 X130.696 Y113.713 E120.3326
G1 X130.167 Y113.713
G1 X158.066 Y86.273 E121.6335
G1 X158.066 Y85.753
G1 X155.305 Y88.469 E121.7622
G0 X153.453 Y90.290 F10800
G1 X129.639 Y113.713 E122.8727 F600
G1 X129.110 Y113.713
G1 X152.788 Y90.424 E123.9767
G1 X152.258 Y90.426
G1 X128.582 Y113.713 E125.0807
G1 X128.053 Y113.713
G1 X151.806 Y90.351 E126.1883
G1 X151.407 Y90.223
G1 X127.525 Y113.713 E127.3019
G1 X126.996 Y113.713
G1 X151.049 Y90.056 E128.4235
G1 X150.734 Y89.846
G1 X126.468 Y113.713 E129.5550
G1 X125.939 Y113.713
G1 X150.455 Y89.601 E130.6981
G1 X150.205 Y89.327
G1 X125.411 Y113.713 E131.8542
G1 X124.882 Y113.713
G1 X149.985 Y89.023 E133.0247
G1 X149.808 Y88.677
G1 X124.354 Y113.713 E134.2116
G1 X123.825 Y113.713
G1 X149.674 Y88.290 E135.4168
G1 X149.588 Y87.855
G1 X123.297 Y113.713 E136.6428
G1 X122.768 Y113.713
G1 X149.570 Y87.352 E137.8925
G1 X149.662 Y86.742
G1 X122.240 Y113.713 E139.1711
G1 X121.711 Y113.713
G1 X150.116 Y85.775 E140.4956
G0 X143.783 Y86.287 F10800
G1 X115.898 Y113.713 E141.7958 F600
G0 X130.042 Y86.287 F10800
G1 X102.157 Y113.713 E143.0961 F600
G1 X101.934 Y113.413
G1 X129.513 Y86.287 E144.3821
G1 X128.985 Y86.287
G1 X101.934 Y112.893 E145.6434
G1 X101.934 Y112.373
G1 X128.456 Y86.287 E146.8801
G1 X127.928 Y86.287
G1 X101.934 Y111.853 E148.0922
G1 X101.934 Y111.334
G1 X127.399 Y86.287 E149.2796
G1 X126.871 Y86.287
G1 X101.934 Y110.814 E150.4424
G1 X101.934 Y110.294
G1 X126.342 Y86.287 E151.5805
G1 X125.814 Y86.287
G1 X101.934 Y109.774 E152.6940
G1 X101.934 Y109.254
G1 X125.285 Y86.287 E153.7829
G1 X124.757 Y86.287
G1 X101.934 Y108.735 E154.8471
G1 X101.934 Y108.215
G1 X124.228 Y86.287 E155.8866
G1 X123.700 Y86.287
G1 X101.934 Y107.695 E156.9016
G1 X101.934 Y107.175
G1 X123.171 Y86.287 E157.8919
G1 X122.643 Y86.287
G1 X101.934 Y106.655 E158.8575
G1 X101.934 Y106.136
G1 X122.114 Y86.287 E159.7985
G1 X121.586 Y86.287
G1 X101.934 Y105.616 E160.7148
G1 X101.934 Y105.096
G1 X121.057 Y86.287 E161.6065
G1 X120.529 Y86.287
G1 X101.934 Y104.576 E162.4736
G1 X101.934 Y104.056
G1 X120.000 Y86.287 E163.3160
G1 X119.472 Y86.287
G1 X101.934 Y103.537 E164.1338
G1 X101.934 Y103.017
G1 X118.943 Y86.287 E164.9269
G1 X118.415 Y86.287
G1 X101.934 Y102.497 E165.6954
G1 X101.934 Y101.977
G1 X117.886 Y86.287 E166.4393
G1 X117.358 Y86.287
G1 X101.934 Y101.457 E167.1585
G1 X101.934 Y100.938
G1 X116.829 Y86.287 E167.8531
G1 X116.301 Y86.287
G1 X101.934 Y100.418 E168.5230
G1 X101.934 Y99.898
G1 X115.772 Y86.287 E169.1683
G1 X115.244 Y86.287
G1 X101.934 Y99.378 E169.7889
G1 X101.934 Y98.858
G1 X114.715 Y86.287 E170.3849
G1 X114.187 Y86.287
G1 X101.934 Y98.339 E170.9562
G1 X101.934 Y97.819
G1 X113.658 Y86.287 E171.5030
G1 X113.130 Y86.287
G1 X101.934 Y97.299 E172.0250
G1 X101.934 Y96.779
G1 X112.601 Y86.287 E172.5224
G1 X112.073 Y86.287
G1 X109.314 Y89.001 E172.6511
G1 X109.456 Y88.341
G1 X111.544 Y86.287 E172.7485
G1 X111.016 Y86.287
G1 X109.442 Y87.835 E172.8219
G1 X109.338 Y87.418
G1 X110.487 Y86.287 E172.8755
G1 X109.959 Y86.287
G1 X109.177 Y87.056 E172.9119
G1 X108.971 Y86.739
G1 X109.430 Y86.287 E172.9333
G1 X108.902 Y86.287
G1 X108.721 Y86.465 E172.9418
G0 X106.939 Y86.250 F10800
G0 X105.228 Y86.782
G1 X101.934 Y90.022 E173.0954 F600
G1 X101.934 Y89.502
G1 X105.202 Y86.287 E173.2478
G1 X104.674 Y86.287
G1 X101.934 Y88.982 E173.3756
G1 X101.934 Y88.462
G1 X104.145 Y86.287 E173.4787
G1 X103.617 Y86.287
G1 X101.934 Y87.942 E173.5572
G1 X101.934 Y87.423
G1 X103.088 Y86.287 E173.6110
G1 X102.560 Y86.287
G1 X101.934 Y86.903 E173.6402
G1 X101.934 Y86.383
G1 X102.032 Y86.287 E173.6448
G0 X104.821 Y87.702 F10800
G1 X101.934 Y90.541 E173.7794 F600
G1 X101.934 Y91.061
G1 X104.767 Y88.274 E173.9116
G1 X104.835 Y88.727
G1 X101.934 Y91.581 E174.0469
G1 X101.934 Y92.101
G1 X104.969 Y89.115 E174.1884
G1 X105.154 Y89.454
G1 X101.934 Y92.621 E174.3386
G1 X101.934 Y93.140
G1 X105.382 Y89.749 E174.4994
G1 X105.653 Y90.002
G1 X101.934 Y93.660 E174.6728
G1 X101.934 Y94.180
G1 X105.968 Y90.212 E174.8609
G1 X106.330 Y90.375
G1 X101.934 Y94.700 E175.0659
G1 X101.934 Y95.220
G1 X106.751 Y90.482 E175.2905
; ------------------------------------
; Layer #1
; ------------------------------------
G21 ; mm
G90 ; abs
G92 E0 ; reset extr
M106 S0
;segType:HShell
G0 F4800 E-1.0000
G0 F300 Z0.400
G0 X158.066 Y100.950 F10800
G0 F4800 E0.0000
G1 X143.158 Y86.287 E0.6952 F3600
;segType:Perimeter
G0 X142.934 Y86.253 F10800
G1 X143.191 Y85.642 E0.7172 F2160
G1 X143.191 Y77.697 E0.9813
G1 X158.666 Y77.697 E1.4958
G1 X158.666 Y122.303 E2.9786
G1 X143.191 Y122.303 E3.4931
G1 X143.191 Y114.303 E3.7590
G1 X101.334 Y114.303 E5.1505
G1 X101.334 Y85.697 E6.1015
G1 X143.135 Y85.697 E7.4911
G1 X143.757 Y85.444
;segType:Loop
G0 X143.592 Y84.686 F10800
G1 X143.592 Y78.090 E7.7104 F3600
G1 X158.266 Y78.090 E8.1983
G1 X158.266 Y121.910 E9.6550
G1 X143.592 Y121.910 E10.1428
G1 X143.592 Y113.910 E10.4088
G1 X138.759 Y113.910 E10.5694
G1 X138.894 Y113.816 E10.5748
G1 X139.153 Y113.561 E10.5869
G1 X139.365 Y113.266 E10.5990
G1 X139.524 Y112.940 E10.6110
G1 X139.625 Y112.593 E10.6231
G1 X139.666 Y112.234 E10.6351
G1 X139.646 Y111.873 E10.6471
G1 X139.565 Y111.521 E10.6591
G1 X139.425 Y111.187 E10.6712
G1 X139.231 Y110.880 E10.6832
G1 X138.987 Y110.610 E10.6953
G1 X138.700 Y110.385 E10.7074
G1 X138.379 Y110.211 E10.7196
G1 X138.032 Y110.094 E10.7317
G1 X137.671 Y110.037 E10.7439
G1 X137.304 Y110.042 E10.7561
G1 X136.944 Y110.109 E10.7683
G1 X136.601 Y110.235 E10.7804
G1 X136.284 Y110.418 E10.7926
G1 X136.004 Y110.651 E10.8047
G1 X135.768 Y110.926 E10.8168
G1 X135.581 Y111.238 E10.8288
G1 X135.451 Y111.576 E10.8409
G1 X135.380 Y111.930 E10.8529
G1 X135.369 Y112.291 E10.8649
G1 X135.420 Y112.650 E10.8769
G1 X135.530 Y112.994 E10.8890
G1 X135.698 Y113.316 E10.9010
G1 X135.918 Y113.605 E10.9131
G1 X136.184 Y113.853 E10.9252
G1 X136.271 Y113.910 E10.9286
G1 X108.359 Y113.910 E11.8565
G1 X108.493 Y113.817 E11.8619
G1 X108.753 Y113.561 E11.8740
G1 X108.965 Y113.266 E11.8861
G1 X109.124 Y112.940 E11.8982
G1 X109.225 Y112.593 E11.9102
G1 X109.266 Y112.234 E11.9222
G1 X109.246 Y111.873 E11.9342
G1 X109.165 Y111.521 E11.9462
G1 X109.025 Y111.186 E11.9583
G1 X108.831 Y110.880 E11.9704
G1 X108.587 Y110.611 E11.9824
G1 X108.301 Y110.385 E11.9945
G1 X107.979 Y110.211 E12.0067
G1 X107.622 Y110.091 E12.0192
G1 X107.100 Y110.028 E12.0367
G1 X106.556 Y110.104 E12.0550
G1 X106.201 Y110.236 E12.0676
G1 X105.885 Y110.418 E12.0797
G1 X105.604 Y110.650 E12.0918
G1 X105.368 Y110.926 E12.1039
G1 X105.181 Y111.238 E12.1160
G1 X105.051 Y111.576 E12.1280
G1 X104.980 Y111.930 E12.1400
G1 X104.969 Y112.291 E12.1520
G1 X105.020 Y112.649 E12.1640
G1 X105.131 Y112.994 E12.1761
G1 X105.298 Y113.315 E12.1881
G1 X105.518 Y113.605 E12.2002
G1 X105.785 Y113.853 E12.2123
G1 X105.871 Y113.910 E12.2157
G1 X101.734 Y113.910 E12.3533
G1 X101.734 Y86.090 E13.2781
G1 X106.645 Y86.090 E13.4414
G1 X106.544 Y86.109 E13.4448
G1 X106.200 Y86.235 E13.4569
G1 X105.885 Y86.418 E13.4691
G1 X105.604 Y86.650 E13.4812
G1 X105.368 Y86.927 E13.4933
G1 X105.181 Y87.238 E13.5053
G1 X105.051 Y87.576 E13.5174
G1 X104.980 Y87.931 E13.5294
G1 X104.969 Y88.292 E13.5414
G1 X105.020 Y88.650 E13.5534
G1 X105.131 Y88.994 E13.5655
G1 X105.298 Y89.315 E13.5775
G1 X105.518 Y89.605 E13.5896
G1 X105.785 Y89.853 E13.6017
G1 X106.089 Y90.053 E13.6138
G1 X106.425 Y90.199 E13.6260
G1 X106.780 Y90.287 E13.6381
G1 X107.145 Y90.313 E13.6503
G1 X107.510 Y90.277 E13.6625
G1 X107.863 Y90.180 E13.6747
G1 X108.194 Y90.025 E13.6868
G1 X108.494 Y89.816 E13.6990
G1 X108.753 Y89.561 E13.7111
G1 X108.965 Y89.266 E13.7231
G1 X109.124 Y88.941 E13.7352
G1 X109.225 Y88.593 E13.7472
G1 X109.266 Y88.234 E13.7592
G1 X109.246 Y87.873 E13.7712
G1 X109.165 Y87.521 E13.7832
G1 X109.025 Y87.186 E13.7953
G1 X108.831 Y86.880 E13.8074
G1 X108.587 Y86.611 E13.8194
G1 X108.300 Y86.385 E13.8316
G1 X107.978 Y86.212 E13.8437
G1 X107.632 Y86.094 E13.8559
G1 X107.605 Y86.090 E13.8568
G1 X137.056 Y86.090 E14.8358
G1 X136.956 Y86.104 E14.8392
G1 X136.601 Y86.235 E14.8518
G1 X136.284 Y86.418 E14.8639
G1 X136.004 Y86.650 E14.8760
G1 X135.768 Y86.927 E14.8881
G1 X135.581 Y87.238 E14.9002
G1 X135.451 Y87.576 E14.9122
G1 X135.379 Y87.930 E14.9242
G1 X135.369 Y88.292 E14.9363
G1 X135.420 Y88.650 E14.9483
G1 X135.530 Y88.994 E14.9603
G1 X135.698 Y89.316 E14.9724
G1 X135.918 Y89.605 E14.9844
G1 X136.184 Y89.853 E14.9965
G1 X136.489 Y90.053 E15.0086
G1 X136.825 Y90.199 E15.0208
G1 X137.180 Y90.287 E15.0330
G1 X137.545 Y90.313 E15.0452
G1 X137.910 Y90.277 E15.0573
G1 X138.263 Y90.180 E15.0695
G1 X138.594 Y90.025 E15.0817
G1 X138.894 Y89.816 E15.0938
G1 X139.153 Y89.561 E15.1059
G1 X139.365 Y89.266 E15.1180
G1 X139.524 Y88.941 E15.1300
G1 X139.625 Y88.593 E15.1420
G1 X139.666 Y88.234 E15.1540
G1 X139.646 Y87.873 E15.1661
G1 X139.565 Y87.521 E15.1781
G1 X139.425 Y87.186 E15.1901
G1 X139.231 Y86.880 E15.2022
G1 X138.987 Y86.610 E15.2143
G1 X138.700 Y86.385 E15.2264
G1 X138.379 Y86.212 E15.2385
G1 X138.022 Y86.091 E15.2511
G1 X138.016 Y86.090 E15.2513
G1 X143.592 Y86.090 E15.4366
G1 X143.592 Y84.870 E15.4772
G0 X152.036 Y84.803 F10800
G1 X152.244 Y84.764 E15.4842 F3600
G1 X152.714 Y84.758 E15.4999
G1 X153.178 Y84.831 E15.5155
G1 X153.622 Y84.981 E15.5311
G1 X154.034 Y85.204 E15.5466
G1 X154.402 Y85.493 E15.5622
G1 X154.718 Y85.843 E15.5779
G1 X154.965 Y86.233 E15.5932
G1 X155.144 Y86.662 E15.6086
G1 X155.248 Y87.115 E15.6241
G1 X155.274 Y87.579 E15.6395
G1 X155.221 Y88.041 E15.6550
G1 X155.091 Y88.487 E15.6705
G1 X154.887 Y88.905 E15.6859
G1 X154.615 Y89.284 E15.7014
G1 X154.282 Y89.612 E15.7170
G1 X153.898 Y89.879 E15.7325
G1 X153.474 Y90.078 E15.7481
G1 X153.021 Y90.203 E15.7637
G1 X152.554 Y90.249 E15.7793
G1 X152.085 Y90.216 E15.7949
G1 X151.630 Y90.103 E15.8105
G1 X151.200 Y89.916 E15.8261
G1 X150.808 Y89.659 E15.8417
G1 X150.467 Y89.340 E15.8572
G1 X150.184 Y88.969 E15.8727
G1 X149.969 Y88.556 E15.8882
G1 X149.827 Y88.113 E15.9037
G1 X149.762 Y87.653 E15.9191
G1 X149.775 Y87.189 E15.9346
G1 X149.867 Y86.733 E15.9500
G1 X150.035 Y86.299 E15.9655
G1 X150.273 Y85.900 E15.9809
G1 X150.540 Y85.586 E15.9946
G1 X150.932 Y85.249 E16.0118
G1 X151.343 Y85.012 E16.0276
G1 X151.783 Y84.850 E16.0432
G1 X151.852 Y84.837 E16.0455
;segType:Perimeter
G0 X150.547 Y85.467 F10800
G1 X151.216 Y85.542 E16.0679 F2160
G1 X151.515 Y85.369 E16.0794
G1 X151.891 Y85.230 E16.0927
G1 X152.285 Y85.157 E16.1060
G1 X152.685 Y85.152 E16.1193
G1 X153.080 Y85.214 E16.1326
G1 X153.459 Y85.342 E16.1459
G1 X153.811 Y85.533 E16.1592
G1 X154.125 Y85.780 E16.1725
G1 X154.397 Y86.079 E16.1859
G1 X154.607 Y86.413 E16.1990
G1 X154.761 Y86.781 E16.2123
G1 X154.850 Y87.170 E16.2256
G1 X154.873 Y87.568 E16.2388
G1 X154.828 Y87.964 E16.2521
G1 X154.716 Y88.347 E16.2653
G1 X154.541 Y88.706 E16.2786
G1 X154.308 Y89.030 E16.2919
G1 X154.023 Y89.310 E16.3052
G1 X153.695 Y89.539 E16.3184
G1 X153.333 Y89.708 E16.3318
G1 X152.947 Y89.815 E16.3451
G1 X152.549 Y89.854 E16.3584
G1 X152.149 Y89.826 E16.3717
G1 X151.760 Y89.730 E16.3850
G1 X151.393 Y89.570 E16.3983
G1 X151.059 Y89.350 E16.4116
G1 X150.767 Y89.078 E16.4249
G1 X150.525 Y88.760 E16.4382
G1 X150.341 Y88.406 E16.4514
G1 X150.219 Y88.026 E16.4647
G1 X150.162 Y87.631 E16.4779
G1 X150.174 Y87.233 E16.4912
G1 X150.253 Y86.842 E16.5044
G1 X150.397 Y86.470 E16.5177
G1 X150.601 Y86.127 E16.5310
G1 X150.827 Y85.863 E16.5425
G1 X151.125 Y85.606 E16.5556
G1 X151.264 Y84.958
G0 X149.988 Y87.212 F10800
G0 X151.430 Y109.980
;segType:Loop
G1 X151.796 Y109.845 E16.5686 F3600
G1 X152.246 Y109.764 E16.5838
G1 X152.731 Y109.757 E16.5999
G1 X153.180 Y109.832 E16.6150
G1 X153.640 Y109.988 E16.6312
G1 X154.036 Y110.206 E16.6462
G1 X154.402 Y110.493 E16.6617
G1 X154.715 Y110.839 E16.6772
G1 X154.965 Y111.233 E16.6927
G1 X155.144 Y111.662 E16.7081
G1 X155.248 Y112.115 E16.7236
G1 X155.274 Y112.579 E16.7390
G1 X155.221 Y113.041 E16.7545
G1 X155.091 Y113.488 E16.7700
G1 X154.887 Y113.906 E16.7854
G1 X154.615 Y114.284 E16.8009
G1 X154.282 Y114.612 E16.8165
G1 X153.896 Y114.881 E16.8321
G1 X153.474 Y115.078 E16.8476
G1 X153.021 Y115.203 E16.8632
G1 X152.554 Y115.249 E16.8788
G1 X152.086 Y115.215 E16.8944
G1 X151.630 Y115.103 E16.9100
G1 X151.200 Y114.916 E16.9256
G1 X150.825 Y114.670 E16.9405
G1 X150.468 Y114.342 E16.9566
G1 X150.184 Y113.969 E16.9722
G1 X149.969 Y113.556 E16.9877
G1 X149.827 Y113.113 E17.0031
G1 X149.762 Y112.653 E17.0186
G1 X149.775 Y112.189 E17.0340
G1 X149.867 Y111.734 E17.0495
G1 X150.035 Y111.299 E17.0650
G1 X150.274 Y110.899 E17.0804
G1 X150.577 Y110.544 E17.0960
G1 X150.937 Y110.246 E17.1115
G1 X151.262 Y110.058 E17.1240
G0 X150.228 Y111.390 F10800
G0 X149.976 Y112.642
G0 X150.366 Y113.857
G0 X150.727 Y114.696
;segType:Perimeter
G1 X150.734 Y114.034 E17.1460 F2160
G1 X150.525 Y113.760 E17.1574
G1 X150.341 Y113.406 E17.1707
G1 X150.219 Y113.026 E17.1840
G1 X150.162 Y112.631 E17.1972
G1 X150.174 Y112.233 E17.2105
G1 X150.253 Y111.842 E17.2237
G1 X150.397 Y111.470 E17.2370
G1 X150.601 Y111.127 E17.2503
G1 X150.861 Y110.824 E17.2635
G1 X151.169 Y110.569 E17.2768
G1 X151.515 Y110.369 E17.2901
G1 X151.903 Y110.226 E17.3039
G1 X152.285 Y110.157 E17.3168
G1 X152.700 Y110.151 E17.3306
G1 X153.081 Y110.215 E17.3434
G1 X153.476 Y110.348 E17.3573
G1 X153.812 Y110.533 E17.3700
G1 X154.125 Y110.780 E17.3833
G1 X154.394 Y111.076 E17.3966
G1 X154.607 Y111.413 E17.4098
G1 X154.761 Y111.781 E17.4231
G1 X154.850 Y112.170 E17.4363
G1 X154.873 Y112.568 E17.4496
G1 X154.828 Y112.964 E17.4629
G1 X154.716 Y113.347 E17.4761
G1 X154.541 Y113.706 E17.4894
G1 X154.308 Y114.030 E17.5027
G1 X154.023 Y114.310 E17.5159
G1 X153.694 Y114.540 E17.5293
G1 X153.333 Y114.708 E17.5425
G1 X152.947 Y114.815 E17.5558
G1 X152.548 Y114.854 E17.5692
G1 X152.149 Y114.825 E17.5825
G1 X151.760 Y114.730 E17.5958
G1 X151.393 Y114.570 E17.6091
G1 X151.074 Y114.361 E17.6218
G1 X150.808 Y114.116 E17.6338
G1 X150.139 Y114.051
;segType:HShell
G0 X113.562 Y86.287 F10800
G1 X137.512 Y109.842 E18.7505 F3600
;segType:Perimeter
G0 X137.235 Y109.958 F10800
G1 X137.697 Y110.440 E18.7727 F2160
G1 X137.935 Y110.477 E18.7807
G1 X138.216 Y110.572 E18.7906
G1 X138.477 Y110.714 E18.8004
G1 X138.711 Y110.897 E18.8103
G1 X138.909 Y111.117 E18.8201
G1 X139.068 Y111.367 E18.8300
G1 X139.182 Y111.640 E18.8398
G1 X139.248 Y111.928 E18.8496
G1 X139.265 Y112.223 E18.8595
G1 X139.231 Y112.517 E18.8693
G1 X139.148 Y112.800 E18.8791
G1 X139.019 Y113.066 E18.8889
G1 X138.846 Y113.307 E18.8988
G1 X138.635 Y113.515 E18.9086
G1 X138.391 Y113.684 E18.9185
G1 X138.122 Y113.810 E18.9284
G1 X137.836 Y113.889 E18.9383
G1 X137.540 Y113.918 E18.9481
G1 X137.244 Y113.897 E18.9580
G1 X136.955 Y113.826 E18.9679
G1 X136.683 Y113.707 E18.9778
G1 X136.435 Y113.544 E18.9876
G1 X136.218 Y113.342 E18.9975
G1 X136.039 Y113.106 E19.0073
G1 X135.902 Y112.844 E19.0172
G1 X135.812 Y112.563 E19.0270
G1 X135.770 Y112.270 E19.0368
G1 X135.779 Y111.974 E19.0467
G1 X135.837 Y111.685 E19.0565
G1 X135.943 Y111.409 E19.0663
G1 X136.095 Y111.155 E19.0762
G1 X136.288 Y110.930 E19.0860
G1 X136.516 Y110.740 E19.0959
G1 X136.773 Y110.592 E19.1057
G1 X137.052 Y110.489 E19.1156
G1 X137.344 Y110.435 E19.1255
G1 X137.585 Y110.432 E19.1335
G1 X138.113 Y110.021
G0 X135.593 Y87.954 F10800
G0 X135.943 Y87.049
G0 X137.049 Y86.000
G1 X137.559 Y86.431 E19.1557 F2160
G1 X137.931 Y86.476 E19.1682
G1 X138.216 Y86.573 E19.1782
G1 X138.477 Y86.714 E19.1880
G1 X138.711 Y86.897 E19.1979
G1 X138.909 Y87.117 E19.2077
G1 X139.068 Y87.366 E19.2176
G1 X139.182 Y87.639 E19.2274
G1 X139.248 Y87.928 E19.2372
G1 X139.265 Y88.223 E19.2471
G1 X139.231 Y88.517 E19.2569
G1 X139.148 Y88.800 E19.2667
G1 X139.019 Y89.066 E19.2765
G1 X138.846 Y89.307 E19.2864
G1 X138.635 Y89.515 E19.2962
G1 X138.391 Y89.684 E19.3061
G1 X138.122 Y89.810 E19.3160
G1 X137.836 Y89.889 E19.3259
G1 X137.540 Y89.918 E19.3357
G1 X137.243 Y89.897 E19.3456
G1 X136.955 Y89.826 E19.3555
G1 X136.683 Y89.707 E19.3654
G1 X136.435 Y89.544 E19.3752
G1 X136.218 Y89.342 E19.3851
G1 X136.039 Y89.107 E19.3949
G1 X135.902 Y88.844 E19.4048
G1 X135.812 Y88.563 E19.4146
G1 X135.770 Y88.270 E19.4244
G1 X135.778 Y87.974 E19.4342
G1 X135.837 Y87.685 E19.4441
G1 X135.943 Y87.409 E19.4539
G1 X136.095 Y87.155 E19.4637
G1 X136.288 Y86.929 E19.4736
G1 X136.516 Y86.740 E19.4834
G1 X136.773 Y86.592 E19.4933
G1 X137.056 Y86.488 E19.5033
G1 X137.448 Y86.432 E19.5165
G1 X137.950 Y85.991
G0 F4800 E18.5165
G0 X139.433 Y87.902 F10800
G0 X139.323 Y88.866
G0 X130.877 Y113.713
G0 F4800 E19.5165
;segType:HShell
G1 X107.274 Y90.498 E20.6171 F3600
;segType:Perimeter
G0 X107.206 Y90.402 F10800
G1 X106.789 Y89.883 E20.6392 F2160
G1 X106.555 Y89.826 E20.6472
G1 X106.283 Y89.707 E20.6571
G1 X106.035 Y89.544 E20.6670
G1 X105.818 Y89.342 E20.6768
G1 X105.639 Y89.107 E20.6867
G1 X105.502 Y88.844 E20.6965
G1 X105.412 Y88.563 E20.7063
G1 X105.370 Y88.270 E20.7162
G1 X105.378 Y87.975 E20.7260
G1 X105.437 Y87.685 E20.7358
G1 X105.543 Y87.409 E20.7457
G1 X105.695 Y87.155 E20.7555
G1 X105.888 Y86.929 E20.7654
G1 X106.116 Y86.740 E20.7752
G1 X106.373 Y86.592 E20.7851
G1 X106.652 Y86.489 E20.7950
G1 X106.944 Y86.435 E20.8048
G1 X107.241 Y86.431 E20.8147
G1 X107.535 Y86.477 E20.8246
G1 X107.816 Y86.573 E20.8345
G1 X108.077 Y86.714 E20.8443
G1 X108.310 Y86.897 E20.8542
G1 X108.509 Y87.117 E20.8640
G1 X108.668 Y87.366 E20.8739
G1 X108.782 Y87.639 E20.8837
G1 X108.848 Y87.928 E20.8935
G1 X108.865 Y88.223 E20.9034
G1 X108.831 Y88.516 E20.9132
G1 X108.748 Y88.800 E20.9230
G1 X108.619 Y89.066 E20.9329
G1 X108.446 Y89.307 E20.9427
G1 X108.235 Y89.515 E20.9525
G1 X107.991 Y89.684 E20.9624
G1 X107.722 Y89.810 E20.9723
G1 X107.436 Y89.889 E20.9822
G1 X107.140 Y89.918 E20.9921
G1 X106.900 Y89.901 E21.0001
G1 X106.338 Y90.265
;segType:HShell
G0 X106.877 Y109.860 F10800
G1 X101.934 Y104.998 E21.2306 F3600
G1 X101.934 Y104.478
G1 X107.413 Y109.867 E21.4861
;segType:Perimeter
G0 X106.649 Y110.001 F10800
G1 X107.159 Y110.431 E21.5083 F2160
G1 X107.531 Y110.476 E21.5207
G1 X107.816 Y110.572 E21.5307
G1 X108.078 Y110.714 E21.5406
G1 X108.310 Y110.897 E21.5504
G1 X108.509 Y111.117 E21.5603
G1 X108.668 Y111.367 E21.5701
G1 X108.782 Y111.640 E21.5800
G1 X108.848 Y111.928 E21.5898
G1 X108.865 Y112.223 E21.5996
G1 X108.831 Y112.516 E21.6094
G1 X108.748 Y112.800 E21.6193
G1 X108.619 Y113.066 E21.6291
G1 X108.446 Y113.307 E21.6389
G1 X108.235 Y113.515 E21.6488
G1 X107.991 Y113.684 E21.6587
G1 X107.722 Y113.810 E21.6685
G1 X107.436 Y113.889 E21.6784
G1 X107.140 Y113.918 E21.6883
G1 X106.844 Y113.897 E21.6982
G1 X106.555 Y113.826 E21.7081
G1 X106.283 Y113.707 E21.7179
G1 X106.035 Y113.545 E21.7278
G1 X105.818 Y113.342 E21.7376
G1 X105.639 Y113.106 E21.7475
G1 X105.502 Y112.844 E21.7573
G1 X105.412 Y112.563 E21.7672
G1 X105.370 Y112.270 E21.7770
G1 X105.378 Y111.974 E21.7868
G1 X105.437 Y111.685 E21.7966
G1 X105.543 Y111.409 E21.8065
G1 X105.695 Y111.155 E21.8163
G1 X105.888 Y110.930 E21.8262
G1 X106.116 Y110.740 E21.8360
G1 X106.373 Y110.592 E21.8459
G1 X106.656 Y110.488 E21.8559
G1 X107.048 Y110.432 E21.8691
G1 X107.550 Y109.991
;segType:HShell
G0 X106.430 Y109.941 F10800
G1 X101.934 Y105.518 E22.0787 F3600
G1 X101.934 Y106.038
G1 X106.055 Y110.091 E22.2709
G1 X105.728 Y110.290
G1 X101.934 Y106.558 E22.4479
G1 X101.934 Y107.077
G1 X105.445 Y110.531 E22.6116
G1 X105.203 Y110.813
G1 X101.934 Y107.597 E22.7640
G1 X101.934 Y108.117
G1 X105.008 Y111.140 E22.9074
G1 X104.860 Y111.515
G1 X101.934 Y108.637 E23.0438
G1 X101.934 Y109.157
G1 X104.779 Y111.955 E23.1765
G1 X104.796 Y112.491
G1 X101.934 Y109.676 E23.3099
G1 X101.934 Y110.196
G1 X105.040 Y113.251 E23.4548
G1 X104.981 Y113.713
G1 X101.934 Y110.716 E23.5969
G1 X101.934 Y111.236
G1 X104.452 Y113.713 E23.7143
G1 X103.924 Y113.713
G1 X101.934 Y111.756 E23.8071
G1 X101.934 Y112.275
G1 X103.395 Y113.713 E23.8753
G1 X102.867 Y113.713
G1 X101.934 Y112.795 E23.9188
G1 X101.934 Y113.315
G1 X102.338 Y113.713 E23.9377
G0 X107.471 Y114.069 F10800
G0 X109.021 Y113.529
G1 X109.209 Y113.713 E23.9464 F3600
G1 X109.737 Y113.713
G1 X109.218 Y113.202 E23.9706
G1 X109.365 Y112.827
G1 X110.266 Y113.713 E24.0127
G1 X110.794 Y113.713
G1 X109.449 Y112.390 E24.0754
G1 X109.446 Y111.867
G1 X111.323 Y113.713 E24.1629
G1 X111.851 Y113.713
G1 X109.213 Y111.118 E24.2859
G0 X108.165 Y110.088 F10800
G1 X101.934 Y103.959 E24.5765 F3600
G1 X101.934 Y103.439
G1 X112.380 Y113.713 E25.0636
G1 X112.908 Y113.713
G1 X101.934 Y102.919 E25.5753
G1 X101.934 Y102.399
G1 X113.437 Y113.713 E26.1117
G1 X113.965 Y113.713
G1 X101.934 Y101.879 E26.6727
G1 X101.934 Y101.360
G1 X114.494 Y113.713 E27.2584
G1 X115.022 Y113.713
G1 X101.934 Y100.840 E27.8687
G1 X101.934 Y100.320
G1 X115.551 Y113.713 E28.5036
G1 X116.079 Y113.713
G1 X101.934 Y99.800 E29.1632
G1 X101.934 Y99.280
G1 X116.608 Y113.713 E29.8474
G1 X117.136 Y113.713
G1 X101.934 Y98.761 E30.5563
G1 X101.934 Y98.241
G1 X117.665 Y113.713 E31.2898
G1 X118.193 Y113.713
G1 X101.934 Y97.721 E32.0480
G1 X101.934 Y97.201
G1 X118.722 Y113.713 E32.8308
G1 X119.250 Y113.713
G1 X101.934 Y96.681 E33.6382
G1 X101.934 Y96.162
G1 X119.779 Y113.713 E34.4703
G1 X120.307 Y113.713
G1 X101.934 Y95.642 E35.3271
G1 X101.934 Y95.122
G1 X120.836 Y113.713 E36.2084
G1 X121.364 Y113.713
G1 X101.934 Y94.602 E37.1145
G1 X101.934 Y94.082
G1 X121.893 Y113.713 E38.0451
G1 X122.421 Y113.713
G1 X101.934 Y93.563 E39.0004
G1 X101.934 Y93.043
G1 X122.950 Y113.713 E39.9804
G1 X123.478 Y113.713
G1 X101.934 Y92.523 E40.9849
G1 X101.934 Y92.003
G1 X124.007 Y113.713 E42.0142
G1 X124.535 Y113.713
G1 X101.934 Y91.483 E43.0681
G1 X101.934 Y90.964
G1 X125.064 Y113.713 E44.1466
G1 X125.592 Y113.713
G1 X101.934 Y90.444 E45.2497
G1 X101.934 Y89.924
G1 X126.121 Y113.713 E46.3775
G1 X126.649 Y113.713
G1 X101.934 Y89.404 E47.5300
G1 X101.934 Y88.884
G1 X127.178 Y113.713 E48.7071
G1 X127.706 Y113.713
G1 X101.934 Y88.365 E49.9088
G1 X101.934 Y87.845
G1 X128.235 Y113.713 E51.1352
G1 X128.763 Y113.713
G1 X101.934 Y87.325 E52.3862
G1 X101.934 Y86.805
G1 X129.292 Y113.713 E53.6619
G1 X129.820 Y113.713
G1 X105.836 Y90.123 E54.7802
G0 X105.148 Y89.447 F10800
G1 X101.935 Y86.287 E54.9300 F3600
G1 X102.464 Y86.287
G1 X104.810 Y88.595 E55.0394
G1 X104.776 Y88.042
G1 X102.992 Y86.287 E55.1226
G1 X103.521 Y86.287
G1 X104.844 Y87.589 E55.1843
G1 X104.981 Y87.203
G1 X104.049 Y86.287 E55.2278
G1 X104.578 Y86.287
G1 X105.170 Y86.869 E55.2554
G1 X105.403 Y86.579
G1 X105.106 Y86.287 E55.2692
G0 X105.329 Y88.914 F10800
G0 X105.918 Y89.688
G0 X107.725 Y90.422
G1 X131.406 Y113.713 E56.3734 F3600
G1 X131.934 Y113.713
G1 X108.111 Y90.282 E57.4843
G1 X108.446 Y90.091
G1 X132.463 Y113.713 E58.6042
G1 X132.991 Y113.713
G1 X108.736 Y89.857 E59.7351
G1 X108.984 Y89.581
G1 X133.520 Y113.713 E60.8792
G1 X134.048 Y113.713
G1 X109.188 Y89.262 E62.0384
G1 X109.345 Y88.896
G1 X134.577 Y113.713 E63.2149
G1 X135.105 Y113.713
G1 X109.440 Y88.470 E64.4116
G1 X109.451 Y87.961
G1 X135.634 Y113.713 E65.6325
G0 X137.543 Y114.102 F10800
G0 X143.792 Y113.940
G1 X151.695 Y121.713 E66.0010 F3600
G1 X151.166 Y121.713
G1 X143.792 Y114.460 E66.3449
G1 X143.792 Y114.979
G1 X150.638 Y121.713 E66.6641
G1 X150.109 Y121.713
G1 X143.792 Y115.499 E66.9587
G1 X143.792 Y116.019
G1 X149.581 Y121.713 E67.2287
G1 X149.052 Y121.713
G1 X143.792 Y116.539 E67.4740
G1 X143.792 Y117.059
G1 X148.524 Y121.713 E67.6947
G1 X147.995 Y121.713
G1 X143.792 Y117.578 E67.8907
G1 X143.792 Y118.098
G1 X147.467 Y121.713 E68.0621
G1 X146.938 Y121.713
G1 X143.792 Y118.618 E68.2088
G1 X143.792 Y119.138
G1 X146.410 Y121.713 E68.3309
G1 X145.881 Y121.713
G1 X143.792 Y119.658 E68.4283
G1 X143.792 Y120.177
G1 X145.353 Y121.713 E68.5011
G1 X144.824 Y121.713
G1 X143.792 Y120.697 E68.5493
G1 X143.792 Y121.217
G1 X144.296 Y121.713 E68.5728
G0 X149.767 Y113.579 F10800
G1 X122.018 Y86.287 E69.8667 F3600
G1 X122.547 Y86.287
G1 X149.593 Y112.889 E71.1278
G1 X149.570 Y112.346
G1 X123.075 Y86.287 E72.3633
G1 X123.604 Y86.287
G1 X149.632 Y111.887 E73.5769
G1 X149.750 Y111.483
G1 X124.132 Y86.287 E74.7714
G1 X124.661 Y86.287
G1 X149.909 Y111.120 E75.9487
G1 X150.105 Y110.793
G1 X125.189 Y86.287 E77.1105
G1 X125.718 Y86.287
G1 X150.346 Y110.510 E78.2589
G1 X150.616 Y110.255
G1 X126.246 Y86.287 E79.3952
G1 X126.775 Y86.287
G1 X150.915 Y110.031 E80.5209
G1 X151.248 Y109.838
G1 X127.303 Y86.287 E81.6374
G1 X127.832 Y86.287
G1 X151.632 Y109.696 E82.7471
G1 X152.061 Y109.598
G1 X128.360 Y86.287 E83.8523
G1 X128.889 Y86.287
G1 X152.554 Y109.563 E84.9557
G1 X153.148 Y109.627
G1 X129.417 Y86.287 E86.0623
G1 X129.946 Y86.287
G1 X154.034 Y109.979 E87.1855
G0 X151.853 Y110.049 F10800
G0 X139.526 Y113.383
G1 X139.862 Y113.713 E87.2011 F3600
G1 X140.390 Y113.713
G1 X139.700 Y113.034 E87.2333
G1 X139.821 Y112.634
G1 X140.919 Y113.713 E87.2845
G1 X141.447 Y113.713
G1 X139.862 Y112.154 E87.3584
G1 X139.776 Y111.550
G1 X141.976 Y113.713 E87.4610
G1 X142.504 Y113.713
G1 X114.619 Y86.287 E88.7612
G1 X115.148 Y86.287
G1 X143.033 Y113.713 E90.0614
G1 X143.561 Y113.713
G1 X115.676 Y86.287 E91.3617
G1 X116.205 Y86.287
G1 X152.223 Y121.713 E93.0412
G1 X152.752 Y121.713
G1 X116.733 Y86.287 E94.7207
G1 X117.262 Y86.287
G1 X153.280 Y121.713 E96.4001
G1 X153.809 Y121.713
G1 X117.790 Y86.287 E98.0796
G1 X118.319 Y86.287
G1 X154.337 Y121.713 E99.7591
G1 X154.866 Y121.713
G1 X118.847 Y86.287 E101.4386
G1 X119.376 Y86.287
G1 X155.394 Y121.713 E103.1181
G1 X155.923 Y121.713
G1 X119.904 Y86.287 E104.7976
G1 X120.433 Y86.287
G1 X156.451 Y121.713 E106.4771
G1 X156.980 Y121.713
G1 X120.961 Y86.287 E108.1566
G1 X121.490 Y86.287
G1 X157.508 Y121.713 E109.8361
G1 X158.037 Y121.713
G1 X151.460 Y115.244 E110.1427
G1 X152.165 Y115.418
G1 X158.066 Y121.222 E110.4179
G1 X158.066 Y120.702
G1 X152.707 Y115.431 E110.6678
G1 X153.169 Y115.366
G1 X158.066 Y120.183 E110.8961
G1 X158.066 Y119.663
G1 X153.577 Y115.247 E111.1054
G1 X153.936 Y115.080
G1 X158.066 Y119.143 E111.2980
G1 X158.066 Y118.623
G1 X154.253 Y114.873 E111.4758
G1 X154.541 Y114.636
G1 X158.066 Y118.103 E111.6402
G1 X158.066 Y117.584
G1 X154.798 Y114.369 E111.7926
G1 X155.018 Y114.065
G1 X158.066 Y117.064 E111.9348
G1 X158.066 Y116.544
G1 X155.198 Y113.723 E112.0685
G1 X155.341 Y113.344
G1 X158.066 Y116.024 E112.1956
G1 X158.066 Y115.504
G1 X155.437 Y112.918 E112.3182
G1 X155.466 Y112.427
G1 X158.066 Y114.985 E112.4395
G1 X158.066 Y114.465
G1 X155.388 Y111.830 E112.5644
G0 X155.021 Y110.949 F10800
G1 X158.066 Y113.945 E112.7064 F3600
G1 X158.066 Y113.425
G1 X130.474 Y86.287 E113.9930
G1 X131.003 Y86.287
G1 X158.066 Y112.905 E115.2549
G1 X158.066 Y112.386
G1 X131.531 Y86.287 E116.4922
G1 X132.060 Y86.287
G1 X158.066 Y111.866 E117.7048
G1 X158.066 Y111.346
G1 X136.752 Y90.383 E118.6987
G1 X137.400 Y90.500
G1 X158.066 Y110.826 E119.6623
G1 X158.066 Y110.306
G1 X137.904 Y90.475 E120.6025
G1 X138.323 Y90.368
G1 X158.066 Y109.787 E121.5231
G1 X158.066 Y109.267
G1 X138.682 Y90.201 E122.4269
G1 X138.993 Y89.988
G1 X158.066 Y108.747 E123.3163
G1 X158.066 Y108.227
G1 X139.262 Y89.732 E124.1931
G1 X139.488 Y89.435
G1 X158.066 Y107.707 E125.0594
G1 X158.066 Y107.188
G1 X139.670 Y89.094 E125.9171
G1 X139.801 Y88.703
G1 X158.066 Y106.668 E126.7688
G1 X158.066 Y106.148
G1 X139.866 Y88.247 E127.6175
G1 X139.803 Y87.665
G1 X158.066 Y105.628 E128.4691
G1 X158.066 Y105.108
G1 X139.218 Y86.570 E129.3479
G1 X139.458 Y86.287
G1 X158.066 Y104.589 E130.2156
G1 X158.066 Y104.069
G1 X139.987 Y86.287 E131.0586
G1 X140.515 Y86.287
G1 X158.066 Y103.549 E131.8769
G1 X158.066 Y103.029
G1 X141.044 Y86.287 E132.6707
G1 X141.572 Y86.287
G1 X158.066 Y102.509 E133.4397
G1 X158.066 Y101.990
G1 X142.101 Y86.287 E134.1842
G1 X142.629 Y86.287
G1 X158.066 Y101.470 E134.9040
G0 X152.111 Y90.415 F10800
G1 X158.066 Y96.272 E135.1816 F3600
G1 X158.066 Y95.752
G1 X152.662 Y90.436 E135.4336
G1 X153.130 Y90.377
G1 X158.066 Y95.232 E135.6638
G1 X158.066 Y94.712
G1 X153.543 Y90.263 E135.8747
G1 X153.901 Y90.096
G1 X158.066 Y94.193 E136.0689
G1 X158.066 Y93.673
G1 X154.224 Y89.894 E136.2481
G1 X154.516 Y89.661
G1 X158.066 Y93.153 E136.4137
G1 X158.066 Y92.633
G1 X154.778 Y89.399 E136.5670
G1 X154.997 Y89.094
G1 X158.066 Y92.113 E136.7101
G1 X158.066 Y91.594
G1 X155.182 Y88.756 E136.8446
G1 X155.330 Y88.382
G1 X158.066 Y91.074 E136.9722
G1 X158.066 Y90.554
G1 X155.431 Y87.962 E137.0951
G1 X155.469 Y87.479
G1 X158.066 Y90.034 E137.2162
G1 X158.066 Y89.514
G1 X155.402 Y86.894 E137.3404
G1 X155.104 Y86.081
G1 X158.066 Y88.995 E137.4786
G1 X158.066 Y88.475
G1 X147.708 Y78.287 E137.9616
G1 X148.237 Y78.287
G1 X158.066 Y87.955 E138.4199
G1 X158.066 Y87.435
G1 X148.765 Y78.287 E138.8536
G1 X149.294 Y78.287
G1 X158.066 Y86.915 E139.2627
G1 X158.066 Y86.396
G1 X149.822 Y78.287 E139.6471
G1 X150.351 Y78.287
G1 X158.066 Y85.876 E140.0069
G1 X158.066 Y85.356
G1 X150.879 Y78.287 E140.3420
G1 X151.408 Y78.287
G1 X158.066 Y84.836 E140.6525
G1 X158.066 Y84.316
G1 X151.936 Y78.287 E140.9383
G1 X152.465 Y78.287
G1 X158.066 Y83.797 E141.1995
G1 X158.066 Y83.277
G1 X152.993 Y78.287 E141.4361
G1 X153.522 Y78.287
G1 X158.066 Y82.757 E141.6480
G1 X158.066 Y82.237
G1 X154.050 Y78.287 E141.8353
G1 X154.579 Y78.287
G1 X158.066 Y81.717 E141.9979
G1 X158.066 Y81.198
G1 X155.107 Y78.287 E142.1359
G1 X155.636 Y78.287
G1 X158.066 Y80.678 E142.2492
G1 X158.066 Y80.158
G1 X156.164 Y78.287 E142.3379
G1 X156.693 Y78.287
G1 X158.066 Y79.638 E142.4020
G1 X158.066 Y79.118
G1 X157.221 Y78.287 E142.4414
G1 X157.750 Y78.287
G1 X158.066 Y78.598 E142.4562
G0 X153.924 Y84.920 F10800
G1 X147.180 Y78.287 E142.7706 F3600
G1 X146.651 Y78.287
G1 X153.088 Y84.618 E143.0708
G1 X152.505 Y84.564
G1 X146.123 Y78.287 E143.3684
G1 X145.594 Y78.287
G1 X152.019 Y84.606 E143.6679
G1 X151.595 Y84.709
G1 X145.066 Y78.287 E143.9724
G1 X144.537 Y78.287
G1 X151.217 Y84.857 E144.2839
G1 X150.884 Y85.049
G1 X144.009 Y78.287 E144.6044
G1 X143.792 Y78.593
G1 X150.591 Y85.281 E144.9215
G1 X150.322 Y85.536
G1 X143.792 Y79.113 E145.2260
G1 X143.792 Y79.633
G1 X150.086 Y85.824 E145.5195
G1 X149.891 Y86.151
G1 X143.792 Y80.153 E145.8039
G1 X143.792 Y80.672
G1 X149.736 Y86.519 E146.0811
G1 X149.624 Y86.928
G1 X143.792 Y81.192 E146.3530
G1 X143.792 Y81.712
G1 X149.569 Y87.394 E146.6224
G1 X149.602 Y87.946
G1 X143.792 Y82.232 E146.8933
G1 X143.792 Y82.752
G1 X149.798 Y88.660 E147.1734
G0 X151.370 Y90.205 F10800
G1 X158.066 Y96.792 E147.4857 F3600
G1 X158.066 Y97.311
G1 X143.792 Y83.271 E148.1513
G1 X143.792 Y83.791
G1 X158.066 Y97.831 E148.8169
G1 X158.066 Y98.351
G1 X143.792 Y84.311 E149.4825
G1 X143.792 Y84.831
G1 X158.066 Y98.871 E150.1481
G1 X158.066 Y99.391
G1 X143.792 Y85.351 E150.8137
G1 X143.792 Y85.870
G1 X158.066 Y99.910 E151.4793
G1 X158.066 Y100.430
G1 X143.686 Y86.287 E152.1498
G0 X139.068 Y86.422 F10800
G1 X138.930 Y86.287 E152.1562 F3600
G0 X135.759 Y86.287 F10800
G1 X135.930 Y86.455 E152.1642 F3600
G1 X135.678 Y86.727
G1 X135.231 Y86.287 E152.1850
G1 X134.702 Y86.287
G1 X135.468 Y87.040 E152.2207
G1 X135.305 Y87.400
G1 X134.174 Y86.287 E152.2735
G1 X133.645 Y86.287
G1 X135.199 Y87.815 E152.3459
G1 X135.169 Y88.306
G1 X133.117 Y86.287 E152.4417
G1 X132.588 Y86.287
G1 X135.312 Y88.966 E152.5687
G0 X114.091 Y86.287 F10800
G1 X138.112 Y109.913 E153.6887 F3600
G0 X137.034 Y109.892 F10800
G1 X113.034 Y86.287 E154.8078 F3600
G1 X112.505 Y86.287
G1 X136.630 Y110.015 E155.9327
G1 X136.281 Y110.191
G1 X111.977 Y86.287 E157.0660
G1 X111.448 Y86.287
G1 X135.979 Y110.414 E158.2098
G1 X135.719 Y110.678
G1 X110.920 Y86.287 E159.3662
G1 X110.391 Y86.287
G1 X135.501 Y110.984 E160.5370
G1 X135.330 Y111.335
G1 X109.863 Y86.287 E161.7245
G1 X109.334 Y86.287
G1 X135.214 Y111.741 E162.9312
G1 X135.171 Y112.218
G1 X108.806 Y86.287 E164.1606
G0 X109.276 Y87.270 F10800
G1 X135.270 Y112.836 E165.3726 F3600
G0 X130.349 Y113.713 F10800
G1 X106.722 Y90.475 E166.4743 F3600
; ------------------------------------
; Layer #2
; ------------------------------------
G21 ; mm
G90 ; abs
G92 E0 ; reset extr
M106 S0
G0 F4800 E-1.0000
G0 F300 Z0.600
G0 X138.333 Y90.320 F10800
G0 X139.399 Y89.559
G0 F4800 E0.0000
;segType:HShell
G1 X142.726 Y86.287 E0.1551 F3600
;segType:Loop
G0 X143.592 Y84.686 F10800
G1 X143.592 Y78.090 E0.3744 F3600
G1 X158.266 Y78.090 E0.8622
G1 X158.266 Y121.910 E2.3189
G1 X143.592 Y121.910 E2.8068
G1 X143.592 Y113.910 E3.0727
G1 X138.758 Y113.910 E3.2334
G1 X138.904 Y113.807 E3.2394
G1 X139.162 Y113.550 E3.2514
G1 X139.372 Y113.253 E3.2635
G1 X139.528 Y112.927 E3.2756
G1 X139.627 Y112.579 E3.2876
G1 X139.666 Y112.220 E3.2996
G1 X139.643 Y111.859 E3.3116
G1 X139.560 Y111.507 E3.3236
G1 X139.418 Y111.174 E3.3357
G1 X139.221 Y110.869 E3.3477
G1 X138.975 Y110.601 E3.3598
G1 X138.688 Y110.378 E3.3719
G1 X138.365 Y110.206 E3.3841
G1 X138.018 Y110.091 E3.3962
G1 X137.656 Y110.037 E3.4084
G1 X137.290 Y110.045 E3.4206
G1 X136.930 Y110.113 E3.4328
G1 X136.588 Y110.243 E3.4449
G1 X136.273 Y110.427 E3.4570
G1 X135.994 Y110.661 E3.4691
G1 X135.760 Y110.939 E3.4812
G1 X135.576 Y111.251 E3.4933
G1 X135.448 Y111.590 E3.5053
G1 X135.379 Y111.945 E3.5173
G1 X135.371 Y112.306 E3.5293
G1 X135.424 Y112.663 E3.5413
G1 X135.537 Y113.007 E3.5534
G1 X135.707 Y113.328 E3.5654
G1 X135.928 Y113.615 E3.5775
G1 X136.196 Y113.862 E3.5896
G1 X136.271 Y113.910 E3.5926
G1 X108.358 Y113.910 E4.5205
G1 X108.504 Y113.806 E4.5264
G1 X108.762 Y113.550 E4.5385
G1 X108.972 Y113.253 E4.5506
G1 X109.128 Y112.927 E4.5626
G1 X109.227 Y112.579 E4.5746
G1 X109.266 Y112.220 E4.5867
G1 X109.243 Y111.859 E4.5987
G1 X109.159 Y111.507 E4.6107
G1 X109.018 Y111.174 E4.6227
G1 X108.822 Y110.869 E4.6348
G1 X108.576 Y110.601 E4.6469
G1 X108.288 Y110.378 E4.6590
G1 X107.965 Y110.206 E4.6711
G1 X107.609 Y110.088 E4.6836
G1 X107.091 Y110.028 E4.7009
G1 X106.542 Y110.109 E4.7194
G1 X106.188 Y110.242 E4.7320
G1 X105.873 Y110.427 E4.7441
G1 X105.594 Y110.661 E4.7562
G1 X105.360 Y110.939 E4.7683
G1 X105.176 Y111.251 E4.7803
G1 X105.048 Y111.590 E4.7924
G1 X104.979 Y111.945 E4.8044
G1 X104.971 Y112.306 E4.8164
G1 X105.024 Y112.663 E4.8284
G1 X105.137 Y113.007 E4.8404
G1 X105.307 Y113.328 E4.8525
G1 X105.528 Y113.615 E4.8646
G1 X105.796 Y113.862 E4.8767
G1 X105.871 Y113.910 E4.8796
G1 X101.734 Y113.910 E5.0172
G1 X101.734 Y86.090 E5.9420
G1 X106.652 Y86.090 E6.1055
G1 X106.530 Y86.114 E6.1096
G1 X106.188 Y86.242 E6.1218
G1 X105.873 Y86.427 E6.1339
G1 X105.594 Y86.661 E6.1460
G1 X105.360 Y86.939 E6.1581
G1 X105.176 Y87.251 E6.1701
G1 X105.048 Y87.590 E6.1822
G1 X104.979 Y87.945 E6.1942
G1 X104.971 Y88.306 E6.2062
G1 X105.024 Y88.663 E6.2182
G1 X105.137 Y89.007 E6.2302
G1 X105.307 Y89.328 E6.2423
G1 X105.528 Y89.615 E6.2544
G1 X105.796 Y89.861 E6.2665
G1 X106.103 Y90.059 E6.2786
G1 X106.439 Y90.203 E6.2907
G1 X106.795 Y90.288 E6.3029
G1 X107.160 Y90.312 E6.3151
G1 X107.524 Y90.274 E6.3272
G1 X107.877 Y90.174 E6.3394
G1 X108.207 Y90.017 E6.3516
G1 X108.504 Y89.806 E6.3637
G1 X108.762 Y89.550 E6.3758
G1 X108.972 Y89.254 E6.3879
G1 X109.128 Y88.927 E6.3999
G1 X109.227 Y88.579 E6.4119
G1 X109.266 Y88.220 E6.4239
G1 X109.243 Y87.859 E6.4359
G1 X109.159 Y87.507 E6.4480
G1 X109.017 Y87.174 E6.4600
G1 X108.822 Y86.869 E6.4720
G1 X108.576 Y86.601 E6.4841
G1 X108.288 Y86.378 E6.4963
G1 X107.965 Y86.206 E6.5084
G1 X107.618 Y86.091 E6.5206
G1 X107.610 Y86.090 E6.5208
G1 X137.070 Y86.090 E7.5002
G1 X136.942 Y86.109 E7.5045
G1 X136.588 Y86.242 E7.5170
G1 X136.273 Y86.427 E7.5292
G1 X135.994 Y86.661 E7.5413
G1 X135.759 Y86.939 E7.5534
G1 X135.576 Y87.252 E7.5654
G1 X135.448 Y87.590 E7.5775
G1 X135.379 Y87.945 E7.5895
G1 X135.371 Y88.306 E7.6015
G1 X135.424 Y88.663 E7.6135
G1 X135.537 Y89.007 E7.6255
G1 X135.707 Y89.327 E7.6376
G1 X135.928 Y89.615 E7.6496
G1 X136.196 Y89.861 E7.6617
G1 X136.503 Y90.059 E7.6739
G1 X136.839 Y90.203 E7.6860
G1 X137.195 Y90.288 E7.6982
G1 X137.560 Y90.312 E7.7104
G1 X137.924 Y90.274 E7.7225
G1 X138.276 Y90.174 E7.7347
G1 X138.606 Y90.017 E7.7468
G1 X138.904 Y89.807 E7.7590
G1 X139.162 Y89.550 E7.7711
G1 X139.372 Y89.253 E7.7831
G1 X139.528 Y88.927 E7.7952
G1 X139.627 Y88.579 E7.8072
G1 X139.666 Y88.220 E7.8192
G1 X139.643 Y87.859 E7.8312
G1 X139.560 Y87.507 E7.8432
G1 X139.418 Y87.174 E7.8553
G1 X139.221 Y86.869 E7.8673
G1 X138.975 Y86.601 E7.8794
G1 X138.687 Y86.378 E7.8915
G1 X138.365 Y86.206 E7.9037
G1 X138.014 Y86.090 E7.9160
G1 X143.592 Y86.090 E8.1014
G1 X143.592 Y84.870 E8.1419
;segType:Perimeter
G0 X142.934 Y86.253 F10800
G1 X143.191 Y85.642 E8.1640 F2160
G1 X143.191 Y77.697 E8.4281
G1 X158.666 Y77.697 E8.9425
G1 X158.666 Y122.303 E10.4254
G1 X143.191 Y122.303 E10.9399
G1 X143.191 Y114.303 E11.2058
G1 X101.334 Y114.303 E12.5973
G1 X101.334 Y85.697 E13.5483
G1 X143.135 Y85.697 E14.9379
G1 X143.757 Y85.444
;segType:HShell
G0 X121.711 Y113.713 F10800
G1 X150.148 Y85.744 E16.2639 F3600
;segType:Perimeter
G0 X150.534 Y85.480 F10800
G1 X151.203 Y85.551 E16.2862 F2160
G1 X151.501 Y85.377 E16.2977
G1 X151.875 Y85.236 E16.3110
G1 X152.269 Y85.160 E16.3243
G1 X152.669 Y85.152 E16.3376
G1 X153.065 Y85.211 E16.3509
G1 X153.444 Y85.337 E16.3642
G1 X153.797 Y85.525 E16.3775
G1 X154.113 Y85.770 E16.3908
G1 X154.387 Y86.069 E16.4043
G1 X154.599 Y86.399 E16.4174
G1 X154.755 Y86.766 E16.4306
G1 X154.847 Y87.154 E16.4439
G1 X154.872 Y87.552 E16.4571
G1 X154.830 Y87.948 E16.4704
G1 X154.721 Y88.332 E16.4836
G1 X154.548 Y88.692 E16.4969
G1 X154.317 Y89.017 E16.5101
G1 X154.035 Y89.299 E16.5234
G1 X153.708 Y89.530 E16.5367
G1 X153.347 Y89.702 E16.5500
G1 X152.962 Y89.811 E16.5633
G1 X152.564 Y89.853 E16.5766
G1 X152.165 Y89.827 E16.5899
G1 X151.776 Y89.734 E16.6032
G1 X151.408 Y89.577 E16.6165
G1 X151.072 Y89.359 E16.6298
G1 X150.778 Y89.089 E16.6431
G1 X150.534 Y88.773 E16.6564
G1 X150.348 Y88.420 E16.6696
G1 X150.223 Y88.042 E16.6829
G1 X150.165 Y87.647 E16.6961
G1 X150.173 Y87.249 E16.7094
G1 X150.249 Y86.858 E16.7226
G1 X150.391 Y86.485 E16.7359
G1 X150.593 Y86.141 E16.7491
G1 X150.818 Y85.873 E16.7608
G1 X151.113 Y85.616 E16.7738
G1 X151.248 Y84.968
;segType:Loop
G0 X152.019 Y84.807 F10800
G1 X152.226 Y84.767 E16.7808 F3600
G1 X152.695 Y84.758 E16.7964
G1 X153.159 Y84.828 E16.8120
G1 X153.604 Y84.975 E16.8276
G1 X154.018 Y85.195 E16.8432
G1 X154.387 Y85.481 E16.8587
G1 X154.708 Y85.831 E16.8744
G1 X154.955 Y86.217 E16.8897
G1 X155.138 Y86.645 E16.9052
G1 X155.244 Y87.097 E16.9206
G1 X155.274 Y87.561 E16.9361
G1 X155.224 Y88.022 E16.9515
G1 X155.097 Y88.469 E16.9669
G1 X154.896 Y88.889 E16.9824
G1 X154.626 Y89.270 E16.9979
G1 X154.296 Y89.599 E17.0134
G1 X153.913 Y89.869 E17.0290
G1 X153.491 Y90.071 E17.0446
G1 X153.039 Y90.198 E17.0602
G1 X152.573 Y90.247 E17.0758
G1 X152.104 Y90.217 E17.0914
G1 X151.648 Y90.108 E17.1070
G1 X151.217 Y89.924 E17.1225
G1 X150.824 Y89.670 E17.1381
G1 X150.480 Y89.353 E17.1536
G1 X150.195 Y88.984 E17.1691
G1 X149.977 Y88.573 E17.1846
G1 X149.832 Y88.131 E17.2001
G1 X149.764 Y87.672 E17.2155
G1 X149.774 Y87.207 E17.2309
G1 X149.863 Y86.751 E17.2464
G1 X150.028 Y86.316 E17.2618
G1 X150.263 Y85.916 E17.2773
G1 X150.529 Y85.599 E17.2911
G1 X150.918 Y85.260 E17.3082
G1 X151.326 Y85.021 E17.3239
G1 X151.765 Y84.856 E17.3395
G1 X151.835 Y84.842 E17.3419
G0 X154.536 Y85.958 F10800
G0 X155.032 Y87.128
G0 X154.896 Y88.396
G0 X151.414 Y109.988
G1 X151.785 Y109.849 E17.3551 F3600
G1 X152.228 Y109.768 E17.3700
G1 X152.720 Y109.757 E17.3864
G1 X153.163 Y109.829 E17.4013
G1 X153.632 Y109.985 E17.4177
G1 X154.020 Y110.197 E17.4325
G1 X154.387 Y110.481 E17.4479
G1 X154.703 Y110.825 E17.4634
G1 X154.955 Y111.217 E17.4789
G1 X155.137 Y111.645 E17.4944
G1 X155.244 Y112.097 E17.5098
G1 X155.274 Y112.561 E17.5252
G1 X155.224 Y113.022 E17.5407
G1 X155.097 Y113.470 E17.5561
G1 X154.896 Y113.889 E17.5716
G1 X154.626 Y114.269 E17.5871
G1 X154.296 Y114.600 E17.6026
G1 X153.912 Y114.871 E17.6183
G1 X153.491 Y115.071 E17.6338
G1 X153.039 Y115.198 E17.6493
G1 X152.572 Y115.248 E17.6650
G1 X152.104 Y115.217 E17.6806
G1 X151.648 Y115.108 E17.6961
G1 X151.217 Y114.924 E17.7117
G1 X150.840 Y114.681 E17.7266
G1 X150.482 Y114.355 E17.7427
G1 X150.195 Y113.984 E17.7583
G1 X149.978 Y113.573 E17.7738
G1 X149.832 Y113.131 E17.7892
G1 X149.764 Y112.672 E17.8047
G1 X149.774 Y112.207 E17.8201
G1 X149.863 Y111.751 E17.8356
G1 X150.028 Y111.316 E17.8510
G1 X150.263 Y110.915 E17.8665
G1 X150.565 Y110.559 E17.8820
G1 X150.922 Y110.258 E17.8975
G1 X151.246 Y110.068 E17.9100
G0 X150.222 Y111.406 F10800
G0 X149.978 Y112.659
G0 X150.377 Y113.871
G0 X150.742 Y114.707
;segType:Perimeter
G1 X150.745 Y114.045 E17.9320 F2160
G1 X150.534 Y113.773 E17.9435
G1 X150.348 Y113.421 E17.9567
G1 X150.223 Y113.042 E17.9700
G1 X150.165 Y112.647 E17.9832
G1 X150.173 Y112.249 E17.9965
G1 X150.249 Y111.858 E18.0097
G1 X150.391 Y111.485 E18.0230
G1 X150.593 Y111.141 E18.0363
G1 X150.851 Y110.836 E18.0495
G1 X151.156 Y110.578 E18.0628
G1 X151.501 Y110.376 E18.0761
G1 X151.894 Y110.229 E18.0901
G1 X152.269 Y110.160 E18.1027
G1 X152.692 Y110.151 E18.1168
G1 X153.066 Y110.212 E18.1294
G1 X153.469 Y110.346 E18.1435
G1 X153.798 Y110.526 E18.1560
G1 X154.113 Y110.770 E18.1692
G1 X154.383 Y111.064 E18.1825
G1 X154.599 Y111.399 E18.1958
G1 X154.755 Y111.766 E18.2090
G1 X154.847 Y112.154 E18.2223
G1 X154.872 Y112.552 E18.2355
G1 X154.830 Y112.948 E18.2488
G1 X154.721 Y113.332 E18.2620
G1 X154.548 Y113.692 E18.2753
G1 X154.317 Y114.017 E18.2886
G1 X154.035 Y114.300 E18.3018
G1 X153.706 Y114.531 E18.3152
G1 X153.347 Y114.702 E18.3284
G1 X152.962 Y114.811 E18.3417
G1 X152.564 Y114.853 E18.3550
G1 X152.165 Y114.827 E18.3683
G1 X151.776 Y114.734 E18.3816
G1 X151.408 Y114.577 E18.3949
G1 X151.087 Y114.370 E18.4076
G1 X150.820 Y114.127 E18.4196
G1 X150.150 Y114.066
;segType:HShell
G0 X158.066 Y89.392 F10800
G1 X137.267 Y109.849 E19.3895 F3600
;segType:Perimeter
G0 X137.220 Y109.961 F10800
G1 X137.685 Y110.439 E19.4116 F2160
G1 X137.923 Y110.475 E19.4196
G1 X138.205 Y110.569 E19.4295
G1 X138.467 Y110.708 E19.4394
G1 X138.701 Y110.889 E19.4492
G1 X138.902 Y111.108 E19.4591
G1 X139.062 Y111.357 E19.4689
G1 X139.178 Y111.629 E19.4787
G1 X139.246 Y111.916 E19.4886
G1 X139.264 Y112.211 E19.4984
G1 X139.233 Y112.505 E19.5082
G1 X139.152 Y112.789 E19.5180
G1 X139.024 Y113.056 E19.5279
G1 X138.853 Y113.297 E19.5377
G1 X138.643 Y113.507 E19.5476
G1 X138.401 Y113.678 E19.5574
G1 X138.133 Y113.805 E19.5673
G1 X137.847 Y113.886 E19.5771
G1 X137.552 Y113.917 E19.5870
G1 X137.255 Y113.898 E19.5969
G1 X136.967 Y113.829 E19.6068
G1 X136.694 Y113.712 E19.6166
G1 X136.445 Y113.551 E19.6265
G1 X136.227 Y113.350 E19.6364
G1 X136.046 Y113.116 E19.6462
G1 X135.907 Y112.855 E19.6560
G1 X135.815 Y112.574 E19.6659
G1 X135.772 Y112.282 E19.6757
G1 X135.778 Y111.986 E19.6855
G1 X135.834 Y111.696 E19.6953
G1 X135.939 Y111.420 E19.7052
G1 X136.089 Y111.165 E19.7150
G1 X136.280 Y110.938 E19.7248
G1 X136.507 Y110.748 E19.7347
G1 X136.763 Y110.598 E19.7445
G1 X137.041 Y110.493 E19.7544
G1 X137.332 Y110.437 E19.7643
G1 X137.573 Y110.432 E19.7723
G1 X138.098 Y110.018
G0 X135.592 Y87.967 F10800
G0 X135.935 Y87.060
G0 X137.040 Y86.004
G1 X137.553 Y86.431 E19.7945 F2160
G1 X137.920 Y86.474 E19.8068
G1 X138.205 Y86.568 E19.8168
G1 X138.467 Y86.708 E19.8266
G1 X138.701 Y86.889 E19.8365
G1 X138.902 Y87.108 E19.8463
G1 X139.062 Y87.356 E19.8562
G1 X139.178 Y87.628 E19.8660
G1 X139.246 Y87.916 E19.8758
G1 X139.264 Y88.211 E19.8857
G1 X139.233 Y88.505 E19.8955
G1 X139.152 Y88.789 E19.9053
G1 X139.024 Y89.056 E19.9151
G1 X138.853 Y89.297 E19.9250
G1 X138.643 Y89.507 E19.9348
G1 X138.401 Y89.678 E19.9447
G1 X138.133 Y89.805 E19.9546
G1 X137.847 Y89.886 E19.9644
G1 X137.552 Y89.917 E19.9743
G1 X137.255 Y89.898 E19.9842
G1 X136.967 Y89.829 E19.9940
G1 X136.694 Y89.712 E20.0039
G1 X136.445 Y89.551 E20.0138
G1 X136.227 Y89.350 E20.0236
G1 X136.046 Y89.116 E20.0335
G1 X135.907 Y88.855 E20.0433
G1 X135.815 Y88.574 E20.0531
G1 X135.772 Y88.282 E20.0630
G1 X135.778 Y87.986 E20.0728
G1 X135.834 Y87.696 E20.0826
G1 X135.939 Y87.420 E20.0924
G1 X136.089 Y87.165 E20.1023
G1 X136.280 Y86.938 E20.1121
G1 X136.507 Y86.748 E20.1220
G1 X136.763 Y86.598 E20.1318
G1 X137.045 Y86.492 E20.1418
G1 X137.442 Y86.433 E20.1552
G1 X137.941 Y85.990
G0 F4800 E19.1552
G0 X106.752 Y90.480 F10800
G0 F4800 E20.1552
;segType:HShell
G1 X101.934 Y95.220 E20.3799 F3600
G1 X101.934 Y94.700
G1 X106.333 Y90.373 E20.5850
;segType:Perimeter
G0 X107.222 Y90.401 F10800
G1 X106.801 Y89.885 E20.6071 F2160
G1 X106.567 Y89.829 E20.6152
G1 X106.294 Y89.712 E20.6250
G1 X106.044 Y89.551 E20.6349
G1 X105.827 Y89.350 E20.6447
G1 X105.646 Y89.116 E20.6546
G1 X105.507 Y88.855 E20.6644
G1 X105.415 Y88.574 E20.6742
G1 X105.371 Y88.282 E20.6841
G1 X105.378 Y87.986 E20.6939
G1 X105.434 Y87.696 E20.7037
G1 X105.539 Y87.420 E20.7135
G1 X105.689 Y87.165 E20.7234
G1 X105.880 Y86.938 E20.7332
G1 X106.107 Y86.748 E20.7431
G1 X106.363 Y86.598 E20.7529
G1 X106.641 Y86.493 E20.7628
G1 X106.932 Y86.437 E20.7727
G1 X107.229 Y86.431 E20.7825
G1 X107.523 Y86.475 E20.7924
G1 X107.805 Y86.568 E20.8023
G1 X108.067 Y86.708 E20.8122
G1 X108.301 Y86.889 E20.8220
G1 X108.502 Y87.108 E20.8319
G1 X108.662 Y87.356 E20.8417
G1 X108.778 Y87.628 E20.8515
G1 X108.846 Y87.916 E20.8614
G1 X108.864 Y88.211 E20.8712
G1 X108.833 Y88.505 E20.8810
G1 X108.752 Y88.789 E20.8908
G1 X108.624 Y89.056 E20.9007
G1 X108.453 Y89.297 E20.9105
G1 X108.243 Y89.506 E20.9203
G1 X108.001 Y89.678 E20.9302
G1 X107.733 Y89.805 E20.9401
G1 X107.447 Y89.886 E20.9499
G1 X107.152 Y89.917 E20.9598
G1 X106.911 Y89.901 E20.9678
G1 X106.353 Y90.270
;segType:HShell
G0 X130.570 Y86.287 F10800
G1 X106.554 Y109.908 E22.0877 F3600
;segType:Perimeter
G0 X106.640 Y110.003 F10800
G1 X107.153 Y110.431 E22.1099 F2160
G1 X107.520 Y110.474 E22.1222
G1 X107.805 Y110.569 E22.1322
G1 X108.067 Y110.708 E22.1420
G1 X108.301 Y110.889 E22.1519
G1 X108.502 Y111.108 E22.1617
G1 X108.662 Y111.357 E22.1716
G1 X108.778 Y111.629 E22.1814
G1 X108.846 Y111.916 E22.1912
G1 X108.864 Y112.211 E22.2010
G1 X108.833 Y112.505 E22.2109
G1 X108.752 Y112.789 E22.2207
G1 X108.624 Y113.056 E22.2305
G1 X108.453 Y113.297 E22.2404
G1 X108.243 Y113.506 E22.2502
G1 X108.001 Y113.678 E22.2601
G1 X107.733 Y113.805 E22.2699
G1 X107.447 Y113.886 E22.2798
G1 X107.152 Y113.917 E22.2897
G1 X106.856 Y113.898 E22.2995
G1 X106.567 Y113.829 E22.3094
G1 X106.294 Y113.712 E22.3193
G1 X106.044 Y113.551 E22.3292
G1 X105.827 Y113.350 E22.3390
G1 X105.646 Y113.116 E22.3488
G1 X105.507 Y112.855 E22.3587
G1 X105.415 Y112.574 E22.3685
G1 X105.371 Y112.282 E22.3783
G1 X105.378 Y111.986 E22.3882
G1 X105.434 Y111.696 E22.3980
G1 X105.539 Y111.420 E22.4078
G1 X105.689 Y111.165 E22.4176
G1 X105.880 Y110.938 E22.4275
G1 X106.107 Y110.748 E22.4373
G1 X106.363 Y110.598 E22.4472
G1 X106.645 Y110.492 E22.4572
G1 X107.042 Y110.433 E22.4706
G1 X107.541 Y109.990
;segType:HShell
G0 X104.844 Y111.590 F10800
G1 X102.685 Y113.713 E22.5712 F3600
G1 X103.214 Y113.713
G1 X104.774 Y112.179 E22.6440
G1 X104.820 Y112.653
G1 X103.742 Y113.713 E22.6942
G1 X104.271 Y113.713
G1 X104.942 Y113.053 E22.7255
G1 X105.119 Y113.399
G1 X104.799 Y113.713 E22.7404
G0 X107.156 Y114.101 F10800
G0 X108.097 Y113.836
G0 X108.786 Y113.148
G0 X109.464 Y112.244
G1 X135.855 Y86.287 E23.9710 F3600
G1 X135.327 Y86.287
G1 X109.425 Y111.762 E25.1787
G1 X109.311 Y111.354
G1 X134.798 Y86.287 E26.3671
G1 X134.270 Y86.287
G1 X109.143 Y111.001 E27.5388
G1 X108.928 Y110.692
G1 X133.741 Y86.287 E28.6958
G1 X133.213 Y86.287
G1 X108.671 Y110.425 E29.8401
G1 X108.372 Y110.199
G1 X132.684 Y86.287 E30.9737
G1 X132.156 Y86.287
G1 X108.027 Y110.019 E32.0989
G1 X107.627 Y109.892
G1 X131.627 Y86.287 E33.2179
G1 X131.099 Y86.287
G1 X107.155 Y109.837 E34.3344
G0 X108.651 Y110.997 F10800
G0 X109.350 Y112.876
G1 X135.339 Y87.315 E35.5462 F3600
G0 X136.997 Y86.314 F10800
G0 X137.961 Y86.295
G0 X139.240 Y86.596
G1 X139.555 Y86.287 E35.5609 F3600
G1 X140.083 Y86.287
G1 X139.471 Y86.889 E35.5894
G1 X139.657 Y87.226
G1 X140.612 Y86.287 E35.6340
G1 X141.140 Y86.287
G1 X139.790 Y87.615 E35.6969
G1 X139.857 Y88.069
G1 X141.669 Y86.287 E35.7814
G1 X142.197 Y86.287
G1 X139.822 Y88.623 E35.8921
G0 X143.254 Y86.287 F10800
G1 X115.369 Y113.713 E37.1924 F3600
G1 X115.898 Y113.713
G1 X143.783 Y86.287 E38.4926
G0 X138.892 Y90.058 F10800
G1 X114.841 Y113.713 E39.6140 F3600
G1 X114.312 Y113.713
G1 X137.945 Y90.469 E40.7160
G1 X137.387 Y90.498
G1 X113.784 Y113.713 E41.8166
G1 X113.255 Y113.713
G1 X136.930 Y90.428 E42.9205
G1 X136.541 Y90.290
G1 X112.727 Y113.713 E44.0309
G1 X112.198 Y113.713
G1 X136.204 Y90.102 E45.1503
G1 X135.912 Y89.870
G1 X111.670 Y113.713 E46.2807
G1 X111.141 Y113.713
G1 X135.662 Y89.595 E47.4241
G1 X135.456 Y89.279
G1 X110.613 Y113.713 E48.5824
G1 X110.084 Y113.713
G1 X135.297 Y88.915 E49.7581
G1 X135.197 Y88.494
G1 X109.556 Y113.713 E50.9537
G1 X109.027 Y113.713
G1 X135.178 Y87.993 E52.1730
G0 X130.042 Y86.287 F10800
G1 X102.157 Y113.713 E53.4732 F3600
G1 X101.934 Y113.413
G1 X129.513 Y86.287 E54.7592
G1 X128.985 Y86.287
G1 X101.934 Y112.893 E56.0206
G1 X101.934 Y112.373
G1 X128.456 Y86.287 E57.2573
G1 X127.928 Y86.287
G1 X101.934 Y111.853 E58.4693
G1 X101.934 Y111.334
G1 X127.399 Y86.287 E59.6568
G1 X126.871 Y86.287
G1 X101.934 Y110.814 E60.8195
G1 X101.934 Y110.294
G1 X126.342 Y86.287 E61.9577
G1 X125.814 Y86.287
G1 X101.934 Y109.774 E63.0711
G1 X101.934 Y109.254
G1 X125.285 Y86.287 E64.1600
G1 X124.757 Y86.287
G1 X101.934 Y108.735 E65.2242
G1 X101.934 Y108.215
G1 X124.228 Y86.287 E66.2638
G1 X123.700 Y86.287
G1 X101.934 Y107.695 E67.2787
G1 X101.934 Y107.175
G1 X123.171 Y86.287 E68.2689
G1 X122.643 Y86.287
G1 X101.934 Y106.655 E69.2346
G1 X101.934 Y106.136
G1 X122.114 Y86.287 E70.1756
G1 X121.586 Y86.287
G1 X101.934 Y105.616 E71.0919
G1 X101.934 Y105.096
G1 X121.057 Y86.287 E71.9836
G1 X120.529 Y86.287
G1 X101.934 Y104.576 E72.8507
G1 X101.934 Y104.056
G1 X120.000 Y86.287 E73.6931
G1 X119.472 Y86.287
G1 X101.934 Y103.537 E74.5108
G1 X101.934 Y103.017
G1 X118.943 Y86.287 E75.3040
G1 X118.415 Y86.287
G1 X101.934 Y102.497 E76.0725
G1 X101.934 Y101.977
G1 X117.886 Y86.287 E76.8163
G1 X117.358 Y86.287
G1 X101.934 Y101.457 E77.5355
G1 X101.934 Y100.938
G1 X116.829 Y86.287 E78.2301
G1 X116.301 Y86.287
G1 X101.934 Y100.418 E78.9000
G1 X101.934 Y99.898
G1 X115.772 Y86.287 E79.5452
G1 X115.244 Y86.287
G1 X101.934 Y99.378 E80.1659
G1 X101.934 Y98.858
G1 X114.715 Y86.287 E80.7619
G1 X114.187 Y86.287
G1 X101.934 Y98.339 E81.3332
G1 X101.934 Y97.819
G1 X113.658 Y86.287 E81.8799
G1 X113.130 Y86.287
G1 X101.934 Y97.299 E82.4020
G1 X101.934 Y96.779
G1 X112.601 Y86.287 E82.8994
G1 X112.073 Y86.287
G1 X109.314 Y89.001 E83.0280
G1 X109.454 Y88.343
G1 X111.544 Y86.287 E83.1255
G1 X111.016 Y86.287
G1 X109.442 Y87.835 E83.1989
G1 X109.338 Y87.417
G1 X110.487 Y86.287 E83.2525
G1 X109.959 Y86.287
G1 X109.178 Y87.055 E83.2890
G1 X108.971 Y86.739
G1 X109.430 Y86.287 E83.3104
G1 X108.902 Y86.287
G1 X108.720 Y86.465 E83.3188
G0 X106.912 Y86.254 F10800
G0 X105.255 Y86.755
G1 X101.934 Y90.022 E83.4737 F3600
G1 X101.934 Y89.502
G1 X105.202 Y86.287 E83.6261
G1 X104.674 Y86.287
G1 X101.934 Y88.982 E83.7539
G1 X101.934 Y88.462
G1 X104.145 Y86.287 E83.8570
G1 X103.617 Y86.287
G1 X101.934 Y87.942 E83.9355
G1 X101.934 Y87.423
G1 X103.088 Y86.287 E83.9894
G1 X102.560 Y86.287
G1 X101.934 Y86.903 E84.0186
G1 X101.934 Y86.383
G1 X102.032 Y86.287 E84.0232
G0 X104.823 Y87.700 F10800
G1 X101.934 Y90.541 E84.1579 F3600
G1 X101.934 Y91.061
G1 X104.772 Y88.270 E84.2902
G1 X104.835 Y88.727
G1 X101.934 Y91.581 E84.4255
G1 X101.934 Y92.101
G1 X104.969 Y89.116 E84.5670
G1 X105.153 Y89.454
G1 X101.934 Y92.621 E84.7171
G1 X101.934 Y93.140
G1 X105.382 Y89.749 E84.8779
G1 X105.655 Y90.001
G1 X101.934 Y93.660 E85.0514
G1 X101.934 Y94.180
G1 X105.971 Y90.210 E85.2397
G0 X107.262 Y90.499 F10800
G1 X101.934 Y95.739 E85.4881 F3600
G1 X101.934 Y96.259
G1 X107.927 Y90.364 E85.7675
G0 X136.531 Y110.053 F10800
G1 X158.066 Y88.872 E86.7717 F3600
G0 X155.454 Y112.753 F10800
G1 X158.066 Y110.184 E86.8935 F3600
G1 X158.066 Y109.664
G1 X155.453 Y112.234 E87.0154
G1 X155.377 Y111.789
G1 X158.066 Y109.144 E87.1408
G1 X158.066 Y108.624
G1 X155.248 Y111.396 E87.2722
G1 X155.079 Y111.042
G1 X158.066 Y108.105 E87.4114
G1 X158.066 Y107.585
G1 X154.874 Y110.724 E87.5603
G1 X154.626 Y110.448
G1 X158.066 Y107.065 E87.7207
G1 X158.066 Y106.545
G1 X154.349 Y110.201 E87.8940
G1 X154.042 Y109.984
G1 X158.066 Y106.025 E88.0817
G1 X158.066 Y105.506
G1 X153.700 Y109.800 E88.2852
G1 X153.305 Y109.668
G1 X158.066 Y104.986 E88.5072
G1 X158.066 Y104.466
G1 X152.866 Y109.581 E88.7497
G1 X152.350 Y109.568
G1 X158.066 Y103.946 E89.0162
G1 X158.066 Y103.426
G1 X151.729 Y109.660 E89.3118
G0 X153.902 Y110.373 F10800
G0 X154.765 Y111.314
G0 X155.324 Y113.401
G1 X158.066 Y110.704 E89.4396 F3600
G1 X158.066 Y111.223
G1 X147.401 Y121.713 E89.9369
G1 X147.930 Y121.713
G1 X158.066 Y111.743 E90.4096
G1 X158.066 Y112.263
G1 X148.458 Y121.713 E90.8576
G1 X148.987 Y121.713
G1 X158.066 Y112.783 E91.2810
G1 X158.066 Y113.303
G1 X149.515 Y121.713 E91.6797
G1 X150.044 Y121.713
G1 X158.066 Y113.822 E92.0538
G1 X158.066 Y114.342
G1 X150.572 Y121.713 E92.4032
G1 X151.101 Y121.713
G1 X158.066 Y114.862 E92.7280
G1 X158.066 Y115.382
G1 X151.629 Y121.713 E93.0282
G1 X152.158 Y121.713
G1 X158.066 Y115.902 E93.3037
G1 X158.066 Y116.421
G1 X152.686 Y121.713 E93.5545
G1 X153.215 Y121.713
G1 X158.066 Y116.941 E93.7808
G1 X158.066 Y117.461
G1 X153.743 Y121.713 E93.9824
G1 X154.272 Y121.713
G1 X158.066 Y117.981 E94.1593
G1 X158.066 Y118.501
G1 X154.800 Y121.713 E94.3116
G1 X155.329 Y121.713
G1 X158.066 Y119.020 E94.4393
G1 X158.066 Y119.540
G1 X155.857 Y121.713 E94.5423
G1 X156.386 Y121.713
G1 X158.066 Y120.060 E94.6206
G1 X158.066 Y120.580
G1 X156.914 Y121.713 E94.6744
G1 X157.443 Y121.713
G1 X158.066 Y121.100 E94.7034
G1 X158.066 Y121.619
G1 X157.971 Y121.713 E94.7079
G0 X153.389 Y115.304 F10800
G1 X146.873 Y121.713 E95.0117 F3600
G1 X146.344 Y121.713
G1 X152.734 Y115.428 E95.3097
G1 X152.213 Y115.421
G1 X145.816 Y121.713 E95.6079
G1 X145.287 Y121.713
G1 X151.768 Y115.339 E95.9101
G1 X151.375 Y115.206
G1 X144.759 Y121.713 E96.2186
G1 X144.230 Y121.713
G1 X151.022 Y115.033 E96.5353
G1 X150.705 Y114.825
G1 X143.792 Y121.625 E96.8576
G1 X143.792 Y121.105
G1 X150.430 Y114.576 E97.1672
G1 X150.185 Y114.296
G1 X143.792 Y120.585 E97.4653
G1 X143.792 Y120.065
G1 X149.971 Y113.987 E97.7535
G1 X149.791 Y113.645
G1 X143.792 Y119.545 E98.0332
G1 X143.792 Y119.026
G1 X149.662 Y113.252 E98.3069
G1 X149.583 Y112.810
G1 X143.792 Y118.506 E98.5769
G1 X143.792 Y117.986
G1 X149.572 Y112.300 E98.8465
G1 X149.678 Y111.677
G1 X143.792 Y117.466 E99.1210
G1 X143.792 Y116.946
G1 X150.395 Y110.452 E99.4289
G1 X150.460 Y110.388
G1 X158.066 Y102.907 E99.7835
G1 X158.066 Y102.387
G1 X143.792 Y116.427 E100.4491
G1 X143.792 Y115.907
G1 X158.066 Y101.867 E101.1147
G1 X158.066 Y101.347
G1 X143.792 Y115.387 E101.7803
G1 X143.792 Y114.867
G1 X158.066 Y100.827 E102.4459
G1 X158.066 Y100.308
G1 X143.792 Y114.347 E103.1116
G1 X143.792 Y113.828
G1 X158.066 Y99.788 E103.7772
G1 X158.066 Y99.268
G1 X143.379 Y113.713 E104.4620
G1 X142.851 Y113.713
G1 X158.066 Y98.748 E105.1714
G1 X158.066 Y98.228
G1 X142.323 Y113.713 E105.9056
G1 X141.794 Y113.713
G1 X158.066 Y97.709 E106.6643
G1 X158.066 Y97.189
G1 X141.266 Y113.713 E107.4477
G1 X140.737 Y113.713
G1 X158.066 Y96.669 E108.2557
G1 X158.066 Y96.149
G1 X140.209 Y113.713 E109.0884
G1 X139.680 Y113.713
G1 X158.066 Y95.629 E109.9457
G1 X158.066 Y95.110
G1 X139.570 Y113.302 E110.8082
G1 X139.834 Y112.522
G1 X158.066 Y94.590 E111.6583
G1 X158.066 Y94.070
G1 X139.851 Y111.985 E112.5077
G1 X139.773 Y111.542
G1 X158.066 Y93.550 E113.3606
G1 X158.066 Y93.030
G1 X139.630 Y111.163 E114.2203
G1 X139.436 Y110.834
G1 X158.066 Y92.511 E115.0890
G1 X158.066 Y91.991
G1 X139.197 Y110.549 E115.9688
G1 X138.917 Y110.305
G1 X158.066 Y91.471 E116.8617
G1 X158.066 Y90.951
G1 X138.593 Y110.104 E117.7698
G1 X138.220 Y109.951
G1 X158.066 Y90.431 E118.6951
G1 X158.066 Y89.912
G1 X137.787 Y109.858 E119.6407
G0 X136.147 Y110.809 F10800
G0 X135.654 Y111.647
G0 X135.452 Y113.713
G1 X135.623 Y113.545 E119.6487 F3600
G1 X135.424 Y113.221
G1 X134.924 Y113.713 E119.6721
G1 X134.395 Y113.713
G1 X135.275 Y112.848 E119.7131
G1 X135.185 Y112.416
G1 X133.867 Y113.713 E119.7746
G1 X133.338 Y113.713
G1 X135.185 Y111.897 E119.8607
G1 X135.392 Y111.173
G1 X132.810 Y113.713 E119.9811
G1 X132.281 Y113.713
G1 X158.066 Y88.352 E121.1834
G1 X158.066 Y87.832
G1 X131.753 Y113.713 E122.4104
G1 X131.224 Y113.713
G1 X158.066 Y87.313 E123.6620
G1 X158.066 Y86.793
G1 X130.696 Y113.713 E124.9383
G1 X130.167 Y113.713
G1 X158.066 Y86.273 E126.2392
G1 X158.066 Y85.753
G1 X155.305 Y88.469 E126.3679
G0 X154.765 Y86.315 F10800
G0 X153.900 Y85.371
G0 X151.788 Y84.651
G1 X158.066 Y78.476 E126.6607 F3600
G1 X158.066 Y78.996
G1 X152.402 Y84.567 E126.9248
G1 X152.906 Y84.591
G1 X158.066 Y79.515 E127.1654
G1 X158.066 Y80.035
G1 X153.343 Y84.681 E127.3857
G1 X153.731 Y84.819
G1 X158.066 Y80.555 E127.5878
G1 X158.066 Y81.075
G1 X154.074 Y85.001 E127.7740
G1 X154.377 Y85.223
G1 X158.066 Y81.595 E127.9460
G1 X158.066 Y82.114
G1 X154.650 Y85.474 E128.1052
G1 X154.895 Y85.754
G1 X158.066 Y82.634 E128.2531
G1 X158.066 Y83.154
G1 X155.099 Y86.072 E128.3915
G1 X155.263 Y86.431
G1 X158.066 Y83.674 E128.5222
G1 X158.066 Y84.194
G1 X155.386 Y86.829 E128.6471
G1 X155.456 Y87.280
G1 X158.066 Y84.713 E128.7688
G1 X158.066 Y85.233
G1 X155.448 Y87.808 E128.8909
G0 X154.536 Y85.958 F10800
G0 X153.519 Y85.169
G0 X152.249 Y84.977
G0 X150.807 Y85.096
G1 X157.730 Y78.287 E129.2137 F3600
G1 X157.201 Y78.287
G1 X121.183 Y113.713 E130.8932
G1 X120.654 Y113.713
G1 X156.673 Y78.287 E132.5727
G1 X156.144 Y78.287
G1 X120.126 Y113.713 E134.2522
G1 X119.597 Y113.713
G1 X155.616 Y78.287 E135.9317
G1 X155.087 Y78.287
G1 X119.069 Y113.713 E137.6112
G1 X118.540 Y113.713
G1 X154.559 Y78.287 E139.2907
G1 X154.030 Y78.287
G1 X118.012 Y113.713 E140.9702
G1 X117.483 Y113.713
G1 X153.502 Y78.287 E142.6496
G1 X152.973 Y78.287
G1 X116.955 Y113.713 E144.3291
G1 X116.426 Y113.713
G1 X152.445 Y78.287 E146.0086
G1 X151.916 Y78.287
G1 X143.792 Y86.278 E146.3875
G1 X143.792 Y85.758
G1 X151.388 Y78.287 E146.7417
G1 X150.859 Y78.287
G1 X143.792 Y85.239 E147.0712
G1 X143.792 Y84.719
G1 X150.331 Y78.287 E147.3762
G1 X149.802 Y78.287
G1 X143.792 Y84.199 E147.6564
G1 X143.792 Y83.679
G1 X149.274 Y78.287 E147.9121
G1 X148.745 Y78.287
G1 X143.792 Y83.159 E148.1430
G1 X143.792 Y82.640
G1 X148.217 Y78.287 E148.3494
G1 X147.688 Y78.287
G1 X143.792 Y82.120 E148.5311
G1 X143.792 Y81.600
G1 X147.160 Y78.287 E148.6881
G1 X146.631 Y78.287
G1 X143.792 Y81.080 E148.8206
G1 X143.792 Y80.560
G1 X146.103 Y78.287 E148.9283
G1 X145.575 Y78.287
G1 X143.792 Y80.041 E149.0115
G1 X143.792 Y79.521
G1 X145.046 Y78.287 E149.0700
G1 X144.518 Y78.287
G1 X143.792 Y79.001 E149.1038
G1 X143.792 Y78.481
G1 X143.989 Y78.287 E149.1130
G0 X150.640 Y89.212 F10800
G0 X151.716 Y89.908
G0 X153.459 Y90.284
G1 X129.639 Y113.713 E150.2237 F3600
G1 X129.110 Y113.713
G1 X152.790 Y90.422 E151.3279
G1 X152.260 Y90.424
G1 X128.582 Y113.713 E152.4320
G1 X128.053 Y113.713
G1 X151.808 Y90.349 E153.5396
G1 X151.410 Y90.221
G1 X127.525 Y113.713 E154.6533
G1 X126.996 Y113.713
G1 X151.052 Y90.053 E155.7750
G1 X150.733 Y89.847
G1 X126.468 Y113.713 E156.9065
G1 X125.939 Y113.713
G1 X150.456 Y89.600 E158.0497
G1 X150.207 Y89.325
G1 X125.411 Y113.713 E159.2059
G1 X124.882 Y113.713
G1 X149.988 Y89.020 E160.3765
G1 X149.807 Y88.678
G1 X124.354 Y113.713 E161.5634
G1 X123.825 Y113.713
G1 X149.674 Y88.289 E162.7687
G1 X149.589 Y87.853
G1 X123.297 Y113.713 E163.9947
G1 X122.768 Y113.713
G1 X149.571 Y87.351 E165.2444
G1 X149.661 Y86.743
G1 X122.240 Y113.713 E166.5230
; ------------------------------------
; Layer #3
; ------------------------------------
G21 ; mm
G90 ; abs
G92 E0 ; reset extr
M106 S255
G0 F4800 E-1.0000
G0 F300 Z0.800
G0 X131.675 Y114.022 F10800
G0 X134.034 Y114.099
G0 X138.302 Y114.329
G0 X140.853 Y114.021
G0 X143.405 Y113.713
G0 F4800 E0.0000
;segType:Infill
G1 X143.405 Y86.287 E0.9117 F5400
;segType:Perimeter
G0 X142.934 Y86.253 F10800
G1 X143.191 Y85.642 E0.9338 F2160
G1 X143.191 Y77.697 E1.1979
G1 X158.666 Y77.697 E1.7123
G1 X158.666 Y122.303 E3.1952
G1 X143.191 Y122.303 E3.7097
G1 X143.191 Y114.303 E3.9756
G1 X101.334 Y114.303 E5.3671
G1 X101.334 Y85.697 E6.3181
G1 X143.135 Y85.697 E7.7077
G1 X143.757 Y85.444
;segType:Loop
G0 X143.592 Y84.686 F10800
G1 X143.592 Y78.090 E7.9270 F3600
G1 X158.266 Y78.090 E8.4148
G1 X158.266 Y121.910 E9.8716
G1 X143.592 Y121.910 E10.3594
G1 X143.592 Y113.910 E10.6253
G1 X138.757 Y113.910 E10.7861
G1 X138.915 Y113.797 E10.7925
G1 X139.171 Y113.538 E10.8046
G1 X139.378 Y113.241 E10.8167
G1 X139.533 Y112.913 E10.8287
G1 X139.629 Y112.564 E10.8407
G1 X139.665 Y112.205 E10.8527
G1 X139.640 Y111.845 E10.8648
G1 X139.554 Y111.493 E10.8768
G1 X139.410 Y111.161 E10.8888
G1 X139.212 Y110.858 E10.9008
G1 X138.965 Y110.592 E10.9129
G1 X138.675 Y110.370 E10.9251
G1 X138.351 Y110.201 E10.9372
G1 X138.004 Y110.089 E10.9493
G1 X137.642 Y110.036 E10.9615
G1 X137.275 Y110.047 E10.9737
G1 X136.916 Y110.118 E10.9859
G1 X136.575 Y110.249 E10.9980
G1 X136.261 Y110.436 E11.0101
G1 X135.984 Y110.672 E11.0222
G1 X135.752 Y110.951 E11.0343
G1 X135.570 Y111.265 E11.0464
G1 X135.445 Y111.604 E11.0584
G1 X135.378 Y111.959 E11.0704
G1 X135.372 Y112.320 E11.0824
G1 X135.428 Y112.677 E11.0944
G1 X135.543 Y113.020 E11.1065
G1 X135.715 Y113.339 E11.1185
G1 X135.939 Y113.625 E11.1306
G1 X136.208 Y113.869 E11.1427
G1 X136.272 Y113.910 E11.1452
G1 X108.357 Y113.910 E12.0731
G1 X108.515 Y113.797 E12.0796
G1 X108.771 Y113.538 E12.0917
G1 X108.978 Y113.241 E12.1037
G1 X109.133 Y112.913 E12.1158
G1 X109.229 Y112.564 E12.1278
G1 X109.265 Y112.205 E12.1398
G1 X109.240 Y111.845 E12.1518
G1 X109.154 Y111.494 E12.1638
G1 X109.011 Y111.161 E12.1759
G1 X108.812 Y110.858 E12.1879
G1 X108.564 Y110.592 E12.2000
G1 X108.275 Y110.371 E12.2121
G1 X107.951 Y110.201 E12.2243
G1 X107.594 Y110.086 E12.2367
G1 X107.083 Y110.028 E12.2538
G1 X106.529 Y110.113 E12.2725
G1 X106.175 Y110.249 E12.2851
G1 X105.861 Y110.436 E12.2972
G1 X105.584 Y110.672 E12.3093
G1 X105.352 Y110.951 E12.3214
G1 X105.170 Y111.265 E12.3334
G1 X105.045 Y111.604 E12.3455
G1 X104.978 Y111.959 E12.3575
G1 X104.972 Y112.321 E12.3695
G1 X105.028 Y112.677 E12.3815
G1 X105.143 Y113.020 E12.3935
G1 X105.315 Y113.339 E12.4056
G1 X105.539 Y113.625 E12.4176
G1 X105.808 Y113.870 E12.4297
G1 X105.871 Y113.910 E12.4322
G1 X101.734 Y113.910 E12.5698
G1 X101.734 Y86.090 E13.4946
G1 X106.657 Y86.090 E13.6582
G1 X106.516 Y86.118 E13.6630
G1 X106.175 Y86.249 E13.6752
G1 X105.861 Y86.436 E13.6873
G1 X105.584 Y86.672 E13.6994
G1 X105.352 Y86.951 E13.7115
G1 X105.170 Y87.265 E13.7235
G1 X105.045 Y87.604 E13.7355
G1 X104.978 Y87.960 E13.7476
G1 X104.972 Y88.321 E13.7596
G1 X105.028 Y88.678 E13.7716
G1 X105.143 Y89.020 E13.7836
G1 X105.315 Y89.339 E13.7956
G1 X105.539 Y89.625 E13.8077
G1 X105.808 Y89.870 E13.8198
G1 X106.116 Y90.066 E13.8319
G1 X106.453 Y90.207 E13.8441
G1 X106.809 Y90.290 E13.8563
G1 X107.175 Y90.311 E13.8684
G1 X107.539 Y90.270 E13.8806
G1 X107.890 Y90.168 E13.8928
G1 X108.219 Y90.009 E13.9049
G1 X108.515 Y89.797 E13.9170
G1 X108.771 Y89.539 E13.9291
G1 X108.978 Y89.241 E13.9412
G1 X109.133 Y88.913 E13.9532
G1 X109.229 Y88.565 E13.9652
G1 X109.265 Y88.205 E13.9772
G1 X109.240 Y87.845 E13.9892
G1 X109.154 Y87.494 E14.0012
G1 X109.011 Y87.161 E14.0133
G1 X108.812 Y86.858 E14.0254
G1 X108.564 Y86.592 E14.0374
G1 X108.275 Y86.371 E14.0495
G1 X107.952 Y86.201 E14.0617
G1 X107.608 Y86.090 E14.0737
G1 X137.079 Y86.090 E15.0534
G1 X136.929 Y86.113 E15.0585
G1 X136.575 Y86.249 E15.0711
G1 X136.261 Y86.436 E15.0832
G1 X135.984 Y86.672 E15.0953
G1 X135.752 Y86.951 E15.1074
G1 X135.570 Y87.265 E15.1194
G1 X135.445 Y87.604 E15.1314
G1 X135.378 Y87.959 E15.1435
G1 X135.372 Y88.320 E15.1555
G1 X135.428 Y88.678 E15.1675
G1 X135.543 Y89.020 E15.1795
G1 X135.715 Y89.339 E15.1915
G1 X135.939 Y89.625 E15.2036
G1 X136.209 Y89.870 E15.2157
G1 X136.516 Y90.066 E15.2278
G1 X136.853 Y90.207 E15.2400
G1 X137.209 Y90.290 E15.2522
G1 X137.575 Y90.311 E15.2643
G1 X137.939 Y90.270 E15.2765
G1 X138.290 Y90.168 E15.2887
G1 X138.618 Y90.009 E15.3008
G1 X138.915 Y89.797 E15.3129
G1 X139.171 Y89.539 E15.3250
G1 X139.378 Y89.241 E15.3371
G1 X139.533 Y88.913 E15.3491
G1 X139.629 Y88.565 E15.3611
G1 X139.665 Y88.205 E15.3731
G1 X139.640 Y87.845 E15.3851
G1 X139.554 Y87.494 E15.3972
G1 X139.410 Y87.161 E15.4092
G1 X139.212 Y86.858 E15.4213
G1 X138.965 Y86.592 E15.4333
G1 X138.675 Y86.371 E15.4454
G1 X138.351 Y86.201 E15.4576
G1 X138.008 Y86.090 E15.4696
G1 X143.592 Y86.090 E15.6552
G1 X143.592 Y84.870 E15.6958
G0 X152.000 Y84.811 F10800
G1 X152.207 Y84.770 E15.7028 F3600
G1 X152.676 Y84.757 E15.7184
G1 X153.140 Y84.824 E15.7340
G1 X153.587 Y84.968 E15.7496
G1 X154.001 Y85.186 E15.7652
G1 X154.373 Y85.469 E15.7807
G1 X154.697 Y85.819 E15.7965
G1 X154.946 Y86.202 E15.8117
G1 X155.130 Y86.628 E15.8271
G1 X155.241 Y87.079 E15.8426
G1 X155.273 Y87.542 E15.8580
G1 X155.226 Y88.004 E15.8735
G1 X155.103 Y88.452 E15.8889
G1 X154.904 Y88.873 E15.9044
G1 X154.638 Y89.255 E15.9199
G1 X154.310 Y89.587 E15.9354
G1 X153.929 Y89.859 E15.9509
G1 X153.508 Y90.063 E15.9665
G1 X153.058 Y90.194 E15.9821
G1 X152.592 Y90.246 E15.9977
G1 X152.123 Y90.219 E16.0133
G1 X151.666 Y90.113 E16.0289
G1 X151.234 Y89.932 E16.0444
G1 X150.839 Y89.681 E16.0600
G1 X150.494 Y89.366 E16.0755
G1 X150.206 Y89.000 E16.0910
G1 X149.986 Y88.590 E16.1065
G1 X149.838 Y88.149 E16.1219
G1 X149.766 Y87.690 E16.1374
G1 X149.773 Y87.226 E16.1528
G1 X149.858 Y86.770 E16.1683
G1 X150.021 Y86.333 E16.1837
G1 X150.253 Y85.932 E16.1991
G1 X150.518 Y85.611 E16.2130
G1 X150.903 Y85.272 E16.2300
G1 X151.310 Y85.030 E16.2458
G1 X151.747 Y84.862 E16.2613
G1 X151.817 Y84.848 E16.2637
;segType:Perimeter
G0 X150.521 Y85.493 F10800
G1 X151.190 Y85.561 E16.2861 F2160
G1 X151.487 Y85.384 E16.2976
G1 X151.860 Y85.241 E16.3109
G1 X152.253 Y85.162 E16.3242
G1 X152.653 Y85.152 E16.3375
G1 X153.048 Y85.209 E16.3507
G1 X153.429 Y85.331 E16.3640
G1 X153.783 Y85.517 E16.3773
G1 X154.101 Y85.759 E16.3906
G1 X154.379 Y86.059 E16.4042
G1 X154.591 Y86.386 E16.4172
G1 X154.749 Y86.752 E16.4304
G1 X154.844 Y87.139 E16.4437
G1 X154.872 Y87.536 E16.4569
G1 X154.832 Y87.932 E16.4701
G1 X154.726 Y88.317 E16.4834
G1 X154.555 Y88.677 E16.4967
G1 X154.327 Y89.004 E16.5099
G1 X154.046 Y89.288 E16.5232
G1 X153.722 Y89.521 E16.5365
G1 X153.362 Y89.695 E16.5498
G1 X152.978 Y89.806 E16.5631
G1 X152.580 Y89.851 E16.5763
G1 X152.181 Y89.828 E16.5896
G1 X151.791 Y89.738 E16.6029
G1 X151.422 Y89.583 E16.6162
G1 X151.085 Y89.369 E16.6295
G1 X150.790 Y89.100 E16.6428
G1 X150.544 Y88.786 E16.6561
G1 X150.355 Y88.435 E16.6693
G1 X150.228 Y88.057 E16.6826
G1 X150.166 Y87.663 E16.6958
G1 X150.173 Y87.265 E16.7091
G1 X150.246 Y86.873 E16.7223
G1 X150.385 Y86.499 E16.7356
G1 X150.584 Y86.155 E16.7488
G1 X150.808 Y85.883 E16.7605
G1 X151.100 Y85.626 E16.7734
G1 X151.231 Y84.977
G0 X149.987 Y87.247 F10800
G0 X151.397 Y109.997
;segType:Loop
G1 X151.774 Y109.853 E16.7868 F3600
G1 X152.210 Y109.770 E16.8016
G1 X152.710 Y109.756 E16.8183
G1 X153.146 Y109.826 E16.8329
G1 X153.624 Y109.981 E16.8496
G1 X154.005 Y110.188 E16.8640
G1 X154.373 Y110.469 E16.8794
G1 X154.691 Y110.811 E16.8949
G1 X154.946 Y111.201 E16.9104
G1 X155.130 Y111.628 E16.9259
G1 X155.241 Y112.079 E16.9413
G1 X155.273 Y112.542 E16.9568
G1 X155.226 Y113.004 E16.9722
G1 X155.103 Y113.452 E16.9876
G1 X154.904 Y113.873 E17.0031
G1 X154.638 Y114.255 E17.0186
G1 X154.309 Y114.587 E17.0341
G1 X153.927 Y114.861 E17.0498
G1 X153.508 Y115.064 E17.0652
G1 X153.057 Y115.194 E17.0808
G1 X152.592 Y115.246 E17.0964
G1 X152.123 Y115.219 E17.1120
G1 X151.666 Y115.113 E17.1276
G1 X151.234 Y114.932 E17.1432
G1 X150.855 Y114.691 E17.1581
G1 X150.495 Y114.368 E17.1742
G1 X150.206 Y114.000 E17.1897
G1 X149.986 Y113.590 E17.2052
G1 X149.838 Y113.149 E17.2207
G1 X149.766 Y112.690 E17.2361
G1 X149.773 Y112.226 E17.2516
G1 X149.858 Y111.769 E17.2670
G1 X150.021 Y111.334 E17.2825
G1 X150.254 Y110.931 E17.2979
G1 X150.552 Y110.572 E17.3134
G1 X150.907 Y110.269 E17.3290
G1 X151.230 Y110.077 E17.3414
G0 X150.215 Y111.422 F10800
G0 X149.980 Y112.676
G0 X150.387 Y113.885
G0 X150.757 Y114.719
;segType:Perimeter
G1 X150.756 Y114.057 E17.3634 F2160
G1 X150.544 Y113.786 E17.3749
G1 X150.355 Y113.435 E17.3881
G1 X150.228 Y113.057 E17.4014
G1 X150.166 Y112.663 E17.4146
G1 X150.173 Y112.265 E17.4279
G1 X150.246 Y111.873 E17.4411
G1 X150.385 Y111.499 E17.4544
G1 X150.584 Y111.154 E17.4676
G1 X150.840 Y110.848 E17.4809
G1 X151.144 Y110.588 E17.4942
G1 X151.487 Y110.384 E17.5075
G1 X151.885 Y110.232 E17.5216
G1 X152.254 Y110.162 E17.5341
G1 X152.684 Y110.150 E17.5484
G1 X153.050 Y110.209 E17.5607
G1 X153.463 Y110.344 E17.5752
G1 X153.784 Y110.518 E17.5873
G1 X154.101 Y110.759 E17.6006
G1 X154.373 Y111.052 E17.6138
G1 X154.591 Y111.386 E17.6271
G1 X154.749 Y111.751 E17.6403
G1 X154.844 Y112.139 E17.6536
G1 X154.872 Y112.536 E17.6668
G1 X154.832 Y112.932 E17.6801
G1 X154.726 Y113.317 E17.6933
G1 X154.556 Y113.678 E17.7066
G1 X154.327 Y114.004 E17.7198
G1 X154.046 Y114.289 E17.7331
G1 X153.719 Y114.523 E17.7465
G1 X153.362 Y114.696 E17.7597
G1 X152.978 Y114.807 E17.7730
G1 X152.580 Y114.851 E17.7863
G1 X152.181 Y114.828 E17.7996
G1 X151.791 Y114.738 E17.8129
G1 X151.422 Y114.583 E17.8262
G1 X151.100 Y114.378 E17.8389
G1 X150.832 Y114.138 E17.8509
G1 X150.161 Y114.081
G0 X137.205 Y109.963 F10800
G1 X137.673 Y110.439 E17.8730 F2160
G1 X137.912 Y110.473 E17.8810
G1 X138.194 Y110.564 E17.8909
G1 X138.457 Y110.702 E17.9008
G1 X138.692 Y110.882 E17.9106
G1 X138.894 Y111.099 E17.9205
G1 X139.056 Y111.346 E17.9303
G1 X139.173 Y111.618 E17.9401
G1 X139.243 Y111.904 E17.9499
G1 X139.264 Y112.199 E17.9598
G1 X139.234 Y112.493 E17.9696
G1 X139.156 Y112.778 E17.9794
G1 X139.030 Y113.045 E17.9892
G1 X138.860 Y113.288 E17.9991
G1 X138.652 Y113.498 E18.0089
G1 X138.411 Y113.671 E18.0188
G1 X138.144 Y113.800 E18.0286
G1 X137.859 Y113.883 E18.0385
G1 X137.564 Y113.916 E18.0484
G1 X137.267 Y113.899 E18.0582
G1 X136.978 Y113.832 E18.0681
G1 X136.704 Y113.717 E18.0780
G1 X136.455 Y113.558 E18.0878
G1 X136.235 Y113.359 E18.0977
G1 X136.053 Y113.126 E18.1075
G1 X135.912 Y112.865 E18.1174
G1 X135.818 Y112.585 E18.1272
G1 X135.773 Y112.293 E18.1370
G1 X135.777 Y111.998 E18.1468
G1 X135.832 Y111.708 E18.1566
G1 X135.935 Y111.431 E18.1665
G1 X136.083 Y111.175 E18.1763
G1 X136.272 Y110.947 E18.1861
G1 X136.498 Y110.755 E18.1960
G1 X136.753 Y110.603 E18.2058
G1 X137.030 Y110.497 E18.2157
G1 X137.321 Y110.439 E18.2256
G1 X137.562 Y110.432 E18.2336
G1 X138.084 Y110.015
G0 X135.591 Y87.980 F10800
G0 X135.929 Y87.071
G0 X137.031 Y86.006
G1 X137.547 Y86.431 E18.2558 F2160
G1 X137.908 Y86.472 E18.2679
G1 X138.194 Y86.564 E18.2779
G1 X138.457 Y86.702 E18.2877
G1 X138.692 Y86.882 E18.2976
G1 X138.894 Y87.099 E18.3074
G1 X139.056 Y87.346 E18.3173
G1 X139.173 Y87.618 E18.3271
G1 X139.243 Y87.905 E18.3369
G1 X139.264 Y88.199 E18.3467
G1 X139.234 Y88.493 E18.3566
G1 X139.156 Y88.778 E18.3664
G1 X139.030 Y89.045 E18.3762
G1 X138.860 Y89.288 E18.3860
G1 X138.652 Y89.498 E18.3959
G1 X138.411 Y89.671 E18.4057
G1 X138.144 Y89.800 E18.4156
G1 X137.859 Y89.883 E18.4255
G1 X137.564 Y89.916 E18.4353
G1 X137.267 Y89.899 E18.4452
G1 X136.978 Y89.832 E18.4551
G1 X136.704 Y89.717 E18.4649
G1 X136.455 Y89.558 E18.4748
G1 X136.235 Y89.359 E18.4847
G1 X136.053 Y89.126 E18.4945
G1 X135.913 Y88.865 E18.5043
G1 X135.818 Y88.585 E18.5141
G1 X135.773 Y88.293 E18.5240
G1 X135.777 Y87.998 E18.5338
G1 X135.832 Y87.708 E18.5436
G1 X135.935 Y87.431 E18.5534
G1 X136.083 Y87.175 E18.5633
G1 X136.272 Y86.947 E18.5731
G1 X136.498 Y86.755 E18.5829
G1 X136.753 Y86.603 E18.5928
G1 X137.034 Y86.495 E18.6028
G1 X137.436 Y86.433 E18.6163
G1 X137.933 Y85.988
G0 F4800 E17.6163
G0 X107.238 Y90.399 F10800
G0 F4800 E18.6163
G1 X106.813 Y89.886 E18.6385 F2160
G1 X106.578 Y89.832 E18.6465
G1 X106.305 Y89.717 E18.6564
G1 X106.054 Y89.558 E18.6662
G1 X105.835 Y89.359 E18.6761
G1 X105.653 Y89.126 E18.6859
G1 X105.513 Y88.865 E18.6957
G1 X105.418 Y88.585 E18.7056
G1 X105.373 Y88.294 E18.7154
G1 X105.377 Y87.998 E18.7252
G1 X105.432 Y87.708 E18.7350
G1 X105.535 Y87.431 E18.7448
G1 X105.683 Y87.175 E18.7547
G1 X105.872 Y86.947 E18.7645
G1 X106.097 Y86.755 E18.7744
G1 X106.352 Y86.603 E18.7842
G1 X106.629 Y86.497 E18.7941
G1 X106.921 Y86.439 E18.8040
G1 X107.217 Y86.431 E18.8138
G1 X107.511 Y86.473 E18.8237
G1 X107.794 Y86.564 E18.8336
G1 X108.057 Y86.702 E18.8434
G1 X108.292 Y86.882 E18.8533
G1 X108.494 Y87.099 E18.8631
G1 X108.656 Y87.346 E18.8730
G1 X108.773 Y87.618 E18.8828
G1 X108.843 Y87.905 E18.8926
G1 X108.864 Y88.199 E18.9024
G1 X108.834 Y88.493 E18.9122
G1 X108.755 Y88.778 E18.9221
G1 X108.630 Y89.045 E18.9319
G1 X108.460 Y89.288 E18.9417
G1 X108.252 Y89.498 E18.9516
G1 X108.011 Y89.671 E18.9614
G1 X107.744 Y89.800 E18.9713
G1 X107.459 Y89.883 E18.9812
G1 X107.164 Y89.916 E18.9910
G1 X106.923 Y89.902 E18.9990
G1 X106.367 Y90.274
G0 X106.631 Y110.006 F10800
G1 X107.147 Y110.431 E19.0213 F2160
G1 X107.508 Y110.472 E19.0333
G1 X107.794 Y110.564 E19.0433
G1 X108.057 Y110.702 E19.0532
G1 X108.292 Y110.882 E19.0630
G1 X108.494 Y111.099 E19.0729
G1 X108.656 Y111.346 E19.0827
G1 X108.773 Y111.618 E19.0925
G1 X108.843 Y111.904 E19.1024
G1 X108.864 Y112.199 E19.1122
G1 X108.834 Y112.493 E19.1220
G1 X108.755 Y112.778 E19.1318
G1 X108.630 Y113.045 E19.1416
G1 X108.460 Y113.288 E19.1515
G1 X108.252 Y113.498 E19.1613
G1 X108.011 Y113.671 E19.1712
G1 X107.744 Y113.800 E19.1810
G1 X107.459 Y113.883 E19.1909
G1 X107.164 Y113.916 E19.2008
G1 X106.867 Y113.899 E19.2107
G1 X106.578 Y113.832 E19.2205
G1 X106.305 Y113.717 E19.2304
G1 X106.054 Y113.558 E19.2402
G1 X105.835 Y113.359 E19.2501
G1 X105.653 Y113.126 E19.2599
G1 X105.512 Y112.865 E19.2698
G1 X105.418 Y112.585 E19.2796
G1 X105.373 Y112.294 E19.2894
G1 X105.377 Y111.998 E19.2992
G1 X105.432 Y111.708 E19.3090
G1 X105.535 Y111.431 E19.3189
G1 X105.683 Y111.175 E19.3287
G1 X105.872 Y110.947 E19.3385
G1 X106.097 Y110.755 E19.3484
G1 X106.352 Y110.603 E19.3582
G1 X106.634 Y110.495 E19.3683
G1 X107.036 Y110.433 E19.3818
G1 X107.534 Y109.988
G0 X106.382 Y110.496 F10800
G0 X104.791 Y111.893
;segType:Infill
G1 X101.934 Y111.893 E19.4768 F5400
G0 X104.067 Y113.713 F10800
G1 X104.067 Y86.287 E20.3885 F5400
G0 X104.820 Y88.679 F10800
G1 X101.934 Y88.679 E20.4845 F5400
G0 X101.934 Y92.548 F10800
G1 X158.066 Y92.548 E22.3505 F5400
G0 X158.066 Y88.679 F10800
G1 X155.223 Y88.679 E22.4451 F5400
G1 X155.206 Y88.714 E22.4464
G1 X155.206 Y111.310 E23.1975
G1 X155.405 Y111.893 E23.2180
G1 X158.066 Y111.893 E23.3065
G0 X155.206 Y113.714 F10800
G1 X155.206 Y121.713 E23.5724 F5400
G0 X151.272 Y121.713 F10800
G1 X151.272 Y115.165 E23.7901 F5400
G0 X147.338 Y121.713 F10800
G1 X147.338 Y78.287 E25.2337 F5400
G0 X143.792 Y80.941 F10800
G1 X158.066 Y80.941 E25.7082 F5400
G0 X158.066 Y84.810 F10800
G1 X153.726 Y84.810 E25.8525 F5400
G0 X155.206 Y86.305 F10800
G1 X155.206 Y78.287 E26.1191 F5400
G0 X151.272 Y78.287 F10800
G1 X151.272 Y84.839 E26.3369 F5400
G1 X151.344 Y84.810 E26.3395
G1 X143.792 Y84.810 E26.5905
G0 X139.471 Y86.287 F10800
G1 X139.471 Y86.883 E26.6104 F5400
G0 X139.810 Y88.679 F10800
G1 X149.807 Y88.679 E26.9427 F5400
G0 X151.272 Y90.166 F10800
G1 X151.272 Y109.840 E27.5967 F5400
G0 X149.637 Y111.893 F10800
G1 X139.849 Y111.893 E27.9221 F5400
G0 X143.324 Y114.173 F10800
G0 X143.792 Y115.762
G1 X158.066 Y115.762 E28.3966 F5400
G0 X158.066 Y119.631 F10800
G1 X143.792 Y119.631 E28.8712 F5400
G0 X143.324 Y114.173 F10800
G0 X139.471 Y113.713
G1 X139.471 Y113.463 E28.8795 F5400
G0 X139.471 Y110.883 F10800
G1 X139.471 Y89.463 E29.5916 F5400
G0 X137.569 Y90.100 F10800
G0 X136.617 Y89.879
G0 X135.895 Y89.225
G0 X135.586 Y88.306
G0 X135.537 Y86.919
G1 X135.537 Y86.287 E29.6126 F5400
G0 X123.736 Y86.287 F10800
G1 X123.736 Y113.713 E30.5243 F5400
G0 X127.670 Y113.713 F10800
G1 X127.670 Y86.287 E31.4361 F5400
G0 X131.603 Y86.287 F10800
G1 X131.603 Y113.713 E32.3478 F5400
G0 X108.001 Y110.009 F10800
G1 X108.001 Y90.336 E33.0018 F5400
G0 X109.410 Y88.679 F10800
G1 X135.220 Y88.679 E33.8598 F5400
G1 X135.537 Y89.433 E33.8870
G1 X135.537 Y110.922 E34.6014
G0 X135.537 Y113.713 F10800
G1 X135.537 Y113.425 E34.6110 F5400
