; GCode generated by CraftWare

G28 X0 Y0
G28 Z0

M190 S60 ;set bed temp (wait)
M109 S215 ;set head temp (wait)
; ------------------------------------
; Layer #0
; ------------------------------------
G21 ; mm
G90 ; abs
G92 E0 ; reset extr
M106 S0
;segType:Skirt
G0 F4800 E-1.0000
G0 F300 Z0.200
G0 X219.903 Y191.685 F10800
G0 F4800 E0.0000
G1 X220.695 Y190.893 E0.0373 F600
G1 X220.761 Y190.431 E0.0528
G1 X220.761 Y185.282 E0.2240
G1 X220.629 Y185.150 E0.2302
G1 X220.629 Y181.454 E0.3532
G1 X220.497 Y180.530 E0.3842
G1 X220.497 Y177.361 E0.4896
G1 X220.365 Y176.965 E0.5035
G1 X220.365 Y175.909 E0.5386
G1 X220.233 Y175.777 E0.5448
G1 X220.233 Y174.721 E0.5799
G1 X220.101 Y174.589 E0.5862
G1 X220.101 Y173.533 E0.6213
G1 X219.969 Y173.137 E0.6352
G1 X219.969 Y172.081 E0.6703
G1 X219.837 Y171.949 E0.6765
G1 X219.837 Y170.893 E0.7116
G1 X219.705 Y170.497 E0.7255
G1 X219.705 Y169.969 E0.7431
G1 X219.573 Y169.044 E0.7741
G1 X219.573 Y168.252 E0.8005
G1 X219.441 Y168.120 E0.8067
G1 X219.441 Y167.064 E0.8418
G1 X219.309 Y166.668 E0.8557
G1 X219.309 Y166.140 E0.8733
G1 X219.177 Y165.216 E0.9043
G1 X219.177 Y164.688 E0.9219
G1 X219.045 Y164.292 E0.9358
G1 X219.045 Y163.764 E0.9533
G1 X218.913 Y163.632 E0.9595
G1 X218.913 Y163.104 E0.9771
G1 X218.781 Y162.708 E0.9910
G1 X218.649 Y161.784 E1.0220
G1 X218.649 Y161.520 E1.0308
G1 X218.517 Y161.388 E1.0370
G1 X218.517 Y160.859 E1.0546
G1 X218.385 Y160.463 E1.0685
G1 X218.253 Y159.539 E1.0995
G1 X218.253 Y159.275 E1.1083
G1 X218.121 Y159.143 E1.1145
G1 X218.121 Y158.615 E1.1321
G1 X217.989 Y158.219 E1.1460
G1 X217.989 Y157.691 E1.1635
G1 X217.856 Y157.559 E1.1697
G1 X217.856 Y157.031 E1.1873
G1 X217.724 Y156.899 E1.1935
G1 X217.724 Y156.371 E1.2111
G1 X217.592 Y155.975 E1.2250
G1 X217.592 Y155.447 E1.2425
G1 X217.460 Y155.315 E1.2487
G1 X217.460 Y154.787 E1.2663
G1 X217.328 Y154.655 E1.2725
G1 X217.328 Y154.127 E1.2901
G1 X217.196 Y153.731 E1.3039
G1 X217.196 Y153.202 E1.3215
G1 X217.064 Y153.070 E1.3277
G1 X217.064 Y152.542 E1.3453
G1 X216.932 Y152.146 E1.3592
G1 X216.800 Y151.222 E1.3902
G1 X216.668 Y151.090 E1.3964
G1 X216.536 Y150.166 E1.4275
G1 X216.404 Y150.034 E1.4337
G1 X216.272 Y149.110 E1.4647
G1 X216.140 Y148.978 E1.4709
G1 X216.008 Y148.054 E1.5020
G1 X215.876 Y147.922 E1.5082
G1 X215.744 Y146.998 E1.5392
G1 X215.612 Y146.866 E1.5455
G1 X215.480 Y145.942 E1.5765
G1 X215.348 Y145.810 E1.5827
G1 X215.216 Y144.885 E1.6138
G1 X215.084 Y144.753 E1.6200
G1 X214.952 Y143.829 E1.6510
G1 X214.820 Y143.697 E1.6572
G1 X214.688 Y142.773 E1.6883
G1 X214.556 Y142.641 E1.6945
G1 X214.424 Y141.717 E1.7255
G1 X214.292 Y141.585 E1.7317
G1 X214.160 Y140.661 E1.7628
G1 X214.028 Y140.529 E1.7690
G1 X213.962 Y140.067 E1.7845
G1 X211.850 Y133.730 E2.0067
G1 X211.784 Y133.268 E2.0222
G1 X211.652 Y133.136 E2.0284
G1 X211.652 Y132.872 E2.0372
G1 X211.520 Y132.740 E2.0434
G1 X211.520 Y132.476 E2.0522
G1 X211.388 Y132.344 E2.0584
G1 X211.388 Y132.080 E2.0672
G1 X211.256 Y131.948 E2.0734
G1 X211.256 Y131.684 E2.0822
G1 X211.124 Y131.552 E2.0884
G1 X211.124 Y131.288 E2.0972
G1 X210.992 Y131.156 E2.1034
G1 X210.992 Y130.892 E2.1122
G1 X210.860 Y130.760 E2.1184
G1 X210.860 Y130.496 E2.1272
G1 X210.728 Y130.364 E2.1334
G1 X210.728 Y130.100 E2.1421
G1 X210.596 Y129.968 E2.1484
G1 X210.596 Y129.704 E2.1571
G1 X210.464 Y129.572 E2.1633
G1 X210.464 Y129.308 E2.1721
G1 X210.332 Y129.176 E2.1783
G1 X210.332 Y128.912 E2.1871
G1 X210.200 Y128.780 E2.1933
G1 X210.200 Y128.515 E2.2021
G1 X210.068 Y128.383 E2.2083
G1 X210.068 Y128.119 E2.2171
G1 X209.936 Y127.987 E2.2233
G1 X209.936 Y127.723 E2.2321
G1 X209.804 Y127.591 E2.2383
G1 X209.804 Y127.327 E2.2471
G1 X209.407 Y126.667 E2.2727
G1 X209.407 Y126.403 E2.2815
G1 X209.210 Y126.073 E2.2943
G1 X209.078 Y125.677 E2.3081
G1 X208.879 Y125.347 E2.3210
G1 X208.879 Y125.083 E2.3297
G1 X208.682 Y124.753 E2.3425
G1 X208.550 Y124.357 E2.3564
G1 X208.351 Y124.027 E2.3692
G1 X208.087 Y123.235 E2.3970
G1 X207.955 Y123.103 E2.4032
G1 X207.955 Y122.839 E2.4120
G1 X207.758 Y122.509 E2.4248
G1 X207.625 Y122.113 E2.4387
G1 X207.427 Y121.783 E2.4515
G1 X207.163 Y120.991 E2.4792
G1 X207.031 Y120.859 E2.4855
G1 X207.031 Y120.595 E2.4942
G1 X206.833 Y120.265 E2.5070
G1 X206.701 Y119.869 E2.5209
G1 X206.503 Y119.538 E2.5337
G1 X206.503 Y119.274 E2.5425
G1 X206.107 Y118.614 E2.5681
G1 X206.107 Y118.350 E2.5769
G1 X205.909 Y118.020 E2.5897
G1 X205.777 Y117.624 E2.6036
G1 X205.579 Y117.294 E2.6164
G1 X205.579 Y117.030 E2.6252
G1 X205.381 Y116.700 E2.6380
G1 X205.249 Y116.304 E2.6518
G1 X205.051 Y115.974 E2.6647
G1 X204.919 Y115.578 E2.6785
G1 X204.523 Y114.918 E2.7041
G1 X204.391 Y114.522 E2.7180
G1 X203.995 Y113.862 E2.7436
G1 X203.863 Y113.466 E2.7575
G1 X203.467 Y112.806 E2.7831
G1 X203.335 Y112.410 E2.7970
G1 X202.939 Y111.749 E2.8226
G1 X202.807 Y111.353 E2.8365
G1 X202.411 Y110.693 E2.8621
G1 X202.279 Y110.297 E2.8760
G1 X201.883 Y109.637 E2.9016
G1 X201.751 Y109.241 E2.9155
G1 X201.354 Y108.581 E2.9411
G1 X201.222 Y108.185 E2.9550
G1 X200.826 Y107.525 E2.9806
G1 X200.694 Y107.129 E2.9944
G1 X200.298 Y106.469 E3.0200
G1 X200.166 Y106.073 E3.0339
G1 X199.770 Y105.413 E3.0595
G1 X199.638 Y105.017 E3.0734
G1 X199.242 Y104.357 E3.0990
G1 X199.110 Y103.960 E3.1129
G1 X198.846 Y103.696 E3.1253
G1 X198.714 Y103.300 E3.1392
G1 X195.546 Y98.020 E3.3440
G1 X193.566 Y94.719 E3.4720
G1 X193.433 Y94.323 E3.4859
G1 X193.169 Y94.059 E3.4984
G1 X193.037 Y93.663 E3.5122
G1 X192.773 Y93.399 E3.5247
G1 X192.377 Y92.739 E3.5503
G1 X192.113 Y92.475 E3.5627
G1 X191.321 Y91.155 E3.6139
G1 X191.057 Y90.891 E3.6263
G1 X190.661 Y90.231 E3.6519
G1 X190.397 Y89.967 E3.6643
G1 X189.803 Y88.977 E3.7027
G1 X189.539 Y88.713 E3.7151
G1 X188.945 Y87.722 E3.7536
G1 X188.681 Y87.458 E3.7660
G1 X188.285 Y86.798 E3.7916
G1 X188.021 Y86.534 E3.8040
G1 X187.427 Y85.544 E3.8424
G1 X187.163 Y85.280 E3.8548
G1 X186.569 Y84.290 E3.8932
G1 X186.305 Y84.026 E3.9056
G1 X185.909 Y83.366 E3.9312
G1 X185.645 Y83.102 E3.9437
G1 X185.248 Y82.442 E3.9693
G1 X184.720 Y81.914 E3.9941
G1 X184.523 Y81.584 E4.0069
G1 X184.259 Y81.320 E4.0193
G1 X184.060 Y80.990 E4.0321
G1 X183.532 Y80.462 E4.0570
G1 X183.335 Y80.132 E4.0698
G1 X183.070 Y79.868 E4.0822
G1 X182.872 Y79.538 E4.0950
G1 X182.608 Y79.273 E4.1074
G1 X182.410 Y78.944 E4.1202
G1 X182.146 Y78.680 E4.1326
G1 X181.948 Y78.349 E4.1454
G1 X181.420 Y77.821 E4.1703
G1 X181.222 Y77.492 E4.1831
G1 X180.958 Y77.227 E4.1955
G1 X180.760 Y76.897 E4.2083
G1 X180.232 Y76.369 E4.2331
G1 X180.034 Y76.039 E4.2459
G1 X179.770 Y75.775 E4.2583
G1 X179.572 Y75.445 E4.2712
G1 X179.308 Y75.181 E4.2836
G1 X179.110 Y74.851 E4.2964
G1 X178.846 Y74.587 E4.3088
G1 X178.648 Y74.257 E4.3216
G1 X178.120 Y73.729 E4.3464
G1 X177.922 Y73.399 E4.3592
G1 X177.130 Y72.607 E4.3965
G1 X176.931 Y72.277 E4.4093
G1 X175.347 Y70.692 E4.4838
G1 X175.150 Y70.363 E4.4966
G1 X173.829 Y69.042 E4.5587
G1 X173.631 Y68.712 E4.5715
G1 X172.047 Y67.128 E4.6460
G1 X171.849 Y66.798 E4.6588
G1 X170.265 Y65.214 E4.7333
G1 X170.067 Y64.884 E4.7461
G1 X165.842 Y60.659 E4.9449
G1 X165.578 Y60.395 E4.9573
G1 X165.248 Y60.197 E4.9701
G1 X163.400 Y58.349 E5.0570
G1 X163.070 Y58.151 E5.0698
G1 X161.750 Y56.831 E5.1319
G1 X161.420 Y56.633 E5.1447
G1 X159.572 Y54.785 E5.2316
G1 X159.241 Y54.586 E5.2444
G1 X157.657 Y53.002 E5.3190
G1 X157.327 Y52.804 E5.3318
G1 X156.535 Y52.012 E5.3690
G1 X156.205 Y51.814 E5.3818
G1 X155.941 Y51.550 E5.3942
G1 X155.611 Y51.352 E5.4070
G1 X155.083 Y50.824 E5.4319
G1 X154.753 Y50.626 E5.4447
G1 X154.489 Y50.362 E5.4571
G1 X154.159 Y50.164 E5.4699
G1 X153.895 Y49.900 E5.4823
G1 X153.565 Y49.702 E5.4951
G1 X153.301 Y49.438 E5.5075
G1 X152.971 Y49.240 E5.5203
G1 X152.443 Y48.712 E5.5452
G1 X152.112 Y48.514 E5.5580
G1 X151.848 Y48.250 E5.5704
G1 X151.519 Y48.052 E5.5832
G1 X150.991 Y47.524 E5.6080
G1 X150.660 Y47.326 E5.6208
G1 X150.396 Y47.062 E5.6333
G1 X150.066 Y46.864 E5.6461
G1 X149.802 Y46.600 E5.6585
G1 X149.472 Y46.401 E5.6713
G1 X149.208 Y46.137 E5.6837
G1 X148.878 Y45.940 E5.6965
G1 X148.350 Y45.412 E5.7213
G1 X148.020 Y45.213 E5.7341
G1 X147.756 Y44.949 E5.7466
G1 X147.426 Y44.752 E5.7594
G1 X147.162 Y44.487 E5.7718
G1 X146.832 Y44.289 E5.7846
G1 X146.568 Y44.025 E5.7970
G1 X145.578 Y43.431 E5.8354
G1 X145.314 Y43.167 E5.8478
G1 X144.654 Y42.771 E5.8734
G1 X144.390 Y42.507 E5.8858
G1 X143.070 Y41.715 E5.9370
G1 X142.806 Y41.451 E5.9495
G1 X142.145 Y41.055 E5.9751
G1 X141.881 Y40.791 E5.9875
G1 X141.221 Y40.395 E6.0131
G1 X140.957 Y40.131 E6.0255
G1 X139.637 Y39.339 E6.0767
G1 X139.373 Y39.075 E6.0891
G1 X138.713 Y38.679 E6.1147
G1 X138.449 Y38.415 E6.1272
G1 X137.459 Y37.820 E6.1656
G1 X137.195 Y37.556 E6.1780
G1 X131.914 Y34.388 E6.3828
G1 X128.944 Y32.606 E6.4980
G1 X128.548 Y32.474 E6.5119
G1 X128.284 Y32.210 E6.5243
G1 X127.888 Y32.078 E6.5382
G1 X127.624 Y31.814 E6.5506
G1 X127.228 Y31.682 E6.5645
G1 X126.964 Y31.418 E6.5769
G1 X126.568 Y31.286 E6.5908
G1 X124.587 Y30.098 E6.6676
G1 X124.191 Y29.966 E6.6815
G1 X123.531 Y29.570 E6.7071
G1 X123.135 Y29.438 E6.7210
G1 X122.475 Y29.042 E6.7466
G1 X122.079 Y28.910 E6.7605
G1 X121.419 Y28.514 E6.7861
G1 X121.023 Y28.382 E6.8000
G1 X120.363 Y27.985 E6.8256
G1 X119.967 Y27.853 E6.8395
G1 X119.307 Y27.457 E6.8651
G1 X118.911 Y27.325 E6.8790
G1 X118.251 Y26.929 E6.9046
G1 X117.855 Y26.797 E6.9184
G1 X117.194 Y26.401 E6.9440
G1 X116.930 Y26.401 E6.9528
G1 X116.270 Y26.005 E6.9784
G1 X115.874 Y25.873 E6.9923
G1 X115.214 Y25.477 E7.0179
G1 X114.818 Y25.345 E7.0318
G1 X114.158 Y24.949 E7.0574
G1 X113.762 Y24.817 E7.0713
G1 X113.630 Y24.685 E7.0775
G1 X113.366 Y24.685 E7.0863
G1 X112.706 Y24.289 E7.1119
G1 X112.442 Y24.289 E7.1207
G1 X112.112 Y24.091 E7.1335
G1 X111.716 Y23.959 E7.1474
G1 X111.386 Y23.761 E7.1602
G1 X111.122 Y23.761 E7.1689
G1 X110.791 Y23.563 E7.1818
G1 X110.395 Y23.431 E7.1956
G1 X110.066 Y23.233 E7.2084
G1 X109.273 Y22.969 E7.2362
G1 X109.141 Y22.837 E7.2424
G1 X108.877 Y22.837 E7.2512
G1 X108.547 Y22.639 E7.2640
G1 X108.151 Y22.507 E7.2779
G1 X107.821 Y22.309 E7.2907
G1 X107.557 Y22.309 E7.2995
G1 X106.897 Y21.913 E7.3251
G1 X106.633 Y21.913 E7.3338
G1 X106.303 Y21.714 E7.3467
G1 X105.907 Y21.582 E7.3605
G1 X105.577 Y21.385 E7.3733
G1 X105.313 Y21.385 E7.3821
G1 X104.983 Y21.186 E7.3949
G1 X104.587 Y21.054 E7.4088
G1 X104.257 Y20.857 E7.4216
G1 X103.465 Y20.593 E7.4494
G1 X103.333 Y20.461 E7.4556
G1 X103.069 Y20.461 E7.4644
G1 X102.738 Y20.262 E7.4772
G1 X102.342 Y20.130 E7.4911
G1 X102.013 Y19.932 E7.5038
G1 X101.749 Y19.932 E7.5126
G1 X101.617 Y19.800 E7.5188
G1 X101.353 Y19.800 E7.5276
G1 X101.220 Y19.668 E7.5338
G1 X100.956 Y19.668 E7.5426
G1 X100.824 Y19.536 E7.5488
G1 X100.362 Y19.470 E7.5644
G1 X94.025 Y17.358 E7.7865
G1 X90.461 Y16.170 E7.9115
G1 X89.999 Y16.104 E7.9270
G1 X89.867 Y15.972 E7.9332
G1 X88.943 Y15.840 E7.9643
G1 X88.811 Y15.708 E7.9705
G1 X87.887 Y15.576 E8.0015
G1 X87.755 Y15.444 E8.0077
G1 X86.831 Y15.312 E8.0388
G1 X86.699 Y15.180 E8.0450
G1 X85.775 Y15.048 E8.0760
G1 X85.643 Y14.916 E8.0822
G1 X84.718 Y14.784 E8.1133
G1 X84.586 Y14.652 E8.1195
G1 X83.662 Y14.520 E8.1505
G1 X83.530 Y14.388 E8.1568
G1 X82.606 Y14.256 E8.1878
G1 X82.474 Y14.124 E8.1940
G1 X81.550 Y13.992 E8.2251
G1 X81.418 Y13.860 E8.2313
G1 X80.494 Y13.728 E8.2623
G1 X80.452 Y13.686 E8.2643
G0 F4800 E7.2643
G0 X86.668 Y20.986 F10800
G0 X215.611 Y189.227
G0 F4800 E8.2643
;segType:Loop
G1 X215.201 Y189.227 E8.2779 F600
G1 X214.777 Y177.415 E8.6710
G1 X214.770 Y177.281 E8.6755
G1 X213.337 Y164.216 E9.1127
G1 X210.926 Y151.292 E9.5500
G1 X207.553 Y138.585 E9.9872
G1 X203.234 Y126.167 E10.4245
G1 X197.997 Y114.108 E10.8618
G1 X191.868 Y102.476 E11.2991
G1 X184.884 Y91.337 E11.7364
G1 X177.084 Y80.753 E12.1736
G1 X168.511 Y70.785 E12.6109
G1 X159.215 Y61.489 E13.0482
G1 X149.247 Y52.916 E13.4855
G1 X138.663 Y45.116 E13.9228
G1 X127.524 Y38.132 E14.3601
G1 X115.892 Y32.003 E14.7974
G1 X103.833 Y26.766 E15.2346
G1 X91.415 Y22.447 E15.6719
G1 X78.708 Y19.074 E16.1092
G1 X65.784 Y16.663 E16.5465
G1 X52.704 Y15.229 E16.9841
G1 X52.595 Y15.223 E16.9877
G1 X40.773 Y14.799 E17.3812
G1 X40.773 Y13.713 E17.4174
G1 X51.737 Y14.075 E17.7822
G1 X64.235 Y15.347 E18.2001
G1 X64.301 Y15.355 E18.2023
G1 X76.793 Y17.543 E18.6241
G1 X89.091 Y20.624 E19.0458
G1 X101.135 Y24.581 E19.4674
G1 X112.864 Y29.394 E19.8891
G1 X124.216 Y35.039 E20.3108
G1 X135.133 Y41.485 E20.7324
G1 X145.558 Y48.700 E21.1541
G1 X155.436 Y56.646 E21.5758
G1 X164.717 Y65.283 E21.9974
G1 X173.354 Y74.564 E22.4191
G1 X181.300 Y84.442 E22.8408
G1 X188.515 Y94.867 E23.2625
G1 X194.961 Y105.784 E23.6841
G1 X200.606 Y117.136 E24.1058
G1 X205.419 Y128.865 E24.5275
G1 X209.376 Y140.909 E24.9491
G1 X212.457 Y153.207 E25.3708
G1 X214.645 Y165.695 E25.7925
G1 X215.930 Y178.339 E26.2152
G1 X216.287 Y189.227 E26.5775
G1 X215.809 Y189.227 E26.5934
;segType:Perimeter
G0 X216.352 Y188.975 F10800
G1 X216.641 Y189.627 E26.6172 F359
G1 X214.815 Y189.627 E26.6779
G1 X214.377 Y177.432 E27.0838
G1 X214.371 Y177.312 E27.0878
G1 X212.941 Y164.275 E27.5240
G1 X210.536 Y151.380 E27.9603
G1 X207.170 Y138.702 E28.3966
G1 X202.861 Y126.312 E28.8329
G1 X197.636 Y114.281 E29.2691
G1 X191.521 Y102.676 E29.7054
G1 X184.553 Y91.562 E30.1417
G1 X176.771 Y81.003 E30.5780
G1 X168.218 Y71.058 E31.0143
G1 X158.942 Y61.782 E31.4506
G1 X148.997 Y53.229 E31.8868
G1 X138.438 Y45.447 E32.3231
G1 X127.324 Y38.479 E32.7594
G1 X115.719 Y32.364 E33.1957
G1 X103.688 Y27.139 E33.6320
G1 X91.298 Y22.830 E34.0683
G1 X78.620 Y19.464 E34.5045
G1 X65.725 Y17.059 E34.9408
G1 X52.673 Y15.628 E35.3776
G1 X52.578 Y15.623 E35.3807
G1 X40.373 Y15.185 E35.7869
G1 X40.373 Y13.300 E35.8496
G1 X51.764 Y13.675 E36.2287
G1 X64.279 Y14.949 E36.6471
G1 X64.359 Y14.959 E36.6498
G1 X76.876 Y17.152 E37.0725
G1 X89.202 Y20.239 E37.4951
G1 X101.274 Y24.205 E37.9177
G1 X113.029 Y29.029 E38.3403
G1 X124.407 Y34.687 E38.7630
G1 X135.348 Y41.148 E39.1856
G1 X145.797 Y48.379 E39.6082
G1 X155.698 Y56.344 E40.0309
G1 X165.001 Y64.999 E40.4535
G1 X173.656 Y74.302 E40.8761
G1 X181.621 Y84.203 E41.2987
G1 X188.852 Y94.652 E41.7214
G1 X195.313 Y105.593 E42.1440
G1 X200.971 Y116.971 E42.5666
G1 X205.795 Y128.726 E42.9892
G1 X209.761 Y140.798 E43.4119
G1 X212.848 Y153.124 E43.8345
G1 X215.041 Y165.640 E44.2571
G1 X216.330 Y178.312 E44.6808
G1 X216.699 Y189.568 E45.0553
G1 X216.037 Y189.300
;segType:Loop
G0 X215.576 Y188.533 F10800
G1 X215.176 Y177.398 E45.4259 F600
G1 X215.169 Y177.250 E45.4309
G1 X213.733 Y164.158 E45.8689
G1 X211.317 Y151.203 E46.3072
G1 X207.935 Y138.468 E46.7455
G1 X203.607 Y126.021 E47.1838
G1 X198.358 Y113.935 E47.6221
G1 X192.215 Y102.277 E48.0603
G1 X185.215 Y91.112 E48.4986
G1 X177.397 Y80.504 E48.9369
G1 X168.805 Y70.513 E49.3752
G1 X159.487 Y61.195 E49.8135
G1 X149.496 Y52.603 E50.2518
G1 X138.888 Y44.785 E50.6900
G1 X127.724 Y37.785 E51.1284
G1 X116.065 Y31.642 E51.5666
G1 X103.979 Y26.393 E52.0049
G1 X91.532 Y22.065 E52.4432
G1 X78.797 Y18.683 E52.8815
G1 X65.842 Y16.267 E53.3198
G1 X52.735 Y14.830 E53.7583
G1 X52.612 Y14.824 E53.7624
G1 X41.173 Y14.413 E54.1431
G1 X41.173 Y14.126 E54.1527
G1 X51.711 Y14.474 E54.5034
G1 X64.192 Y15.745 E54.9206
G1 X64.244 Y15.751 E54.9224
G1 X76.710 Y17.934 E55.3433
G1 X88.980 Y21.008 E55.7640
G1 X100.997 Y24.956 E56.1847
G1 X112.699 Y29.759 E56.6055
G1 X124.025 Y35.390 E57.0262
G1 X134.917 Y41.822 E57.4469
G1 X145.318 Y49.021 E57.8676
G1 X155.174 Y56.949 E58.2883
G1 X164.434 Y65.566 E58.7090
G1 X173.051 Y74.826 E59.1297
G1 X180.979 Y84.682 E59.5504
G1 X188.178 Y95.083 E59.9711
G1 X194.610 Y105.975 E60.3918
G1 X200.241 Y117.301 E60.8125
G1 X205.044 Y129.003 E61.2333
G1 X208.992 Y141.020 E61.6540
G1 X212.066 Y153.290 E62.0747
G1 X214.248 Y165.750 E62.4954
G1 X215.531 Y178.366 E62.9172
G1 X215.874 Y188.827 E63.2653
G1 X215.587 Y188.827 E63.2749
G1 X215.583 Y188.731 E63.2781
; ------------------------------------
; Layer #1
; ------------------------------------
G21 ; mm
G90 ; abs
G92 E0 ; reset extr
M106 S0
;segType:Loop
G0 F4800 E-1.0000
G0 F300 Z0.400
G0 X215.612 Y189.227 F10800
G0 F4800 E0.0000
G1 X215.202 Y189.227 E0.0136 F3600
G1 X214.782 Y177.526 E0.4031
G1 X214.770 Y177.281 E0.4112
G1 X213.368 Y164.487 E0.8393
G1 X213.337 Y164.215 E0.8484
G1 X210.926 Y151.292 E1.2856
G1 X207.553 Y138.585 E1.7229
G1 X203.234 Y126.167 E2.1602
G1 X197.997 Y114.108 E2.5975
G1 X191.868 Y102.476 E3.0348
G1 X184.884 Y91.337 E3.4721
G1 X177.084 Y80.753 E3.9093
G1 X168.511 Y70.785 E4.3466
G1 X159.215 Y61.489 E4.7839
G1 X149.247 Y52.916 E5.2212
G1 X138.663 Y45.116 E5.6585
G1 X127.524 Y38.132 E6.0958
G1 X115.892 Y32.003 E6.5330
G1 X103.833 Y26.766 E6.9703
G1 X91.415 Y22.447 E7.4076
G1 X78.708 Y19.074 E7.8449
G1 X65.784 Y16.663 E8.2822
G1 X52.689 Y15.228 E8.7203
G1 X52.495 Y15.218 E8.7268
G1 X40.773 Y14.798 E9.1169
G1 X40.773 Y13.712 E9.1530
G1 X51.644 Y14.068 E9.5148
G1 X51.772 Y14.077 E9.5191
G1 X64.151 Y15.337 E9.9329
G1 X64.301 Y15.355 E9.9380
G1 X76.793 Y17.543 E10.3598
G1 X89.091 Y20.624 E10.7814
G1 X101.135 Y24.581 E11.2031
G1 X112.864 Y29.394 E11.6248
G1 X124.216 Y35.039 E12.0464
G1 X135.133 Y41.485 E12.4681
G1 X145.558 Y48.700 E12.8898
G1 X155.436 Y56.646 E13.3114
G1 X164.717 Y65.283 E13.7331
G1 X173.354 Y74.564 E14.1548
G1 X181.300 Y84.442 E14.5764
G1 X188.515 Y94.867 E14.9981
G1 X194.961 Y105.784 E15.4198
G1 X200.606 Y117.136 E15.8415
G1 X205.419 Y128.865 E16.2631
G1 X209.376 Y140.909 E16.6848
G1 X212.457 Y153.207 E17.1065
G1 X214.645 Y165.695 E17.5281
G1 X215.929 Y178.314 E17.9500
G1 X215.937 Y178.465 E17.9550
G1 X216.288 Y189.227 E18.3132
G1 X215.810 Y189.227 E18.3291
;segType:Perimeter
G0 X216.353 Y188.975 F10800
G1 X216.642 Y189.627 E18.3529 F2159
G1 X214.816 Y189.627 E18.4136
G1 X214.382 Y177.543 E18.8158
G1 X214.371 Y177.312 E18.8234
G1 X212.970 Y164.532 E19.2511
G1 X212.941 Y164.274 E19.2597
G1 X210.536 Y151.380 E19.6960
G1 X207.170 Y138.702 E20.1322
G1 X202.861 Y126.312 E20.5685
G1 X197.636 Y114.281 E21.0048
G1 X191.521 Y102.676 E21.4411
G1 X184.553 Y91.562 E21.8774
G1 X176.771 Y81.003 E22.3137
G1 X168.218 Y71.058 E22.7499
G1 X158.942 Y61.782 E23.1862
G1 X148.997 Y53.229 E23.6225
G1 X138.438 Y45.447 E24.0588
G1 X127.324 Y38.479 E24.4951
G1 X115.719 Y32.364 E24.9314
G1 X103.688 Y27.139 E25.3676
G1 X91.298 Y22.830 E25.8039
G1 X78.620 Y19.464 E26.2402
G1 X65.725 Y17.059 E26.6765
G1 X52.658 Y15.627 E27.1137
G1 X52.477 Y15.618 E27.1197
G1 X40.373 Y15.184 E27.5226
G1 X40.373 Y13.307 E27.5850
G1 X40.464 Y13.302 E27.5880
G1 X51.664 Y13.669 E27.9608
G1 X51.807 Y13.679 E27.9655
G1 X64.193 Y14.940 E28.3796
G1 X64.359 Y14.959 E28.3852
G1 X76.876 Y17.152 E28.8078
G1 X89.202 Y20.239 E29.2305
G1 X101.274 Y24.205 E29.6531
G1 X113.029 Y29.029 E30.0757
G1 X124.407 Y34.687 E30.4983
G1 X135.348 Y41.148 E30.9210
G1 X145.797 Y48.379 E31.3436
G1 X155.698 Y56.344 E31.7662
G1 X165.001 Y64.999 E32.1889
G1 X173.656 Y74.302 E32.6115
G1 X181.621 Y84.203 E33.0341
G1 X188.852 Y94.652 E33.4567
G1 X195.313 Y105.593 E33.8794
G1 X200.971 Y116.971 E34.3020
G1 X205.795 Y128.726 E34.7246
G1 X209.761 Y140.798 E35.1472
G1 X212.848 Y153.124 E35.5699
G1 X215.041 Y165.640 E35.9925
G1 X216.328 Y178.284 E36.4152
G1 X216.336 Y178.447 E36.4207
G1 X216.700 Y189.568 E36.7907
G1 X216.038 Y189.300
;segType:Loop
G0 X215.577 Y188.533 F10800
G1 X215.182 Y177.509 E37.1576 F3600
G1 X215.169 Y177.250 E37.1662
G1 X213.765 Y164.443 E37.5947
G1 X213.733 Y164.156 E37.6043
G1 X211.317 Y151.203 E38.0426
G1 X207.935 Y138.468 E38.4808
G1 X203.607 Y126.021 E38.9191
G1 X198.358 Y113.935 E39.3574
G1 X192.215 Y102.277 E39.7957
G1 X185.215 Y91.112 E40.2340
G1 X177.397 Y80.504 E40.6723
G1 X168.805 Y70.513 E41.1106
G1 X159.487 Y61.195 E41.5488
G1 X149.496 Y52.603 E41.9871
G1 X138.888 Y44.785 E42.4254
G1 X127.724 Y37.785 E42.8637
G1 X116.065 Y31.642 E43.3020
G1 X103.979 Y26.393 E43.7402
G1 X91.532 Y22.065 E44.1785
G1 X78.797 Y18.683 E44.6168
G1 X65.842 Y16.267 E45.0551
G1 X52.721 Y14.829 E45.4941
G1 X52.511 Y14.819 E45.5011
G1 X41.173 Y14.412 E45.8785
G1 X41.173 Y14.125 E45.8880
G1 X51.623 Y14.468 E46.2358
G1 X51.738 Y14.476 E46.2396
G1 X64.108 Y15.735 E46.6532
G1 X64.244 Y15.751 E46.6577
G1 X76.710 Y17.934 E47.0787
G1 X88.980 Y21.008 E47.4994
G1 X100.997 Y24.956 E47.9201
G1 X112.699 Y29.759 E48.3408
G1 X124.025 Y35.390 E48.7615
G1 X134.917 Y41.822 E49.1822
G1 X145.318 Y49.021 E49.6029
G1 X155.174 Y56.949 E50.0236
G1 X164.434 Y65.566 E50.4443
G1 X173.051 Y74.826 E50.8650
G1 X180.979 Y84.682 E51.2858
G1 X188.178 Y95.083 E51.7065
G1 X194.610 Y105.975 E52.1272
G1 X200.241 Y117.301 E52.5479
G1 X205.044 Y129.003 E52.9686
G1 X208.992 Y141.020 E53.3893
G1 X212.066 Y153.290 E53.8100
G1 X214.248 Y165.749 E54.2307
G1 X215.530 Y178.345 E54.6518
G1 X215.537 Y178.481 E54.6563
G1 X215.875 Y188.827 E55.0007
G1 X215.588 Y188.827 E55.0102
G1 X215.585 Y188.731 E55.0134
; ------------------------------------
; Layer #2
; ------------------------------------
G21 ; mm
G90 ; abs
G92 E0 ; reset extr
M106 S0
;segType:Loop
G0 F4800 E-1.0000
G0 F300 Z0.600
G0 X215.610 Y189.227 F10800
G0 F4800 E0.0000
G1 X215.204 Y189.227 E0.0135 F3600
G1 X214.787 Y177.639 E0.3991
G1 X214.770 Y177.281 E0.4111
G1 X213.382 Y164.613 E0.8350
G1 X213.337 Y164.215 E0.8483
G1 X210.926 Y151.292 E1.2855
G1 X207.553 Y138.585 E1.7228
G1 X203.234 Y126.167 E2.1601
G1 X197.997 Y114.108 E2.5974
G1 X191.868 Y102.476 E3.0346
G1 X184.884 Y91.337 E3.4719
G1 X177.084 Y80.753 E3.9092
G1 X168.511 Y70.785 E4.3465
G1 X159.215 Y61.489 E4.7838
G1 X149.247 Y52.916 E5.2211
G1 X138.663 Y45.116 E5.6583
G1 X127.524 Y38.132 E6.0956
G1 X115.892 Y32.003 E6.5329
G1 X103.833 Y26.766 E6.9702
G1 X91.415 Y22.447 E7.4075
G1 X78.708 Y19.074 E7.8448
G1 X65.783 Y16.663 E8.2821
G1 X52.675 Y15.227 E8.7207
G1 X52.394 Y15.213 E8.7300
G1 X40.773 Y14.793 E9.1168
G1 X40.773 Y13.711 E9.1528
G1 X51.615 Y14.067 E9.5136
G1 X51.818 Y14.081 E9.5203
G1 X64.065 Y15.328 E9.9298
G1 X64.301 Y15.355 E9.9377
G1 X76.793 Y17.543 E10.3595
G1 X89.091 Y20.624 E10.7812
G1 X101.135 Y24.581 E11.2028
G1 X112.864 Y29.394 E11.6245
G1 X124.216 Y35.039 E12.0462
G1 X135.133 Y41.485 E12.4678
G1 X145.558 Y48.700 E12.8895
G1 X155.436 Y56.646 E13.3112
G1 X164.717 Y65.283 E13.7328
G1 X173.354 Y74.564 E14.1545
G1 X181.300 Y84.442 E14.5762
G1 X188.515 Y94.867 E14.9979
G1 X194.961 Y105.784 E15.4195
G1 X200.606 Y117.136 E15.8412
G1 X205.419 Y128.865 E16.2629
G1 X209.376 Y140.909 E16.6845
G1 X212.457 Y153.207 E17.1062
G1 X214.645 Y165.695 E17.5279
G1 X215.929 Y178.314 E17.9498
G1 X215.941 Y178.550 E17.9576
G1 X216.287 Y189.227 E18.3129
G1 X215.808 Y189.227 E18.3289
G0 F4800 E17.3289
G0 X216.351 Y188.975 F10800
G0 F4800 E18.3289
;segType:Perimeter
G1 X216.640 Y189.627 E18.3526 F2159
G1 X214.818 Y189.627 E18.4132
G1 X214.388 Y177.656 E18.8116
G1 X214.371 Y177.312 E18.8231
G1 X212.984 Y164.657 E19.2465
G1 X212.941 Y164.274 E19.2593
G1 X210.536 Y151.380 E19.6956
G1 X207.170 Y138.702 E20.1319
G1 X202.861 Y126.312 E20.5681
G1 X197.636 Y114.281 E21.0044
G1 X191.521 Y102.676 E21.4407
G1 X184.553 Y91.562 E21.8770
G1 X176.771 Y81.003 E22.3133
G1 X168.218 Y71.058 E22.7496
G1 X158.942 Y61.782 E23.1858
G1 X148.997 Y53.229 E23.6221
G1 X138.438 Y45.447 E24.0584
G1 X127.324 Y38.479 E24.4947
G1 X115.719 Y32.364 E24.9310
G1 X103.688 Y27.139 E25.3673
G1 X91.298 Y22.830 E25.8035
G1 X78.620 Y19.464 E26.2398
G1 X65.725 Y17.059 E26.6761
G1 X52.643 Y15.626 E27.1138
G1 X52.377 Y15.613 E27.1227
G1 X40.373 Y15.179 E27.5222
G1 X40.373 Y13.297 E27.5848
G1 X40.598 Y13.306 E27.5923
G1 X51.636 Y13.667 E27.9596
G1 X51.853 Y13.682 E27.9668
G1 X64.107 Y14.930 E28.3765
G1 X64.359 Y14.959 E28.3849
G1 X76.876 Y17.152 E28.8076
G1 X89.202 Y20.239 E29.2302
G1 X101.274 Y24.205 E29.6529
G1 X113.029 Y29.029 E30.0755
G1 X124.407 Y34.687 E30.4981
G1 X135.348 Y41.148 E30.9207
G1 X145.797 Y48.379 E31.3434
G1 X155.698 Y56.344 E31.7660
G1 X165.001 Y64.999 E32.1886
G1 X173.656 Y74.302 E32.6113
G1 X181.621 Y84.203 E33.0339
G1 X188.852 Y94.652 E33.4565
G1 X195.313 Y105.593 E33.8791
G1 X200.971 Y116.971 E34.3018
G1 X205.795 Y128.726 E34.7244
G1 X209.761 Y140.798 E35.1470
G1 X212.848 Y153.124 E35.5697
G1 X215.041 Y165.640 E35.9923
G1 X216.327 Y178.284 E36.4150
G1 X216.340 Y178.533 E36.4233
G1 X216.698 Y189.568 E36.7905
G1 X216.036 Y189.300
;segType:Loop
G0 X215.579 Y188.529 F10800
G1 X215.187 Y177.623 E37.1535 F3600
G1 X215.169 Y177.250 E37.1659
G1 X213.779 Y164.568 E37.5902
G1 X213.733 Y164.156 E37.6040
G1 X211.317 Y151.203 E38.0422
G1 X207.935 Y138.468 E38.4805
G1 X203.607 Y126.021 E38.9188
G1 X198.358 Y113.935 E39.3571
G1 X192.215 Y102.277 E39.7953
G1 X185.215 Y91.112 E40.2336
G1 X177.397 Y80.504 E40.6719
G1 X168.805 Y70.513 E41.1102
G1 X159.487 Y61.195 E41.5485
G1 X149.496 Y52.603 E41.9868
G1 X138.888 Y44.785 E42.4251
G1 X127.724 Y37.785 E42.8634
G1 X116.065 Y31.642 E43.3016
G1 X103.979 Y26.393 E43.7399
G1 X91.532 Y22.065 E44.1782
G1 X78.797 Y18.683 E44.6165
G1 X65.842 Y16.267 E45.0548
G1 X52.706 Y14.828 E45.4943
G1 X52.412 Y14.813 E45.5041
G1 X41.173 Y14.407 E45.8781
G1 X41.173 Y14.125 E45.8875
G1 X51.595 Y14.466 E46.2344
G1 X51.783 Y14.480 E46.2406
G1 X64.022 Y15.725 E46.6498
G1 X64.244 Y15.751 E46.6573
G1 X76.710 Y17.934 E47.0782
G1 X88.980 Y21.008 E47.4989
G1 X100.997 Y24.956 E47.9196
G1 X112.699 Y29.759 E48.3403
G1 X124.025 Y35.390 E48.7610
G1 X134.917 Y41.822 E49.1817
G1 X145.318 Y49.021 E49.6024
G1 X155.174 Y56.949 E50.0232
G1 X164.434 Y65.566 E50.4439
G1 X173.051 Y74.826 E50.8646
G1 X180.979 Y84.682 E51.2853
G1 X188.178 Y95.083 E51.7060
G1 X194.610 Y105.975 E52.1267
G1 X200.241 Y117.301 E52.5474
G1 X205.044 Y129.003 E52.9681
G1 X208.992 Y141.020 E53.3888
G1 X212.066 Y153.290 E53.8095
G1 X214.248 Y165.749 E54.2303
G1 X215.530 Y178.345 E54.6514
G1 X215.541 Y178.566 E54.6587
G1 X215.874 Y188.827 E55.0002
G1 X215.590 Y188.827 E55.0096
G1 X215.586 Y188.727 E55.0130
; ------------------------------------
; Layer #3
; ------------------------------------
G21 ; mm
G90 ; abs
G92 E0 ; reset extr
M106 S255
;segType:Loop
G0 F4800 E-1.0000
G0 F300 Z0.800
G0 X215.596 Y189.227 F10800
G0 F4800 E0.0000
G1 X215.204 Y189.227 E0.0130 F3600
G1 X214.793 Y177.750 E0.3950
G1 X214.770 Y177.281 E0.4106
G1 X213.337 Y164.216 E0.8478
G1 X210.926 Y151.292 E1.2851
G1 X207.553 Y138.585 E1.7223
G1 X203.234 Y126.167 E2.1596
G1 X197.997 Y114.108 E2.5969
G1 X191.868 Y102.476 E3.0342
G1 X184.884 Y91.337 E3.4715
G1 X177.084 Y80.753 E3.9088
G1 X168.511 Y70.785 E4.3460
G1 X159.215 Y61.489 E4.7833
G1 X149.247 Y52.916 E5.2206
G1 X138.663 Y45.116 E5.6579
G1 X127.524 Y38.132 E6.0952
G1 X115.892 Y32.003 E6.5325
G1 X103.833 Y26.766 E6.9697
G1 X91.415 Y22.447 E7.4070
G1 X78.708 Y19.074 E7.8443
G1 X65.784 Y16.663 E8.2816
G1 X52.720 Y15.230 E8.7187
G1 X52.295 Y15.208 E8.7329
G1 X40.773 Y14.795 E9.1163
G1 X40.773 Y13.711 E9.1524
G1 X51.587 Y14.065 E9.5123
G1 X51.864 Y14.085 E9.5215
G1 X63.978 Y15.318 E9.9265
G1 X64.302 Y15.355 E9.9373
G1 X76.793 Y17.543 E10.3591
G1 X89.091 Y20.624 E10.7808
G1 X101.135 Y24.581 E11.2025
G1 X112.864 Y29.394 E11.6242
G1 X124.216 Y35.039 E12.0458
G1 X135.133 Y41.485 E12.4675
G1 X145.558 Y48.700 E12.8892
G1 X155.436 Y56.646 E13.3108
G1 X164.717 Y65.283 E13.7325
G1 X173.354 Y74.564 E14.1542
G1 X181.300 Y84.442 E14.5758
G1 X188.515 Y94.867 E14.9975
G1 X194.961 Y105.784 E15.4192
G1 X200.606 Y117.136 E15.8408
G1 X205.419 Y128.865 E16.2625
G1 X209.376 Y140.909 E16.6842
G1 X212.457 Y153.207 E17.1058
G1 X214.645 Y165.695 E17.5275
G1 X215.928 Y178.314 E17.9494
G1 X215.945 Y178.635 E17.9601
G1 X216.292 Y189.227 E18.3126
G1 X215.795 Y189.227 E18.3291
G0 F4800 E17.3291
G0 X216.399 Y188.951 F10800
G0 F4800 E18.3291
;segType:Perimeter
G1 X216.627 Y189.627 E18.3528 F2159
G1 X214.817 Y189.627 E18.4131
G1 X214.815 Y189.534 E18.4162
G1 X214.393 Y177.767 E18.8078
G1 X214.371 Y177.312 E18.8229
G1 X212.941 Y164.275 E19.2592
G1 X210.536 Y151.380 E19.6954
G1 X207.170 Y138.702 E20.1317
G1 X202.861 Y126.312 E20.5680
G1 X197.636 Y114.281 E21.0043
G1 X191.521 Y102.676 E21.4406
G1 X184.553 Y91.562 E21.8768
G1 X176.771 Y81.003 E22.3131
G1 X168.218 Y71.058 E22.7494
G1 X158.942 Y61.782 E23.1857
G1 X148.997 Y53.229 E23.6220
G1 X138.438 Y45.447 E24.0583
G1 X127.324 Y38.479 E24.4946
G1 X115.719 Y32.364 E24.9308
G1 X103.688 Y27.139 E25.3671
G1 X91.298 Y22.830 E25.8034
G1 X78.620 Y19.464 E26.2397
G1 X65.725 Y17.059 E26.6760
G1 X52.688 Y15.629 E27.1122
G1 X52.277 Y15.607 E27.1259
G1 X40.480 Y15.185 E27.5185
G1 X40.373 Y15.170 E27.5221
G1 X40.373 Y13.299 E27.5843
G1 X40.743 Y13.309 E27.5966
G1 X51.607 Y13.665 E27.9582
G1 X51.899 Y13.686 E27.9679
G1 X64.020 Y14.920 E28.3731
G1 X64.359 Y14.959 E28.3845
G1 X76.876 Y17.152 E28.8071
G1 X89.202 Y20.239 E29.2298
G1 X101.274 Y24.205 E29.6524
G1 X113.029 Y29.029 E30.0750
G1 X124.407 Y34.687 E30.4976
G1 X135.348 Y41.148 E30.9203
G1 X145.797 Y48.379 E31.3429
G1 X155.698 Y56.344 E31.7655
G1 X165.001 Y64.999 E32.1882
G1 X173.656 Y74.302 E32.6108
G1 X181.621 Y84.203 E33.0334
G1 X188.852 Y94.652 E33.4560
G1 X195.313 Y105.593 E33.8787
G1 X200.971 Y116.971 E34.3013
G1 X205.795 Y128.726 E34.7239
G1 X209.761 Y140.798 E35.1465
G1 X212.848 Y153.124 E35.5692
G1 X215.041 Y165.640 E35.9918
G1 X216.327 Y178.284 E36.4145
G1 X216.345 Y178.618 E36.4256
G1 X216.700 Y189.478 E36.7870
G1 X216.692 Y189.568 E36.7900
G1 X216.039 Y189.280
;segType:Loop
G0 X215.579 Y188.515 F10800
G1 X215.192 Y177.732 E37.1489 F3600
G1 X215.169 Y177.250 E37.1650
G1 X213.733 Y164.158 E37.6030
G1 X211.317 Y151.203 E38.0413
G1 X207.935 Y138.468 E38.4796
G1 X203.607 Y126.021 E38.9179
G1 X198.358 Y113.935 E39.3562
G1 X192.215 Y102.277 E39.7944
G1 X185.215 Y91.112 E40.2327
G1 X177.397 Y80.504 E40.6710
G1 X168.805 Y70.513 E41.1093
G1 X159.487 Y61.195 E41.5476
G1 X149.496 Y52.603 E41.9859
G1 X138.888 Y44.785 E42.4241
G1 X127.724 Y37.785 E42.8624
G1 X116.065 Y31.642 E43.3007
G1 X103.979 Y26.393 E43.7390
G1 X91.532 Y22.065 E44.1773
G1 X78.797 Y18.683 E44.6156
G1 X65.842 Y16.267 E45.0538
G1 X52.752 Y14.831 E45.4918
G1 X52.313 Y14.808 E45.5065
G1 X41.173 Y14.409 E45.8772
G1 X41.173 Y14.124 E45.8867
G1 X51.567 Y14.465 E46.2326
G1 X51.829 Y14.483 E46.2414
G1 X63.935 Y15.715 E46.6461
G1 X64.244 Y15.751 E46.6564
G1 X76.710 Y17.934 E47.0774
G1 X88.980 Y21.008 E47.4981
G1 X100.997 Y24.956 E47.9188
G1 X112.699 Y29.759 E48.3395
G1 X124.025 Y35.390 E48.7602
G1 X134.917 Y41.822 E49.1809
G1 X145.318 Y49.021 E49.6016
G1 X155.174 Y56.949 E50.0223
G1 X164.434 Y65.566 E50.4430
G1 X173.051 Y74.826 E50.8637
G1 X180.979 Y84.682 E51.2845
G1 X188.178 Y95.083 E51.7052
G1 X194.610 Y105.975 E52.1259
G1 X200.241 Y117.301 E52.5466
G1 X205.044 Y129.003 E52.9673
G1 X208.992 Y141.020 E53.3880
G1 X212.066 Y153.290 E53.8087
G1 X214.248 Y165.749 E54.2294
G1 X215.529 Y178.345 E54.6505
G1 X215.545 Y178.652 E54.6607
G1 X215.878 Y188.827 E54.9994
G1 X215.590 Y188.827 E55.0089
G1 X215.586 Y188.713 E55.0127
; ------------------------------------
; Layer #4
; ------------------------------------
G21 ; mm
G90 ; abs
G92 E0 ; reset extr
M106 S255
;segType:Loop
G0 F4800 E-1.0000
G0 F300 Z1.000
G0 X215.587 Y189.227 F10800
G0 F4800 E0.0000
G1 X215.206 Y189.227 E0.0127 F3600
G1 X214.798 Y177.861 E0.3910
G1 X214.770 Y177.281 E0.4103
G1 X213.419 Y164.959 E0.8226
G1 X213.337 Y164.216 E0.8474
G1 X210.926 Y151.292 E1.2847
G1 X207.553 Y138.585 E1.7220
G1 X203.234 Y126.167 E2.1593
G1 X197.997 Y114.108 E2.5966
G1 X191.868 Y102.476 E3.0338
G1 X184.884 Y91.337 E3.4711
G1 X177.084 Y80.753 E3.9084
G1 X168.511 Y70.785 E4.3457
G1 X159.215 Y61.489 E4.7830
G1 X149.247 Y52.916 E5.2203
G1 X138.663 Y45.116 E5.6576
G1 X127.524 Y38.132 E6.0948
G1 X115.892 Y32.003 E6.5321
G1 X103.833 Y26.766 E6.9694
G1 X91.415 Y22.447 E7.4067
G1 X78.708 Y19.074 E7.8440
G1 X65.784 Y16.663 E8.2812
G1 X65.043 Y16.581 E8.3060
G1 X52.720 Y15.230 E8.7184
G1 X52.193 Y15.203 E8.7359
G1 X40.773 Y14.793 E9.1160
G1 X40.773 Y13.710 E9.1520
G1 X51.558 Y14.063 E9.5109
G1 X51.910 Y14.088 E9.5226
G1 X63.891 Y15.308 E9.9232
G1 X64.302 Y15.355 E9.9369
G1 X76.793 Y17.543 E10.3587
G1 X89.091 Y20.624 E10.7804
G1 X101.135 Y24.581 E11.2021
G1 X112.864 Y29.394 E11.6237
G1 X124.216 Y35.039 E12.0454
G1 X135.133 Y41.485 E12.4671
G1 X145.558 Y48.700 E12.8888
G1 X155.436 Y56.646 E13.3104
G1 X164.717 Y65.283 E13.7321
G1 X173.354 Y74.564 E14.1538
G1 X181.300 Y84.442 E14.5754
G1 X188.515 Y94.867 E14.9971
G1 X194.961 Y105.784 E15.4188
G1 X200.606 Y117.136 E15.8404
G1 X205.419 Y128.865 E16.2621
G1 X209.376 Y140.909 E16.6838
G1 X212.457 Y153.207 E17.1054
G1 X214.645 Y165.695 E17.5271
G1 X214.721 Y166.453 E17.5525
G1 X215.928 Y178.315 E17.9490
G1 X215.949 Y178.720 E17.9625
G1 X216.293 Y189.227 E18.3122
G1 X215.786 Y189.227 E18.3290
G0 F4800 E17.3290
G0 X216.390 Y188.951 F10800
G0 F4800 E18.3290
;segType:Perimeter
G1 X216.618 Y189.627 E18.3528 F2159
G1 X214.817 Y189.627 E18.4127
G1 X214.814 Y189.462 E18.4182
G1 X214.399 Y177.878 E18.8037
G1 X214.371 Y177.312 E18.8226
G1 X213.022 Y165.003 E19.2344
G1 X212.941 Y164.275 E19.2588
G1 X210.536 Y151.380 E19.6951
G1 X207.170 Y138.702 E20.1314
G1 X202.861 Y126.312 E20.5676
G1 X197.636 Y114.281 E21.0039
G1 X191.521 Y102.676 E21.4402
G1 X184.553 Y91.562 E21.8765
G1 X176.771 Y81.003 E22.3128
G1 X168.218 Y71.058 E22.7491
G1 X158.942 Y61.782 E23.1853
G1 X148.997 Y53.229 E23.6216
G1 X138.438 Y45.447 E24.0579
G1 X127.324 Y38.479 E24.4942
G1 X115.719 Y32.364 E24.9305
G1 X103.688 Y27.139 E25.3668
G1 X91.298 Y22.830 E25.8030
G1 X78.620 Y19.464 E26.2393
G1 X65.725 Y17.059 E26.6756
G1 X64.999 Y16.979 E26.6999
G1 X52.688 Y15.629 E27.1118
G1 X52.175 Y15.602 E27.1289
G1 X40.591 Y15.187 E27.5145
G1 X40.373 Y15.183 E27.5217
G1 X40.373 Y13.299 E27.5844
G1 X40.888 Y13.313 E27.6015
G1 X51.579 Y13.664 E27.9573
G1 X51.944 Y13.690 E27.9694
G1 X63.934 Y14.910 E28.3703
G1 X64.359 Y14.959 E28.3845
G1 X76.876 Y17.152 E28.8072
G1 X89.202 Y20.239 E29.2298
G1 X101.274 Y24.205 E29.6524
G1 X113.029 Y29.029 E30.0751
G1 X124.407 Y34.687 E30.4977
G1 X135.348 Y41.148 E30.9203
G1 X145.797 Y48.379 E31.3429
G1 X155.698 Y56.344 E31.7656
G1 X165.001 Y64.999 E32.1882
G1 X173.656 Y74.302 E32.6108
G1 X181.621 Y84.203 E33.0334
G1 X188.852 Y94.652 E33.4561
G1 X195.313 Y105.593 E33.8787
G1 X200.971 Y116.971 E34.3013
G1 X205.795 Y128.726 E34.7240
G1 X209.761 Y140.798 E35.1466
G1 X212.848 Y153.124 E35.5692
G1 X215.041 Y165.640 E35.9918
G1 X215.119 Y166.413 E36.0177
G1 X216.327 Y178.284 E36.4146
G1 X216.349 Y178.704 E36.4285
G1 X216.699 Y189.392 E36.7842
G1 X216.683 Y189.568 E36.7901
G1 X216.030 Y189.280
;segType:Loop
G0 X215.580 Y188.505 F10800
G1 X215.198 Y177.844 E37.1449 F3600
G1 X215.169 Y177.250 E37.1647
G1 X213.817 Y164.916 E37.5774
G1 X213.733 Y164.157 E37.6028
G1 X211.317 Y151.203 E38.0410
G1 X207.935 Y138.468 E38.4793
G1 X203.607 Y126.021 E38.9176
G1 X198.358 Y113.935 E39.3559
G1 X192.215 Y102.277 E39.7942
G1 X185.215 Y91.112 E40.2325
G1 X177.397 Y80.504 E40.6707
G1 X168.805 Y70.513 E41.1090
G1 X159.487 Y61.195 E41.5473
G1 X149.496 Y52.603 E41.9856
G1 X138.888 Y44.785 E42.4239
G1 X127.724 Y37.785 E42.8622
G1 X116.065 Y31.642 E43.3004
G1 X103.979 Y26.393 E43.7387
G1 X91.532 Y22.065 E44.1770
G1 X78.797 Y18.683 E44.6153
G1 X65.843 Y16.267 E45.0536
G1 X65.087 Y16.183 E45.0788
G1 X52.753 Y14.831 E45.4915
G1 X52.211 Y14.803 E45.5096
G1 X41.173 Y14.407 E45.8770
G1 X41.173 Y14.124 E45.8864
G1 X51.538 Y14.463 E46.2313
G1 X51.875 Y14.487 E46.2426
G1 X63.848 Y15.705 E46.6428
G1 X64.244 Y15.751 E46.6561
G1 X76.710 Y17.934 E47.0770
G1 X88.980 Y21.008 E47.4977
G1 X100.997 Y24.956 E47.9184
G1 X112.699 Y29.759 E48.3392
G1 X124.025 Y35.390 E48.7599
G1 X134.917 Y41.822 E49.1806
G1 X145.318 Y49.021 E49.6013
G1 X155.174 Y56.949 E50.0220
G1 X164.434 Y65.566 E50.4427
G1 X173.051 Y74.826 E50.8634
G1 X180.979 Y84.682 E51.2841
G1 X188.178 Y95.083 E51.7049
G1 X194.610 Y105.975 E52.1256
G1 X200.241 Y117.301 E52.5463
G1 X205.044 Y129.003 E52.9670
G1 X208.992 Y141.020 E53.3877
G1 X212.066 Y153.290 E53.8084
G1 X214.248 Y165.749 E54.2291
G1 X214.323 Y166.493 E54.2540
G1 X215.529 Y178.345 E54.6502
G1 X215.550 Y178.737 E54.6633
G1 X215.880 Y188.827 E54.9990
G1 X215.592 Y188.827 E55.0086
G1 X215.587 Y188.703 E55.0128
; ------------------------------------
; Layer #5
; ------------------------------------
G21 ; mm
G90 ; abs
G92 E0 ; reset extr
M106 S255
;segType:Loop
G0 F4800 E-1.0000
G0 F300 Z1.200
G0 X215.612 Y189.227 F10800
G0 F4800 E0.0000
G1 X215.207 Y189.227 E0.0135 F3600
G1 X214.804 Y177.972 E0.3881
G1 X214.770 Y177.281 E0.4111
G1 X213.435 Y165.104 E0.8185
G1 X213.337 Y164.216 E0.8482
G1 X210.926 Y151.292 E1.2855
G1 X207.553 Y138.585 E1.7228
G1 X203.234 Y126.167 E2.1601
G1 X197.997 Y114.108 E2.5974
G1 X191.868 Y102.476 E3.0346
G1 X184.884 Y91.337 E3.4719
G1 X177.084 Y80.753 E3.9092
G1 X168.511 Y70.785 E4.3465
G1 X159.215 Y61.489 E4.7838
G1 X149.247 Y52.916 E5.2211
G1 X138.663 Y45.116 E5.6583
G1 X127.524 Y38.132 E6.0956
G1 X115.892 Y32.003 E6.5329
G1 X103.833 Y26.766 E6.9702
G1 X91.415 Y22.447 E7.4075
G1 X78.708 Y19.074 E7.8448
G1 X65.784 Y16.663 E8.2820
G1 X64.899 Y16.565 E8.3116
G1 X52.720 Y15.230 E8.7192
G1 X52.093 Y15.197 E8.7400
G1 X40.773 Y14.791 E9.1168
G1 X40.773 Y13.710 E9.1527
G1 X41.020 Y13.717 E9.1610
G1 X51.530 Y14.062 E9.5107
G1 X51.956 Y14.092 E9.5249
G1 X63.805 Y15.298 E9.9211
G1 X64.302 Y15.355 E9.9377
G1 X76.793 Y17.543 E10.3595
G1 X89.091 Y20.624 E10.7811
G1 X101.135 Y24.581 E11.2028
G1 X112.864 Y29.394 E11.6245
G1 X124.216 Y35.039 E12.0462
G1 X135.133 Y41.485 E12.4678
G1 X145.558 Y48.700 E12.8895
G1 X155.436 Y56.646 E13.3112
G1 X164.717 Y65.283 E13.7328
G1 X173.354 Y74.564 E14.1545
G1 X181.300 Y84.442 E14.5762
G1 X188.515 Y94.867 E14.9979
G1 X194.961 Y105.784 E15.4195
G1 X200.606 Y117.136 E15.8412
G1 X205.419 Y128.865 E16.2629
G1 X209.376 Y140.909 E16.6845
G1 X212.457 Y153.207 E17.1062
G1 X214.645 Y165.694 E17.5278
G1 X214.736 Y166.609 E17.5584
G1 X215.928 Y178.314 E17.9498
G1 X215.953 Y178.806 E17.9661
G1 X216.295 Y189.227 E18.3129
G1 X215.811 Y189.227 E18.3290
;segType:Perimeter
G0 X216.362 Y188.971 F10800
G1 X216.643 Y189.627 E18.3527 F2159
G1 X214.817 Y189.627 E18.4135
G1 X214.813 Y189.390 E18.4214
G1 X214.404 Y177.990 E18.8008
G1 X214.371 Y177.312 E18.8234
G1 X213.038 Y165.147 E19.2304
G1 X212.941 Y164.275 E19.2596
G1 X210.536 Y151.380 E19.6959
G1 X207.170 Y138.702 E20.1322
G1 X202.861 Y126.312 E20.5684
G1 X197.636 Y114.281 E21.0047
G1 X191.521 Y102.676 E21.4410
G1 X184.553 Y91.562 E21.8773
G1 X176.771 Y81.003 E22.3136
G1 X168.218 Y71.058 E22.7499
G1 X158.942 Y61.782 E23.1861
G1 X148.997 Y53.229 E23.6224
G1 X138.438 Y45.447 E24.0587
G1 X127.324 Y38.479 E24.4950
G1 X115.719 Y32.364 E24.9313
G1 X103.688 Y27.139 E25.3676
G1 X91.298 Y22.830 E25.8038
G1 X78.620 Y19.464 E26.2401
G1 X65.725 Y17.059 E26.6764
G1 X64.855 Y16.963 E26.7055
G1 X52.688 Y15.629 E27.1126
G1 X52.075 Y15.597 E27.1330
G1 X40.673 Y15.188 E27.5125
G1 X40.373 Y15.183 E27.5225
G1 X40.373 Y13.299 E27.5852
G1 X41.032 Y13.317 E27.6071
G1 X51.550 Y13.662 E27.9571
G1 X51.991 Y13.693 E27.9718
G1 X63.848 Y14.900 E28.3682
G1 X64.359 Y14.959 E28.3853
G1 X76.876 Y17.152 E28.8080
G1 X89.202 Y20.239 E29.2306
G1 X101.274 Y24.205 E29.6532
G1 X113.029 Y29.029 E30.0759
G1 X124.407 Y34.687 E30.4985
G1 X135.348 Y41.148 E30.9211
G1 X145.797 Y48.379 E31.3438
G1 X155.698 Y56.344 E31.7664
G1 X165.001 Y64.999 E32.1890
G1 X173.656 Y74.302 E32.6116
G1 X181.621 Y84.203 E33.0343
G1 X188.852 Y94.652 E33.4569
G1 X195.313 Y105.593 E33.8795
G1 X200.971 Y116.971 E34.3021
G1 X205.795 Y128.726 E34.7248
G1 X209.761 Y140.798 E35.1474
G1 X212.848 Y153.124 E35.5700
G1 X215.041 Y165.640 E35.9926
G1 X215.134 Y166.569 E36.0237
G1 X216.327 Y178.284 E36.4154
G1 X216.353 Y178.789 E36.4322
G1 X216.698 Y189.317 E36.7825
G1 X216.702 Y189.568 E36.7909
G1 X216.041 Y189.297
;segType:Loop
G0 X215.583 Y188.528 F10800
G1 X215.203 Y177.954 E37.1428 F3600
G1 X215.169 Y177.250 E37.1662
G1 X213.833 Y165.060 E37.5741
G1 X213.733 Y164.157 E37.6043
G1 X211.317 Y151.203 E38.0426
G1 X207.935 Y138.468 E38.4809
G1 X203.607 Y126.021 E38.9192
G1 X198.358 Y113.935 E39.3574
G1 X192.215 Y102.277 E39.7957
G1 X185.215 Y91.112 E40.2340
G1 X177.397 Y80.504 E40.6723
G1 X168.805 Y70.513 E41.1106
G1 X159.487 Y61.195 E41.5489
G1 X149.496 Y52.603 E41.9871
G1 X138.888 Y44.785 E42.4254
G1 X127.724 Y37.785 E42.8637
G1 X116.065 Y31.642 E43.3020
G1 X103.979 Y26.393 E43.7403
G1 X91.532 Y22.065 E44.1786
G1 X78.797 Y18.683 E44.6168
G1 X65.843 Y16.267 E45.0551
G1 X64.943 Y16.167 E45.0852
G1 X52.752 Y14.831 E45.4931
G1 X52.111 Y14.798 E45.5145
G1 X41.173 Y14.405 E45.8785
G1 X41.173 Y14.122 E45.8879
G1 X51.509 Y14.461 E46.2319
G1 X51.921 Y14.490 E46.2457
G1 X63.762 Y15.696 E46.6415
G1 X64.244 Y15.751 E46.6577
G1 X76.710 Y17.934 E47.0786
G1 X88.980 Y21.008 E47.4993
G1 X100.997 Y24.956 E47.9200
G1 X112.699 Y29.759 E48.3407
G1 X124.025 Y35.390 E48.7614
G1 X134.917 Y41.822 E49.1821
G1 X145.318 Y49.021 E49.6028
G1 X155.174 Y56.949 E50.0235
G1 X164.434 Y65.566 E50.4443
G1 X173.051 Y74.826 E50.8650
G1 X180.979 Y84.682 E51.2857
G1 X188.178 Y95.083 E51.7064
G1 X194.610 Y105.975 E52.1271
G1 X200.241 Y117.301 E52.5478
G1 X205.044 Y129.003 E52.9685
G1 X208.992 Y141.020 E53.3892
G1 X212.066 Y153.290 E53.8099
G1 X214.248 Y165.749 E54.2306
G1 X214.338 Y166.649 E54.2607
G1 X215.529 Y178.345 E54.6517
G1 X215.554 Y178.823 E54.6677
G1 X215.881 Y188.827 E55.0006
G1 X215.593 Y188.827 E55.0102
G1 X215.590 Y188.726 E55.0135
; ------------------------------------
; Layer #6
; ------------------------------------
G21 ; mm
G90 ; abs
G92 E0 ; reset extr
M106 S255
;segType:Loop
G0 F4800 E-1.0000
G0 F300 Z1.400
G0 X215.613 Y189.227 F10800
G0 F4800 E0.0000
G1 X215.209 Y189.227 E0.0134 F3600
G1 X214.809 Y178.084 E0.3843
G1 X214.770 Y177.281 E0.4110
G1 X213.451 Y165.248 E0.8137
G1 X213.337 Y164.216 E0.8482
G1 X210.926 Y151.292 E1.2855
G1 X207.553 Y138.585 E1.7227
G1 X203.234 Y126.167 E2.1600
G1 X197.997 Y114.108 E2.5973
G1 X191.868 Y102.476 E3.0346
G1 X184.884 Y91.337 E3.4719
G1 X177.084 Y80.753 E3.9092
G1 X168.511 Y70.785 E4.3464
G1 X159.215 Y61.489 E4.7837
G1 X149.247 Y52.916 E5.2210
G1 X138.663 Y45.116 E5.6583
G1 X127.524 Y38.132 E6.0956
G1 X115.892 Y32.003 E6.5329
G1 X103.833 Y26.766 E6.9701
G1 X91.415 Y22.447 E7.4074
G1 X78.708 Y19.074 E7.8447
G1 X65.784 Y16.663 E8.2820
G1 X52.687 Y15.228 E8.7202
G1 X51.990 Y15.192 E8.7434
G1 X40.773 Y14.790 E9.1167
G1 X40.773 Y13.711 E9.1526
G1 X41.163 Y13.721 E9.1656
G1 X51.501 Y14.060 E9.5097
G1 X52.002 Y14.095 E9.5264
G1 X63.718 Y15.288 E9.9180
G1 X64.302 Y15.355 E9.9376
G1 X76.793 Y17.543 E10.3594
G1 X89.091 Y20.624 E10.7810
G1 X101.135 Y24.581 E11.2027
G1 X112.864 Y29.394 E11.6244
G1 X124.216 Y35.039 E12.0461
G1 X135.133 Y41.485 E12.4677
G1 X145.558 Y48.700 E12.8894
G1 X155.436 Y56.646 E13.3111
G1 X164.717 Y65.283 E13.7327
G1 X173.354 Y74.564 E14.1544
G1 X181.300 Y84.442 E14.5761
G1 X188.515 Y94.867 E14.9977
G1 X194.961 Y105.784 E15.4194
G1 X200.606 Y117.136 E15.8411
G1 X205.419 Y128.865 E16.2627
G1 X209.376 Y140.909 E16.6844
G1 X212.457 Y153.207 E17.1061
G1 X214.645 Y165.698 E17.5279
G1 X214.719 Y166.348 E17.5496
G1 X214.752 Y166.759 E17.5633
G1 X215.928 Y178.314 E17.9497
G1 X215.958 Y178.891 E17.9689
G1 X216.296 Y189.227 E18.3128
G1 X215.811 Y189.227 E18.3290
;segType:Perimeter
G0 X216.362 Y188.971 F10800
G1 X216.643 Y189.627 E18.3527 F2159
G1 X214.817 Y189.627 E18.4134
G1 X214.812 Y189.318 E18.4237
G1 X214.409 Y178.101 E18.7971
G1 X214.371 Y177.312 E18.8233
G1 X213.053 Y165.292 E19.2255
G1 X212.941 Y164.275 E19.2596
G1 X210.536 Y151.380 E19.6958
G1 X207.170 Y138.702 E20.1321
G1 X202.861 Y126.312 E20.5684
G1 X197.636 Y114.281 E21.0047
G1 X191.521 Y102.676 E21.4410
G1 X184.553 Y91.562 E21.8772
G1 X176.771 Y81.003 E22.3135
G1 X168.218 Y71.058 E22.7498
G1 X158.942 Y61.782 E23.1861
G1 X148.997 Y53.229 E23.6224
G1 X138.438 Y45.447 E24.0587
G1 X127.324 Y38.479 E24.4949
G1 X115.719 Y32.364 E24.9312
G1 X103.688 Y27.139 E25.3675
G1 X91.298 Y22.830 E25.8038
G1 X78.620 Y19.464 E26.2401
G1 X65.725 Y17.059 E26.6764
G1 X52.655 Y15.627 E27.1137
G1 X51.973 Y15.592 E27.1364
G1 X40.756 Y15.189 E27.5097
G1 X40.373 Y15.183 E27.5225
G1 X40.373 Y13.299 E27.5851
G1 X41.176 Y13.321 E27.6118
G1 X51.522 Y13.660 E27.9561
G1 X52.036 Y13.697 E27.9733
G1 X63.761 Y14.890 E28.3652
G1 X64.359 Y14.959 E28.3853
G1 X76.876 Y17.152 E28.8079
G1 X89.202 Y20.239 E29.2306
G1 X101.274 Y24.205 E29.6532
G1 X113.029 Y29.029 E30.0758
G1 X124.407 Y34.687 E30.4985
G1 X135.348 Y41.148 E30.9211
G1 X145.797 Y48.379 E31.3437
G1 X155.698 Y56.344 E31.7663
G1 X165.001 Y64.999 E32.1890
G1 X173.656 Y74.302 E32.6116
G1 X181.621 Y84.203 E33.0342
G1 X188.852 Y94.652 E33.4569
G1 X195.313 Y105.593 E33.8795
G1 X200.971 Y116.971 E34.3021
G1 X205.795 Y128.726 E34.7247
G1 X209.761 Y140.798 E35.1474
G1 X212.848 Y153.124 E35.5700
G1 X215.041 Y165.641 E35.9926
G1 X215.117 Y166.309 E36.0150
G1 X215.150 Y166.723 E36.0288
G1 X216.326 Y178.284 E36.4153
G1 X216.357 Y178.874 E36.4350
G1 X216.696 Y189.231 E36.7796
G1 X216.702 Y189.568 E36.7908
G1 X216.041 Y189.297
;segType:Loop
G0 X215.584 Y188.527 F10800
G1 X215.209 Y178.067 E37.1390 F3600
G1 X215.169 Y177.250 E37.1662
G1 X213.849 Y165.204 E37.5692
G1 X213.733 Y164.157 E37.6042
G1 X211.317 Y151.203 E38.0425
G1 X207.935 Y138.468 E38.4808
G1 X203.607 Y126.021 E38.9191
G1 X198.358 Y113.935 E39.3574
G1 X192.215 Y102.277 E39.7956
G1 X185.215 Y91.112 E40.2339
G1 X177.397 Y80.504 E40.6722
G1 X168.805 Y70.513 E41.1105
G1 X159.487 Y61.195 E41.5488
G1 X149.496 Y52.603 E41.9871
G1 X138.888 Y44.785 E42.4253
G1 X127.724 Y37.785 E42.8636
G1 X116.065 Y31.642 E43.3019
G1 X103.979 Y26.393 E43.7402
G1 X91.532 Y22.065 E44.1785
G1 X78.797 Y18.683 E44.6168
G1 X65.842 Y16.267 E45.0551
G1 X52.720 Y14.829 E45.4941
G1 X52.008 Y14.792 E45.5178
G1 X41.173 Y14.404 E45.8784
G1 X41.173 Y14.122 E45.8878
G1 X51.480 Y14.459 E46.2308
G1 X51.967 Y14.494 E46.2471
G1 X63.675 Y15.686 E46.6385
G1 X64.244 Y15.751 E46.6575
G1 X76.710 Y17.934 E47.0785
G1 X88.980 Y21.008 E47.4992
G1 X100.997 Y24.956 E47.9199
G1 X112.699 Y29.759 E48.3406
G1 X124.025 Y35.390 E48.7613
G1 X134.917 Y41.822 E49.1820
G1 X145.318 Y49.021 E49.6027
G1 X155.174 Y56.949 E50.0234
G1 X164.434 Y65.566 E50.4442
G1 X173.051 Y74.826 E50.8649
G1 X180.979 Y84.682 E51.2856
G1 X188.178 Y95.083 E51.7063
G1 X194.610 Y105.975 E52.1270
G1 X200.241 Y117.301 E52.5477
G1 X205.044 Y129.003 E52.9684
G1 X208.992 Y141.020 E53.3891
G1 X212.066 Y153.290 E53.8098
G1 X214.249 Y165.755 E54.2307
G1 X214.320 Y166.386 E54.2519
G1 X214.353 Y166.796 E54.2655
G1 X215.529 Y178.345 E54.6517
G1 X215.558 Y178.908 E54.6704
G1 X215.883 Y188.827 E55.0005
G1 X215.595 Y188.827 E55.0101
G1 X215.591 Y188.725 E55.0135
; ------------------------------------
; Layer #7
; ------------------------------------
G21 ; mm
G90 ; abs
G92 E0 ; reset extr
M106 S255
;segType:Loop
G0 F4800 E-1.0000
G0 F300 Z1.600
G0 X215.613 Y189.227 F10800
G0 F4800 E0.0000
G1 X215.210 Y189.227 E0.0134 F3600
G1 X214.814 Y178.195 E0.3805
G1 X214.770 Y177.281 E0.4110
G1 X213.467 Y165.392 E0.8088
G1 X213.337 Y164.216 E0.8481
G1 X210.926 Y151.292 E1.2854
G1 X207.553 Y138.585 E1.7227
G1 X203.234 Y126.167 E2.1600
G1 X197.997 Y114.108 E2.5973
G1 X191.868 Y102.476 E3.0345
G1 X184.884 Y91.337 E3.4718
G1 X177.084 Y80.753 E3.9091
G1 X168.511 Y70.785 E4.3464
G1 X159.215 Y61.489 E4.7837
G1 X149.247 Y52.916 E5.2210
G1 X138.663 Y45.116 E5.6583
G1 X127.524 Y38.132 E6.0955
G1 X115.892 Y32.003 E6.5328
G1 X103.833 Y26.766 E6.9701
G1 X91.415 Y22.447 E7.4074
G1 X78.708 Y19.074 E7.8447
G1 X65.783 Y16.663 E8.2820
G1 X52.682 Y15.228 E8.7203
G1 X51.890 Y15.187 E8.7467
G1 X40.848 Y14.791 E9.1142
G1 X40.773 Y14.790 E9.1167
G1 X40.773 Y13.710 E9.1526
G1 X41.308 Y13.725 E9.1704
G1 X51.473 Y14.058 E9.5087
G1 X52.048 Y14.099 E9.5278
G1 X63.632 Y15.278 E9.9151
G1 X64.302 Y15.355 E9.9375
G1 X76.793 Y17.543 E10.3593
G1 X89.091 Y20.624 E10.7810
G1 X101.135 Y24.581 E11.2027
G1 X112.864 Y29.394 E11.6243
G1 X124.216 Y35.039 E12.0460
G1 X135.133 Y41.485 E12.4677
G1 X145.558 Y48.700 E12.8893
G1 X155.436 Y56.646 E13.3110
G1 X164.717 Y65.283 E13.7327
G1 X173.354 Y74.564 E14.1543
G1 X181.300 Y84.442 E14.5760
G1 X188.515 Y94.867 E14.9977
G1 X194.961 Y105.784 E15.4194
G1 X200.606 Y117.136 E15.8410
G1 X205.419 Y128.865 E16.2627
G1 X209.376 Y140.909 E16.6844
G1 X212.457 Y153.207 E17.1060
G1 X214.645 Y165.698 E17.5278
G1 X214.729 Y166.444 E17.5528
G1 X214.767 Y166.915 E17.5685
G1 X215.927 Y178.314 E17.9496
G1 X215.962 Y178.976 E17.9716
G1 X216.295 Y189.155 E18.3104
G1 X216.296 Y189.227 E18.3128
G1 X215.811 Y189.227 E18.3289
;segType:Perimeter
G0 X216.362 Y188.971 F10800
G1 X216.643 Y189.627 E18.3527 F2159
G1 X214.817 Y189.627 E18.4134
G1 X214.811 Y189.246 E18.4261
G1 X214.415 Y178.212 E18.7933
G1 X214.371 Y177.312 E18.8233
G1 X213.069 Y165.436 E19.2207
G1 X212.941 Y164.275 E19.2595
G1 X210.536 Y151.380 E19.6958
G1 X207.170 Y138.702 E20.1321
G1 X202.861 Y126.312 E20.5684
G1 X197.636 Y114.281 E21.0046
G1 X191.521 Y102.676 E21.4409
G1 X184.553 Y91.562 E21.8772
G1 X176.771 Y81.003 E22.3135
G1 X168.218 Y71.058 E22.7498
G1 X158.942 Y61.782 E23.1861
G1 X148.997 Y53.229 E23.6223
G1 X138.438 Y45.447 E24.0586
G1 X127.324 Y38.479 E24.4949
G1 X115.719 Y32.364 E24.9312
G1 X103.688 Y27.139 E25.3675
G1 X91.298 Y22.830 E25.8038
G1 X78.620 Y19.464 E26.2400
G1 X65.725 Y17.059 E26.6763
G1 X52.650 Y15.626 E27.1138
G1 X51.872 Y15.587 E27.1397
G1 X40.838 Y15.191 E27.5069
G1 X40.373 Y15.183 E27.5224
G1 X40.373 Y13.299 E27.5851
G1 X41.320 Y13.325 E27.6166
G1 X51.494 Y13.658 E27.9551
G1 X52.083 Y13.700 E27.9748
G1 X63.675 Y14.880 E28.3623
G1 X64.359 Y14.959 E28.3852
G1 X76.876 Y17.152 E28.8079
G1 X89.202 Y20.239 E29.2305
G1 X101.274 Y24.205 E29.6532
G1 X113.029 Y29.029 E30.0758
G1 X124.407 Y34.687 E30.4984
G1 X135.348 Y41.148 E30.9210
G1 X145.797 Y48.379 E31.3437
G1 X155.698 Y56.344 E31.7663
G1 X165.001 Y64.999 E32.1889
G1 X173.656 Y74.302 E32.6115
G1 X181.621 Y84.203 E33.0342
G1 X188.852 Y94.652 E33.4568
G1 X195.313 Y105.593 E33.8794
G1 X200.971 Y116.971 E34.3021
G1 X205.795 Y128.726 E34.7247
G1 X209.761 Y140.798 E35.1473
G1 X212.848 Y153.124 E35.5699
G1 X215.041 Y165.641 E35.9926
G1 X215.127 Y166.406 E36.0182
G1 X215.165 Y166.879 E36.0340
G1 X216.326 Y178.284 E36.4153
G1 X216.362 Y178.960 E36.4378
G1 X216.695 Y189.145 E36.7767
G1 X216.702 Y189.568 E36.7908
G1 X216.041 Y189.297
;segType:Loop
G0 X215.585 Y188.525 F10800
G1 X215.214 Y178.178 E37.1352 F3600
G1 X215.169 Y177.250 E37.1661
G1 X213.865 Y165.348 E37.5643
G1 X213.733 Y164.157 E37.6042
G1 X211.317 Y151.203 E38.0424
G1 X207.935 Y138.468 E38.4807
G1 X203.607 Y126.021 E38.9190
G1 X198.358 Y113.935 E39.3573
G1 X192.215 Y102.277 E39.7955
G1 X185.215 Y91.112 E40.2338
G1 X177.397 Y80.504 E40.6721
G1 X168.805 Y70.513 E41.1104
G1 X159.487 Y61.195 E41.5487
G1 X149.496 Y52.603 E41.9870
G1 X138.888 Y44.785 E42.4253
G1 X127.724 Y37.785 E42.8636
G1 X116.065 Y31.642 E43.3018
G1 X103.979 Y26.393 E43.7401
G1 X91.532 Y22.065 E44.1784
G1 X78.797 Y18.683 E44.6167
G1 X65.842 Y16.267 E45.0550
G1 X52.715 Y14.829 E45.4942
G1 X51.908 Y14.787 E45.5211
G1 X41.173 Y14.402 E45.8784
G1 X41.173 Y14.122 E45.8877
G1 X51.452 Y14.458 E46.2298
G1 X52.013 Y14.498 E46.2485
G1 X63.590 Y15.676 E46.6355
G1 X64.244 Y15.751 E46.6574
G1 X76.710 Y17.934 E47.0783
G1 X88.980 Y21.008 E47.4990
G1 X100.997 Y24.956 E47.9197
G1 X112.699 Y29.759 E48.3405
G1 X124.025 Y35.390 E48.7612
G1 X134.917 Y41.822 E49.1819
G1 X145.318 Y49.021 E49.6026
G1 X155.174 Y56.949 E50.0233
G1 X164.434 Y65.566 E50.4440
G1 X173.051 Y74.826 E50.8647
G1 X180.979 Y84.682 E51.2854
G1 X188.178 Y95.083 E51.7061
G1 X194.610 Y105.975 E52.1268
G1 X200.241 Y117.301 E52.5476
G1 X205.044 Y129.003 E52.9683
G1 X208.992 Y141.020 E53.3890
G1 X212.066 Y153.290 E53.8097
G1 X214.249 Y165.755 E54.2306
G1 X214.331 Y166.482 E54.2549
G1 X214.369 Y166.952 E54.2706
G1 X215.528 Y178.345 E54.6515
G1 X215.562 Y178.993 E54.6731
G1 X215.884 Y188.827 E55.0003
G1 X215.596 Y188.827 E55.0099
G1 X215.592 Y188.724 E55.0134
; ------------------------------------
; Layer #8
; ------------------------------------
G21 ; mm
G90 ; abs
G92 E0 ; reset extr
M106 S255
;segType:Loop
G0 F4800 E-1.0000
G0 F300 Z1.800
G0 X215.612 Y189.227 F10800
G0 F4800 E0.0000
G1 X215.210 Y189.227 E0.0134 F3600
G1 X215.209 Y189.164 E0.0155
G1 X214.820 Y178.307 E0.3768
G1 X214.770 Y177.281 E0.4110
G1 X213.483 Y165.536 E0.8040
G1 X213.337 Y164.216 E0.8481
G1 X210.926 Y151.292 E1.2854
G1 X207.553 Y138.585 E1.7227
G1 X203.234 Y126.167 E2.1600
G1 X197.997 Y114.108 E2.5973
G1 X191.868 Y102.476 E3.0345
G1 X184.884 Y91.337 E3.4718
G1 X177.084 Y80.753 E3.9091
G1 X168.511 Y70.785 E4.3464
G1 X159.215 Y61.489 E4.7837
G1 X149.247 Y52.916 E5.2210
G1 X138.663 Y45.116 E5.6582
G1 X127.524 Y38.132 E6.0955
G1 X115.892 Y32.003 E6.5328
G1 X103.833 Y26.766 E6.9701
G1 X91.415 Y22.447 E7.4074
G1 X78.708 Y19.074 E7.8447
G1 X65.783 Y16.663 E8.2820
G1 X52.678 Y15.227 E8.7205
G1 X51.789 Y15.181 E8.7501
G1 X40.931 Y14.792 E9.1114
G1 X40.773 Y14.790 E9.1167
G1 X40.773 Y13.709 E9.1526
G1 X41.450 Y13.729 E9.1752
G1 X51.444 Y14.056 E9.5078
G1 X52.094 Y14.103 E9.5294
G1 X63.545 Y15.268 E9.9122
G1 X64.302 Y15.355 E9.9376
G1 X76.793 Y17.543 E10.3594
G1 X89.091 Y20.624 E10.7810
G1 X101.135 Y24.581 E11.2027
G1 X112.864 Y29.394 E11.6244
G1 X124.216 Y35.039 E12.0460
G1 X135.133 Y41.485 E12.4677
G1 X145.558 Y48.700 E12.8894
G1 X155.436 Y56.646 E13.3111
G1 X164.717 Y65.283 E13.7327
G1 X173.354 Y74.564 E14.1544
G1 X181.300 Y84.442 E14.5761
G1 X188.515 Y94.867 E14.9977
G1 X194.961 Y105.784 E15.4194
G1 X200.606 Y117.136 E15.8411
G1 X205.419 Y128.865 E16.2627
G1 X209.376 Y140.909 E16.6844
G1 X212.457 Y153.207 E17.1061
G1 X214.645 Y165.698 E17.5278
G1 X214.740 Y166.541 E17.5561
G1 X214.783 Y167.071 E17.5738
G1 X215.927 Y178.314 E17.9496
G1 X215.966 Y179.062 E17.9745
G1 X216.294 Y189.069 E18.3076
G1 X216.296 Y189.227 E18.3128
G1 X215.811 Y189.227 E18.3290
;segType:Perimeter
G0 X216.362 Y188.971 F10800
G1 X216.643 Y189.627 E18.3527 F2159
G1 X214.817 Y189.627 E18.4134
G1 X214.809 Y189.174 E18.4285
G1 X214.420 Y178.324 E18.7896
G1 X214.371 Y177.312 E18.8233
G1 X213.085 Y165.580 E19.2159
G1 X212.941 Y164.275 E19.2596
G1 X210.536 Y151.380 E19.6958
G1 X207.170 Y138.702 E20.1321
G1 X202.861 Y126.312 E20.5684
G1 X197.636 Y114.281 E21.0047
G1 X191.521 Y102.676 E21.4410
G1 X184.553 Y91.562 E21.8772
G1 X176.771 Y81.003 E22.3135
G1 X168.218 Y71.058 E22.7498
G1 X158.942 Y61.782 E23.1861
G1 X148.997 Y53.229 E23.6224
G1 X138.438 Y45.447 E24.0587
G1 X127.324 Y38.479 E24.4949
G1 X115.719 Y32.364 E24.9312
G1 X103.688 Y27.139 E25.3675
G1 X91.298 Y22.830 E25.8038
G1 X78.620 Y19.464 E26.2401
G1 X65.725 Y17.059 E26.6764
G1 X52.646 Y15.626 E27.1140
G1 X51.771 Y15.581 E27.1431
G1 X40.921 Y15.192 E27.5042
G1 X40.373 Y15.183 E27.5225
G1 X40.373 Y13.297 E27.5852
G1 X41.463 Y13.329 E27.6214
G1 X51.465 Y13.657 E27.9543
G1 X52.129 Y13.704 E27.9764
G1 X63.588 Y14.870 E28.3595
G1 X64.359 Y14.959 E28.3853
G1 X76.876 Y17.152 E28.8080
G1 X89.202 Y20.239 E29.2306
G1 X101.274 Y24.205 E29.6533
G1 X113.029 Y29.029 E30.0759
G1 X124.407 Y34.687 E30.4985
G1 X135.348 Y41.148 E30.9211
G1 X145.797 Y48.379 E31.3438
G1 X155.698 Y56.344 E31.7664
G1 X165.001 Y64.999 E32.1890
G1 X173.656 Y74.302 E32.6117
G1 X181.621 Y84.203 E33.0343
G1 X188.852 Y94.652 E33.4569
G1 X195.313 Y105.593 E33.8795
G1 X200.971 Y116.971 E34.3022
G1 X205.795 Y128.726 E34.7248
G1 X209.761 Y140.798 E35.1474
G1 X212.848 Y153.124 E35.5701
G1 X215.041 Y165.641 E35.9927
G1 X215.138 Y166.503 E36.0216
G1 X215.181 Y167.035 E36.0393
G1 X216.326 Y178.284 E36.4154
G1 X216.366 Y179.045 E36.4407
G1 X216.694 Y189.059 E36.7740
G1 X216.702 Y189.568 E36.7909
G1 X216.042 Y189.297
;segType:Loop
G0 X215.587 Y188.525 F10800
G1 X215.220 Y178.290 E37.1316 F3600
G1 X215.169 Y177.250 E37.1662
G1 X213.881 Y165.492 E37.5596
G1 X213.733 Y164.158 E37.6043
G1 X211.317 Y151.203 E38.0425
G1 X207.935 Y138.468 E38.4808
G1 X203.607 Y126.021 E38.9191
G1 X198.358 Y113.935 E39.3574
G1 X192.215 Y102.277 E39.7957
G1 X185.215 Y91.112 E40.2340
G1 X177.397 Y80.504 E40.6722
G1 X168.805 Y70.513 E41.1105
G1 X159.487 Y61.195 E41.5488
G1 X149.496 Y52.603 E41.9871
G1 X138.888 Y44.785 E42.4254
G1 X127.724 Y37.785 E42.8637
G1 X116.065 Y31.642 E43.3020
G1 X103.979 Y26.393 E43.7402
G1 X91.532 Y22.065 E44.1785
G1 X78.797 Y18.683 E44.6168
G1 X65.842 Y16.267 E45.0551
G1 X52.710 Y14.828 E45.4945
G1 X51.806 Y14.782 E45.5246
G1 X41.173 Y14.400 E45.8785
G1 X41.173 Y14.121 E45.8878
G1 X41.438 Y14.129 E45.8966
G1 X51.424 Y14.456 E46.2289
G1 X52.059 Y14.501 E46.2501
G1 X63.502 Y15.666 E46.6327
G1 X64.244 Y15.751 E46.6575
G1 X76.710 Y17.934 E47.0784
G1 X88.980 Y21.008 E47.4991
G1 X100.997 Y24.956 E47.9198
G1 X112.699 Y29.759 E48.3405
G1 X124.025 Y35.390 E48.7613
G1 X134.917 Y41.822 E49.1820
G1 X145.318 Y49.021 E49.6027
G1 X155.174 Y56.949 E50.0234
G1 X164.434 Y65.566 E50.4441
G1 X173.051 Y74.826 E50.8648
G1 X180.979 Y84.682 E51.2855
G1 X188.178 Y95.083 E51.7062
G1 X194.610 Y105.975 E52.1269
G1 X200.241 Y117.301 E52.5476
G1 X205.044 Y129.003 E52.9684
G1 X208.992 Y141.020 E53.3891
G1 X212.066 Y153.290 E53.8098
G1 X214.249 Y165.755 E54.2307
G1 X214.342 Y166.580 E54.2583
G1 X214.384 Y167.108 E54.2759
G1 X215.528 Y178.345 E54.6516
G1 X215.566 Y179.078 E54.6760
G1 X215.886 Y188.827 E55.0004
G1 X215.597 Y188.827 E55.0100
G1 X215.594 Y188.723 E55.0135
; ------------------------------------
; Layer #9
; ------------------------------------
G21 ; mm
G90 ; abs
G92 E0 ; reset extr
M106 S255
;segType:Loop
G0 F4800 E-1.0000
G0 F300 Z2.000
G0 X215.613 Y189.227 F10800
G0 F4800 E0.0000
G1 X215.210 Y189.227 E0.0134 F3600
G1 X215.208 Y189.092 E0.0179
G1 X214.825 Y178.418 E0.3731
G1 X214.770 Y177.281 E0.4110
G1 X213.499 Y165.680 E0.7991
G1 X213.337 Y164.216 E0.8481
G1 X210.926 Y151.292 E1.2854
G1 X207.553 Y138.585 E1.7227
G1 X203.234 Y126.167 E2.1600
G1 X197.997 Y114.108 E2.5973
G1 X191.868 Y102.476 E3.0345
G1 X184.884 Y91.337 E3.4718
G1 X177.084 Y80.753 E3.9091
G1 X168.511 Y70.785 E4.3464
G1 X159.215 Y61.489 E4.7837
G1 X149.247 Y52.916 E5.2210
G1 X138.663 Y45.116 E5.6583
G1 X127.524 Y38.132 E6.0955
G1 X115.892 Y32.003 E6.5328
G1 X103.833 Y26.766 E6.9701
G1 X91.415 Y22.447 E7.4074
G1 X78.708 Y19.074 E7.8447
G1 X65.783 Y16.663 E8.2820
G1 X52.673 Y15.227 E8.7206
G1 X51.688 Y15.176 E8.7534
G1 X41.013 Y14.793 E9.1087
G1 X40.773 Y14.789 E9.1167
G1 X40.773 Y13.704 E9.1528
G1 X41.593 Y13.733 E9.1801
G1 X51.416 Y14.055 E9.5070
G1 X52.140 Y14.106 E9.5311
G1 X63.459 Y15.258 E9.9095
G1 X64.302 Y15.355 E9.9378
G1 X76.793 Y17.543 E10.3596
G1 X89.091 Y20.624 E10.7812
G1 X101.135 Y24.581 E11.2029
G1 X112.864 Y29.394 E11.6246
G1 X124.216 Y35.039 E12.0462
G1 X135.133 Y41.485 E12.4679
G1 X145.558 Y48.700 E12.8896
G1 X155.436 Y56.646 E13.3112
G1 X164.717 Y65.283 E13.7329
G1 X173.354 Y74.564 E14.1546
G1 X181.300 Y84.442 E14.5762
G1 X188.515 Y94.867 E14.9979
G1 X194.961 Y105.784 E15.4196
G1 X200.606 Y117.136 E15.8413
G1 X205.419 Y128.865 E16.2629
G1 X209.376 Y140.909 E16.6846
G1 X212.457 Y153.207 E17.1063
G1 X214.645 Y165.698 E17.5280
G1 X214.751 Y166.638 E17.5595
G1 X214.798 Y167.227 E17.5792
G1 X215.927 Y178.314 E17.9498
G1 X215.970 Y179.147 E17.9776
G1 X216.292 Y188.983 E18.3049
G1 X216.296 Y189.227 E18.3130
G1 X215.811 Y189.227 E18.3292
;segType:Perimeter
G0 X216.362 Y188.971 F10800
G1 X216.643 Y189.627 E18.3529 F2159
G1 X214.817 Y189.627 E18.4136
G1 X214.808 Y189.102 E18.4311
G1 X214.426 Y178.435 E18.7861
G1 X214.371 Y177.312 E18.8235
G1 X213.101 Y165.724 E19.2112
G1 X212.941 Y164.275 E19.2597
G1 X210.536 Y151.380 E19.6960
G1 X207.170 Y138.702 E20.1323
G1 X202.861 Y126.312 E20.5686
G1 X197.636 Y114.281 E21.0049
G1 X191.521 Y102.676 E21.4412
G1 X184.553 Y91.562 E21.8774
G1 X176.771 Y81.003 E22.3137
G1 X168.218 Y71.058 E22.7500
G1 X158.942 Y61.782 E23.1863
G1 X148.997 Y53.229 E23.6226
G1 X138.438 Y45.447 E24.0589
G1 X127.324 Y38.479 E24.4951
G1 X115.719 Y32.364 E24.9314
G1 X103.688 Y27.139 E25.3677
G1 X91.298 Y22.830 E25.8040
G1 X78.620 Y19.464 E26.2403
G1 X65.725 Y17.059 E26.6766
G1 X52.641 Y15.626 E27.1143
G1 X51.670 Y15.576 E27.1467
G1 X41.003 Y15.193 E27.5017
G1 X40.373 Y15.183 E27.5226
G1 X40.373 Y13.297 E27.5854
G1 X40.886 Y13.306 E27.6024
G1 X41.607 Y13.333 E27.6264
G1 X51.437 Y13.655 E27.9536
G1 X52.175 Y13.708 E27.9782
G1 X63.502 Y14.860 E28.3568
G1 X64.359 Y14.959 E28.3855
G1 X76.876 Y17.152 E28.8082
G1 X89.202 Y20.239 E29.2308
G1 X101.274 Y24.205 E29.6535
G1 X113.029 Y29.029 E30.0761
G1 X124.407 Y34.687 E30.4987
G1 X135.348 Y41.148 E30.9213
G1 X145.797 Y48.379 E31.3440
G1 X155.698 Y56.344 E31.7666
G1 X165.001 Y64.999 E32.1892
G1 X173.656 Y74.302 E32.6119
G1 X181.621 Y84.203 E33.0345
G1 X188.852 Y94.652 E33.4571
G1 X195.313 Y105.593 E33.8797
G1 X200.971 Y116.971 E34.3024
G1 X205.795 Y128.726 E34.7250
G1 X209.761 Y140.798 E35.1476
G1 X212.848 Y153.124 E35.5703
G1 X215.041 Y165.641 E35.9929
G1 X215.149 Y166.600 E36.0250
G1 X215.197 Y167.191 E36.0447
G1 X216.326 Y178.284 E36.4156
G1 X216.370 Y179.130 E36.4438
G1 X216.692 Y188.973 E36.7713
G1 X216.702 Y189.568 E36.7911
G1 X216.041 Y189.297
;segType:Loop
G0 X215.588 Y188.525 F10800
G1 X215.225 Y178.401 E37.1280 F3600
G1 X215.169 Y177.249 E37.1664
G1 X213.897 Y165.637 E37.5550
G1 X213.733 Y164.158 E37.6045
G1 X211.317 Y151.203 E38.0427
G1 X207.935 Y138.468 E38.4810
G1 X203.607 Y126.021 E38.9193
G1 X198.358 Y113.935 E39.3576
G1 X192.215 Y102.277 E39.7959
G1 X185.215 Y91.112 E40.2342
G1 X177.397 Y80.504 E40.6724
G1 X168.805 Y70.513 E41.1107
G1 X159.487 Y61.195 E41.5490
G1 X149.496 Y52.603 E41.9873
G1 X138.888 Y44.785 E42.4256
G1 X127.724 Y37.785 E42.8639
G1 X116.065 Y31.642 E43.3021
G1 X103.979 Y26.393 E43.7404
G1 X91.532 Y22.065 E44.1787
G1 X78.797 Y18.683 E44.6170
G1 X65.842 Y16.267 E45.0553
G1 X52.705 Y14.828 E45.4948
G1 X51.706 Y14.777 E45.5281
G1 X41.173 Y14.399 E45.8787
G1 X41.173 Y14.118 E45.8880
G1 X41.579 Y14.132 E45.9015
G1 X51.395 Y14.454 E46.2282
G1 X52.105 Y14.505 E46.2519
G1 X63.417 Y15.656 E46.6300
G1 X64.244 Y15.751 E46.6577
G1 X76.710 Y17.934 E47.0787
G1 X88.980 Y21.008 E47.4994
G1 X100.997 Y24.956 E47.9201
G1 X112.699 Y29.759 E48.3408
G1 X124.025 Y35.390 E48.7615
G1 X134.917 Y41.822 E49.1822
G1 X145.318 Y49.021 E49.6029
G1 X155.174 Y56.949 E50.0236
G1 X164.434 Y65.566 E50.4443
G1 X173.051 Y74.826 E50.8651
G1 X180.979 Y84.682 E51.2858
G1 X188.178 Y95.083 E51.7065
G1 X194.610 Y105.975 E52.1272
G1 X200.241 Y117.301 E52.5479
G1 X205.044 Y129.003 E52.9686
G1 X208.992 Y141.020 E53.3893
G1 X212.066 Y153.290 E53.8100
G1 X214.249 Y165.755 E54.2309
G1 X214.353 Y166.676 E54.2618
G1 X214.400 Y167.264 E54.2814
G1 X215.528 Y178.345 E54.6518
G1 X215.570 Y179.164 E54.6791
G1 X215.887 Y188.827 E55.0007
G1 X215.599 Y188.827 E55.0103
G1 X215.595 Y188.723 E55.0137
; ------------------------------------
; Layer #10
; ------------------------------------
G21 ; mm
G90 ; abs
G92 E0 ; reset extr
M106 S255
;segType:Loop
G0 F4800 E-1.0000
G0 F300 Z2.200
G0 X215.612 Y189.227 F10800
G0 F4800 E0.0000
G1 X215.210 Y189.227 E0.0134 F3600
G1 X215.207 Y189.020 E0.0203
G1 X214.831 Y178.530 E0.3694
G1 X214.770 Y177.281 E0.4110
G1 X213.515 Y165.824 E0.7943
G1 X213.337 Y164.216 E0.8481
G1 X210.926 Y151.292 E1.2854
G1 X207.553 Y138.585 E1.7227
G1 X203.234 Y126.167 E2.1600
G1 X197.997 Y114.108 E2.5973
G1 X191.868 Y102.476 E3.0345
G1 X184.884 Y91.337 E3.4718
G1 X177.084 Y80.753 E3.9091
G1 X168.511 Y70.785 E4.3464
G1 X159.215 Y61.489 E4.7837
G1 X149.247 Y52.916 E5.2210
G1 X138.663 Y45.116 E5.6582
G1 X127.524 Y38.132 E6.0955
G1 X115.892 Y32.003 E6.5328
G1 X103.833 Y26.766 E6.9701
G1 X91.415 Y22.447 E7.4074
G1 X78.708 Y19.074 E7.8447
G1 X65.784 Y16.663 E8.2819
G1 X52.720 Y15.230 E8.7190
G1 X51.588 Y15.171 E8.7568
G1 X41.096 Y14.795 E9.1060
G1 X40.773 Y14.789 E9.1167
G1 X40.773 Y13.704 E9.1528
G1 X41.737 Y13.737 E9.1849
G1 X51.387 Y14.053 E9.5060
G1 X52.186 Y14.110 E9.5327
G1 X63.373 Y15.248 E9.9067
G1 X64.301 Y15.355 E9.9377
G1 X76.793 Y17.543 E10.3596
G1 X89.091 Y20.624 E10.7812
G1 X101.135 Y24.581 E11.2029
G1 X112.864 Y29.394 E11.6246
G1 X124.216 Y35.039 E12.0462
G1 X135.133 Y41.485 E12.4679
G1 X145.558 Y48.700 E12.8896
G1 X155.436 Y56.646 E13.3112
G1 X164.717 Y65.283 E13.7329
G1 X173.354 Y74.564 E14.1546
G1 X181.300 Y84.442 E14.5762
G1 X188.515 Y94.867 E14.9979
G1 X194.961 Y105.784 E15.4196
G1 X200.606 Y117.136 E15.8413
G1 X205.419 Y128.865 E16.2629
G1 X209.376 Y140.909 E16.6846
G1 X212.457 Y153.207 E17.1063
G1 X214.645 Y165.698 E17.5280
G1 X214.762 Y166.735 E17.5627
G1 X214.814 Y167.383 E17.5844
G1 X215.927 Y178.314 E17.9498
G1 X215.974 Y179.233 E17.9804
G1 X216.291 Y188.897 E18.3020
G1 X216.296 Y189.227 E18.3130
G1 X215.811 Y189.227 E18.3292
;segType:Perimeter
G0 X216.362 Y188.971 F10800
G1 X216.643 Y189.627 E18.3529 F2159
G1 X214.817 Y189.627 E18.4136
G1 X214.807 Y189.030 E18.4335
G1 X214.431 Y178.547 E18.7824
G1 X214.371 Y177.312 E18.8235
G1 X213.117 Y165.868 E19.2064
G1 X212.941 Y164.275 E19.2597
G1 X210.536 Y151.380 E19.6960
G1 X207.170 Y138.702 E20.1323
G1 X202.861 Y126.312 E20.5686
G1 X197.636 Y114.281 E21.0049
G1 X191.521 Y102.676 E21.4411
G1 X184.553 Y91.562 E21.8774
G1 X176.771 Y81.003 E22.3137
G1 X168.218 Y71.058 E22.7500
G1 X158.942 Y61.782 E23.1863
G1 X148.997 Y53.229 E23.6226
G1 X138.438 Y45.447 E24.0589
G1 X127.324 Y38.479 E24.4951
G1 X115.719 Y32.364 E24.9314
G1 X103.688 Y27.139 E25.3677
G1 X91.298 Y22.830 E25.8040
G1 X78.620 Y19.464 E26.2403
G1 X65.725 Y17.059 E26.6765
G1 X52.688 Y15.629 E27.1128
G1 X51.570 Y15.571 E27.1500
G1 X41.086 Y15.195 E27.4989
G1 X40.373 Y15.183 E27.5226
G1 X40.373 Y13.297 E27.5854
G1 X40.958 Y13.307 E27.6048
G1 X41.751 Y13.337 E27.6312
G1 X51.408 Y13.653 E27.9526
G1 X52.221 Y13.711 E27.9797
G1 X63.415 Y14.851 E28.3539
G1 X64.359 Y14.959 E28.3855
G1 X76.876 Y17.152 E28.8082
G1 X89.202 Y20.239 E29.2308
G1 X101.274 Y24.205 E29.6535
G1 X113.029 Y29.029 E30.0761
G1 X124.407 Y34.687 E30.4987
G1 X135.348 Y41.148 E30.9213
G1 X145.797 Y48.379 E31.3440
G1 X155.698 Y56.344 E31.7666
G1 X165.001 Y64.999 E32.1892
G1 X173.656 Y74.302 E32.6118
G1 X181.621 Y84.203 E33.0345
G1 X188.852 Y94.652 E33.4571
G1 X195.313 Y105.593 E33.8797
G1 X200.971 Y116.971 E34.3024
G1 X205.795 Y128.726 E34.7250
G1 X209.761 Y140.798 E35.1476
G1 X212.848 Y153.124 E35.5702
G1 X215.041 Y165.641 E35.9929
G1 X215.160 Y166.697 E36.0282
G1 X215.212 Y167.347 E36.0499
G1 X216.326 Y178.284 E36.4156
G1 X216.374 Y179.216 E36.4466
G1 X216.691 Y188.888 E36.7685
G1 X216.702 Y189.568 E36.7911
G1 X216.041 Y189.297
;segType:Loop
G0 X215.589 Y188.525 F10800
G1 X215.230 Y178.513 E37.1243 F3600
G1 X215.169 Y177.249 E37.1664
G1 X213.912 Y165.781 E37.5501
G1 X213.733 Y164.158 E37.6045
G1 X211.317 Y151.203 E38.0427
G1 X207.935 Y138.468 E38.4810
G1 X203.607 Y126.021 E38.9193
G1 X198.358 Y113.935 E39.3576
G1 X192.215 Y102.277 E39.7959
G1 X185.215 Y91.112 E40.2342
G1 X177.397 Y80.504 E40.6724
G1 X168.805 Y70.513 E41.1107
G1 X159.487 Y61.195 E41.5490
G1 X149.496 Y52.603 E41.9873
G1 X138.888 Y44.785 E42.4256
G1 X127.724 Y37.785 E42.8639
G1 X116.065 Y31.642 E43.3021
G1 X103.979 Y26.393 E43.7404
G1 X91.532 Y22.065 E44.1787
G1 X78.797 Y18.683 E44.6170
G1 X65.842 Y16.267 E45.0553
G1 X52.753 Y14.831 E45.4932
G1 X51.605 Y14.771 E45.5315
G1 X41.173 Y14.397 E45.8787
G1 X41.173 Y14.118 E45.8880
G1 X51.367 Y14.452 E46.2272
G1 X52.151 Y14.508 E46.2534
G1 X63.331 Y15.646 E46.6271
G1 X64.244 Y15.751 E46.6577
G1 X76.710 Y17.934 E47.0786
G1 X88.980 Y21.008 E47.4993
G1 X100.997 Y24.956 E47.9200
G1 X112.699 Y29.759 E48.3408
G1 X124.025 Y35.390 E48.7615
G1 X134.917 Y41.822 E49.1822
G1 X145.318 Y49.021 E49.6029
G1 X155.174 Y56.949 E50.0236
G1 X164.434 Y65.566 E50.4443
G1 X173.051 Y74.826 E50.8650
G1 X180.979 Y84.682 E51.2857
G1 X188.178 Y95.083 E51.7064
G1 X194.610 Y105.975 E52.1271
G1 X200.241 Y117.301 E52.5478
G1 X205.044 Y129.003 E52.9686
G1 X208.992 Y141.020 E53.3893
G1 X212.066 Y153.290 E53.8100
G1 X214.249 Y165.755 E54.2309
G1 X214.364 Y166.773 E54.2650
G1 X214.416 Y167.420 E54.2865
G1 X215.528 Y178.345 E54.6518
G1 X215.575 Y179.250 E54.6819
G1 X215.888 Y188.827 E55.0006
G1 X215.600 Y188.827 E55.0102
G1 X215.597 Y188.723 E55.0137
; ------------------------------------
; Layer #11
; ------------------------------------
G21 ; mm
G90 ; abs
G92 E0 ; reset extr
M106 S255
;segType:Loop
G0 F4800 E-1.0000
G0 F300 Z2.400
G0 X215.612 Y189.227 F10800
G0 F4800 E0.0000
G1 X215.210 Y189.227 E0.0134 F3600
G1 X215.206 Y188.948 E0.0227
G1 X214.836 Y178.641 E0.3657
G1 X214.770 Y177.281 E0.4110
G1 X213.531 Y165.969 E0.7895
G1 X213.337 Y164.216 E0.8481
G1 X210.926 Y151.292 E1.2854
G1 X207.553 Y138.585 E1.7227
G1 X203.234 Y126.167 E2.1600
G1 X197.997 Y114.108 E2.5973
G1 X191.868 Y102.476 E3.0345
G1 X184.884 Y91.337 E3.4718
G1 X177.084 Y80.753 E3.9091
G1 X168.511 Y70.785 E4.3464
G1 X159.215 Y61.489 E4.7837
G1 X149.247 Y52.916 E5.2210
G1 X138.663 Y45.116 E5.6583
G1 X127.524 Y38.132 E6.0955
G1 X115.892 Y32.003 E6.5328
G1 X103.833 Y26.766 E6.9701
G1 X91.415 Y22.447 E7.4074
G1 X78.708 Y19.074 E7.8447
G1 X65.784 Y16.663 E8.2820
G1 X52.720 Y15.230 E8.7190
G1 X51.487 Y15.166 E8.7601
G1 X41.178 Y14.796 E9.1032
G1 X40.773 Y14.789 E9.1167
G1 X40.773 Y13.704 E9.1528
G1 X41.881 Y13.741 E9.1897
G1 X51.359 Y14.051 E9.5051
G1 X52.233 Y14.113 E9.5342
G1 X63.286 Y15.238 E9.9037
G1 X64.302 Y15.355 E9.9378
G1 X76.793 Y17.543 E10.3596
G1 X89.091 Y20.624 E10.7812
G1 X101.135 Y24.581 E11.2029
G1 X112.864 Y29.394 E11.6246
G1 X124.216 Y35.039 E12.0462
G1 X135.133 Y41.485 E12.4679
G1 X145.558 Y48.700 E12.8896
G1 X155.436 Y56.646 E13.3112
G1 X164.717 Y65.283 E13.7329
G1 X173.354 Y74.564 E14.1546
G1 X181.300 Y84.442 E14.5762
G1 X188.515 Y94.867 E14.9979
G1 X194.961 Y105.784 E15.4196
G1 X200.606 Y117.136 E15.8413
G1 X205.419 Y128.865 E16.2629
G1 X209.376 Y140.909 E16.6846
G1 X212.457 Y153.207 E17.1063
G1 X214.645 Y165.698 E17.5280
G1 X214.773 Y166.831 E17.5660
G1 X214.830 Y167.539 E17.5896
G1 X215.927 Y178.314 E17.9498
G1 X215.979 Y179.318 E17.9833
G1 X216.290 Y188.812 E18.2992
G1 X216.296 Y189.227 E18.3130
G1 X215.811 Y189.227 E18.3292
;segType:Perimeter
G0 X216.362 Y188.971 F10800
G1 X216.643 Y189.627 E18.3529 F2159
G1 X214.817 Y189.627 E18.4136
G1 X214.806 Y188.958 E18.4359
G1 X214.436 Y178.658 E18.7787
G1 X214.371 Y177.312 E18.8235
G1 X213.133 Y166.013 E19.2016
G1 X212.941 Y164.275 E19.2597
G1 X210.536 Y151.380 E19.6960
G1 X207.170 Y138.702 E20.1323
G1 X202.861 Y126.312 E20.5686
G1 X197.636 Y114.281 E21.0049
G1 X191.521 Y102.676 E21.4411
G1 X184.553 Y91.562 E21.8774
G1 X176.771 Y81.003 E22.3137
G1 X168.218 Y71.058 E22.7500
G1 X158.942 Y61.782 E23.1863
G1 X148.997 Y53.229 E23.6226
G1 X138.438 Y45.447 E24.0589
G1 X127.324 Y38.479 E24.4951
G1 X115.719 Y32.364 E24.9314
G1 X103.688 Y27.139 E25.3677
G1 X91.298 Y22.830 E25.8040
G1 X78.620 Y19.464 E26.2403
G1 X65.725 Y17.059 E26.6765
G1 X52.688 Y15.629 E27.1128
G1 X51.469 Y15.565 E27.1534
G1 X41.168 Y15.196 E27.4962
G1 X40.373 Y15.183 E27.5226
G1 X40.373 Y13.297 E27.5854
G1 X41.030 Y13.308 E27.6072
G1 X41.895 Y13.341 E27.6360
G1 X51.380 Y13.652 E27.9516
G1 X52.267 Y13.715 E27.9812
G1 X63.329 Y14.841 E28.3510
G1 X64.359 Y14.959 E28.3855
G1 X76.876 Y17.152 E28.8082
G1 X89.202 Y20.239 E29.2308
G1 X101.274 Y24.205 E29.6535
G1 X113.029 Y29.029 E30.0761
G1 X124.407 Y34.687 E30.4987
G1 X135.348 Y41.148 E30.9213
G1 X145.797 Y48.379 E31.3440
G1 X155.698 Y56.344 E31.7666
G1 X165.001 Y64.999 E32.1892
G1 X173.656 Y74.302 E32.6118
G1 X181.621 Y84.203 E33.0345
G1 X188.852 Y94.652 E33.4571
G1 X195.313 Y105.593 E33.8797
G1 X200.971 Y116.971 E34.3024
G1 X205.795 Y128.726 E34.7250
G1 X209.761 Y140.798 E35.1476
G1 X212.848 Y153.124 E35.5702
G1 X215.041 Y165.641 E35.9929
G1 X215.171 Y166.793 E36.0315
G1 X215.228 Y167.503 E36.0552
G1 X216.325 Y178.284 E36.4156
G1 X216.378 Y179.301 E36.4495
G1 X216.689 Y188.802 E36.7656
G1 X216.702 Y189.568 E36.7911
G1 X216.042 Y189.297
;segType:Loop
G0 X215.591 Y188.525 F10800
G1 X215.236 Y178.624 E37.1206 F3600
G1 X215.169 Y177.249 E37.1664
G1 X213.928 Y165.925 E37.5453
G1 X213.733 Y164.158 E37.6045
G1 X211.317 Y151.203 E38.0427
G1 X207.935 Y138.468 E38.4810
G1 X203.607 Y126.021 E38.9193
G1 X198.358 Y113.935 E39.3576
G1 X192.215 Y102.277 E39.7959
G1 X185.215 Y91.112 E40.2342
G1 X177.397 Y80.504 E40.6724
G1 X168.805 Y70.513 E41.1107
G1 X159.487 Y61.195 E41.5490
G1 X149.496 Y52.603 E41.9873
G1 X138.888 Y44.785 E42.4256
G1 X127.724 Y37.785 E42.8639
G1 X116.065 Y31.642 E43.3021
G1 X103.979 Y26.393 E43.7404
G1 X91.532 Y22.065 E44.1787
G1 X78.797 Y18.683 E44.6170
G1 X65.842 Y16.267 E45.0553
G1 X52.753 Y14.831 E45.4933
G1 X51.504 Y14.766 E45.5348
G1 X41.173 Y14.396 E45.8787
G1 X41.173 Y14.117 E45.8879
G1 X51.338 Y14.451 E46.2262
G1 X52.198 Y14.512 E46.2549
G1 X63.244 Y15.636 E46.6242
G1 X64.244 Y15.751 E46.6577
G1 X76.710 Y17.934 E47.0786
G1 X88.980 Y21.008 E47.4993
G1 X100.997 Y24.956 E47.9200
G1 X112.699 Y29.759 E48.3407
G1 X124.025 Y35.390 E48.7614
G1 X134.917 Y41.822 E49.1821
G1 X145.318 Y49.021 E49.6028
G1 X155.174 Y56.949 E50.0236
G1 X164.434 Y65.566 E50.4443
G1 X173.051 Y74.826 E50.8650
G1 X180.979 Y84.682 E51.2857
G1 X188.178 Y95.083 E51.7064
G1 X194.610 Y105.975 E52.1271
G1 X200.241 Y117.301 E52.5478
G1 X205.044 Y129.003 E52.9686
G1 X208.992 Y141.020 E53.3892
G1 X212.066 Y153.290 E53.8100
G1 X214.249 Y165.755 E54.2308
G1 X214.375 Y166.870 E54.2682
G1 X214.431 Y167.575 E54.2917
G1 X215.528 Y178.345 E54.6518
G1 X215.579 Y179.335 E54.6847
G1 X215.890 Y188.827 E55.0006
G1 X215.602 Y188.827 E55.0102
G1 X215.598 Y188.723 E55.0137
; ------------------------------------
; Layer #12
; ------------------------------------
G21 ; mm
G90 ; abs
G92 E0 ; reset extr
M106 S255
;segType:Loop
G0 F4800 E-1.0000
G0 F300 Z2.600
G0 X215.612 Y189.227 F10800
G0 F4800 E0.0000
G1 X215.210 Y189.227 E0.0134 F3600
G1 X215.205 Y188.876 E0.0251
G1 X214.842 Y178.753 E0.3620
G1 X214.766 Y177.229 E0.4127
G1 X213.547 Y166.113 E0.7847
G1 X213.337 Y164.216 E0.8481
G1 X210.926 Y151.292 E1.2854
G1 X207.553 Y138.585 E1.7227
G1 X203.234 Y126.167 E2.1600
G1 X197.997 Y114.108 E2.5973
G1 X191.868 Y102.476 E3.0345
G1 X184.884 Y91.337 E3.4718
G1 X177.084 Y80.753 E3.9091
G1 X168.511 Y70.785 E4.3464
G1 X159.215 Y61.489 E4.7837
G1 X149.247 Y52.916 E5.2210
G1 X138.663 Y45.116 E5.6582
G1 X127.524 Y38.132 E6.0955
G1 X115.892 Y32.003 E6.5328
G1 X103.833 Y26.766 E6.9701
G1 X91.415 Y22.447 E7.4074
G1 X78.708 Y19.074 E7.8447
G1 X65.784 Y16.663 E8.2819
G1 X52.720 Y15.230 E8.7191
G1 X51.386 Y15.161 E8.7635
G1 X41.261 Y14.798 E9.1005
G1 X40.773 Y14.790 E9.1167
G1 X40.773 Y13.704 E9.1528
G1 X42.025 Y13.744 E9.1945
G1 X51.331 Y14.049 E9.5041
G1 X52.278 Y14.117 E9.5357
G1 X63.200 Y15.229 E9.9009
G1 X64.302 Y15.355 E9.9378
G1 X76.793 Y17.543 E10.3596
G1 X89.091 Y20.624 E10.7812
G1 X101.135 Y24.581 E11.2029
G1 X112.864 Y29.394 E11.6246
G1 X124.216 Y35.039 E12.0462
G1 X135.133 Y41.485 E12.4679
G1 X145.558 Y48.700 E12.8896
G1 X155.436 Y56.646 E13.3112
G1 X164.717 Y65.283 E13.7329
G1 X173.354 Y74.564 E14.1546
G1 X181.300 Y84.442 E14.5762
G1 X188.515 Y94.867 E14.9979
G1 X194.961 Y105.784 E15.4196
G1 X200.606 Y117.136 E15.8413
G1 X205.419 Y128.865 E16.2629
G1 X209.376 Y140.909 E16.6846
G1 X212.457 Y153.207 E17.1063
G1 X214.645 Y165.698 E17.5280
G1 X214.784 Y166.928 E17.5692
G1 X214.845 Y167.695 E17.5948
G1 X215.926 Y178.314 E17.9498
G1 X215.983 Y179.403 E17.9861
G1 X216.288 Y188.726 E18.2963
G1 X216.296 Y189.227 E18.3130
G1 X215.811 Y189.227 E18.3292
;segType:Perimeter
G0 X216.362 Y188.971 F10800
G1 X216.643 Y189.627 E18.3529 F2159
G1 X214.817 Y189.627 E18.4136
G1 X214.805 Y188.886 E18.4383
G1 X214.442 Y178.770 E18.7750
G1 X214.368 Y177.260 E18.8252
G1 X213.149 Y166.157 E19.1967
G1 X212.941 Y164.275 E19.2597
G1 X210.536 Y151.380 E19.6960
G1 X207.170 Y138.702 E20.1323
G1 X202.861 Y126.312 E20.5686
G1 X197.636 Y114.281 E21.0049
G1 X191.521 Y102.676 E21.4411
G1 X184.553 Y91.562 E21.8774
G1 X176.771 Y81.003 E22.3137
G1 X168.218 Y71.058 E22.7500
G1 X158.942 Y61.782 E23.1863
G1 X148.997 Y53.229 E23.6226
G1 X138.438 Y45.447 E24.0589
G1 X127.324 Y38.479 E24.4951
G1 X115.719 Y32.364 E24.9314
G1 X103.688 Y27.139 E25.3677
G1 X91.298 Y22.830 E25.8040
G1 X78.620 Y19.464 E26.2403
G1 X65.725 Y17.059 E26.6765
G1 X52.688 Y15.629 E27.1128
G1 X51.368 Y15.560 E27.1567
G1 X41.251 Y15.197 E27.4934
G1 X40.373 Y15.183 E27.5226
G1 X40.373 Y13.297 E27.5854
G1 X41.102 Y13.309 E27.6096
G1 X42.039 Y13.345 E27.6408
G1 X51.351 Y13.650 E27.9507
G1 X52.313 Y13.718 E27.9828
G1 X63.242 Y14.831 E28.3481
G1 X64.359 Y14.959 E28.3855
G1 X76.876 Y17.152 E28.8082
G1 X89.202 Y20.239 E29.2308
G1 X101.274 Y24.205 E29.6535
G1 X113.029 Y29.029 E30.0761
G1 X124.407 Y34.687 E30.4987
G1 X135.348 Y41.148 E30.9213
G1 X145.797 Y48.379 E31.3440
G1 X155.698 Y56.344 E31.7666
G1 X165.001 Y64.999 E32.1892
G1 X173.656 Y74.302 E32.6118
G1 X181.621 Y84.203 E33.0345
G1 X188.852 Y94.652 E33.4571
G1 X195.313 Y105.593 E33.8797
G1 X200.971 Y116.971 E34.3024
G1 X205.795 Y128.726 E34.7250
G1 X209.761 Y140.798 E35.1476
G1 X212.848 Y153.124 E35.5702
G1 X215.041 Y165.641 E35.9929
G1 X215.182 Y166.890 E36.0347
G1 X215.243 Y167.658 E36.0604
G1 X216.325 Y178.284 E36.4156
G1 X216.382 Y179.386 E36.4523
G1 X216.688 Y188.716 E36.7628
G1 X216.702 Y189.568 E36.7911
G1 X216.041 Y189.297
;segType:Loop
G0 X215.592 Y188.525 F10800
G1 X215.241 Y178.735 E37.1169 F3600
G1 X215.165 Y177.197 E37.1682
G1 X213.944 Y166.069 E37.5405
G1 X213.733 Y164.158 E37.6045
G1 X211.317 Y151.203 E38.0427
G1 X207.935 Y138.468 E38.4810
G1 X203.607 Y126.021 E38.9193
G1 X198.358 Y113.935 E39.3576
G1 X192.215 Y102.277 E39.7959
G1 X185.215 Y91.112 E40.2342
G1 X177.397 Y80.504 E40.6724
G1 X168.805 Y70.513 E41.1107
G1 X159.487 Y61.195 E41.5490
G1 X149.496 Y52.603 E41.9873
G1 X138.888 Y44.785 E42.4256
G1 X127.724 Y37.785 E42.8639
G1 X116.065 Y31.642 E43.3021
G1 X103.979 Y26.393 E43.7404
G1 X91.532 Y22.065 E44.1787
G1 X78.797 Y18.683 E44.6170
G1 X65.842 Y16.267 E45.0553
G1 X52.752 Y14.831 E45.4933
G1 X51.403 Y14.761 E45.5382
G1 X41.271 Y14.398 E45.8754
G1 X41.173 Y14.396 E45.8787
G1 X41.173 Y14.117 E45.8880
G1 X51.310 Y14.449 E46.2253
G1 X52.243 Y14.515 E46.2564
G1 X63.158 Y15.626 E46.6213
G1 X64.244 Y15.751 E46.6577
G1 X76.710 Y17.934 E47.0786
G1 X88.980 Y21.008 E47.4993
G1 X100.997 Y24.956 E47.9200
G1 X112.699 Y29.759 E48.3407
G1 X124.025 Y35.390 E48.7614
G1 X134.917 Y41.822 E49.1821
G1 X145.318 Y49.021 E49.6029
G1 X155.174 Y56.949 E50.0236
G1 X164.434 Y65.566 E50.4443
G1 X173.051 Y74.826 E50.8650
G1 X180.979 Y84.682 E51.2857
G1 X188.178 Y95.083 E51.7064
G1 X194.610 Y105.975 E52.1271
G1 X200.241 Y117.301 E52.5478
G1 X205.044 Y129.003 E52.9686
G1 X208.992 Y141.020 E53.3893
G1 X212.066 Y153.290 E53.8100
G1 X214.249 Y165.755 E54.2309
G1 X214.386 Y166.967 E54.2714
G1 X214.447 Y167.731 E54.2969
G1 X215.527 Y178.345 E54.6518
G1 X215.583 Y179.420 E54.6876
G1 X215.888 Y188.736 E54.9976
G1 X215.890 Y188.827 E55.0006
G1 X215.603 Y188.827 E55.0102
G1 X215.599 Y188.723 E55.0136
; ------------------------------------
; Layer #13
; ------------------------------------
G21 ; mm
G90 ; abs
G92 E0 ; reset extr
M106 S255
;segType:Loop
G0 F4800 E-1.0000
G0 F300 Z2.800
G0 X215.612 Y189.227 F10800
G0 F4800 E0.0000
G1 X215.210 Y189.227 E0.0134 F3600
G1 X215.203 Y188.804 E0.0275
G1 X214.847 Y178.864 E0.3583
G1 X214.766 Y177.225 E0.4129
G1 X213.563 Y166.262 E0.7797
G1 X213.541 Y166.028 E0.7875
G1 X213.337 Y164.215 E0.8482
G1 X210.926 Y151.292 E1.2854
G1 X207.553 Y138.585 E1.7227
G1 X203.234 Y126.167 E2.1600
G1 X197.997 Y114.108 E2.5973
G1 X191.868 Y102.476 E3.0345
G1 X184.884 Y91.337 E3.4718
G1 X177.084 Y80.753 E3.9091
G1 X168.511 Y70.785 E4.3464
G1 X159.215 Y61.489 E4.7837
G1 X149.247 Y52.916 E5.2210
G1 X138.663 Y45.116 E5.6583
G1 X127.524 Y38.132 E6.0955
G1 X115.892 Y32.003 E6.5328
G1 X103.833 Y26.766 E6.9701
G1 X91.415 Y22.447 E7.4074
G1 X78.708 Y19.074 E7.8447
G1 X65.785 Y16.663 E8.2819
G1 X63.978 Y16.459 E8.3424
G1 X63.644 Y16.428 E8.3536
G1 X52.720 Y15.230 E8.7191
G1 X51.285 Y15.155 E8.7669
G1 X41.343 Y14.799 E9.0977
G1 X40.773 Y14.789 E9.1167
G1 X40.773 Y13.704 E9.1528
G1 X41.163 Y13.710 E9.1658
G1 X42.169 Y13.749 E9.1993
G1 X51.302 Y14.047 E9.5032
G1 X52.324 Y14.120 E9.5373
G1 X63.114 Y15.219 E9.8980
G1 X64.301 Y15.355 E9.9378
G1 X76.793 Y17.543 E10.3596
G1 X89.091 Y20.624 E10.7812
G1 X101.135 Y24.581 E11.2029
G1 X112.864 Y29.394 E11.6246
G1 X124.216 Y35.039 E12.0462
G1 X135.133 Y41.485 E12.4679
G1 X145.558 Y48.700 E12.8896
G1 X155.436 Y56.646 E13.3113
G1 X164.717 Y65.283 E13.7329
G1 X173.354 Y74.564 E14.1546
G1 X181.300 Y84.442 E14.5763
G1 X188.515 Y94.867 E14.9979
G1 X194.961 Y105.784 E15.4196
G1 X200.606 Y117.136 E15.8413
G1 X205.419 Y128.865 E16.2629
G1 X209.376 Y140.909 E16.6846
G1 X212.457 Y153.207 E17.1063
G1 X214.645 Y165.698 E17.5281
G1 X214.795 Y167.025 E17.5725
G1 X214.861 Y167.851 E17.6000
G1 X215.926 Y178.316 E17.9499
G1 X215.987 Y179.488 E17.9889
G1 X216.287 Y188.640 E18.2935
G1 X216.296 Y189.227 E18.3130
G1 X215.811 Y189.227 E18.3292
;segType:Perimeter
G0 X216.362 Y188.971 F10800
G1 X216.643 Y189.627 E18.3529 F2159
G1 X214.817 Y189.627 E18.4137
G1 X214.803 Y188.814 E18.4407
G1 X214.447 Y178.881 E18.7713
G1 X214.367 Y177.256 E18.8254
G1 X213.165 Y166.302 E19.1919
G1 X213.144 Y166.069 E19.1997
G1 X212.941 Y164.274 E19.2598
G1 X210.536 Y151.380 E19.6960
G1 X207.170 Y138.702 E20.1323
G1 X202.861 Y126.312 E20.5686
G1 X197.636 Y114.281 E21.0049
G1 X191.521 Y102.676 E21.4412
G1 X184.553 Y91.562 E21.8774
G1 X176.771 Y81.003 E22.3137
G1 X168.218 Y71.058 E22.7500
G1 X158.942 Y61.782 E23.1863
G1 X148.997 Y53.229 E23.6226
G1 X138.438 Y45.447 E24.0589
G1 X127.324 Y38.479 E24.4952
G1 X115.719 Y32.364 E24.9314
G1 X103.688 Y27.139 E25.3677
G1 X91.298 Y22.830 E25.8040
G1 X78.620 Y19.464 E26.2403
G1 X65.726 Y17.059 E26.6766
G1 X63.937 Y16.857 E26.7364
G1 X63.604 Y16.826 E26.7476
G1 X52.688 Y15.629 E27.1128
G1 X51.267 Y15.555 E27.1601
G1 X41.333 Y15.199 E27.4907
G1 X40.373 Y15.183 E27.5227
G1 X40.373 Y13.297 E27.5854
G1 X41.174 Y13.310 E27.6120
G1 X42.183 Y13.349 E27.6456
G1 X51.323 Y13.648 E27.9498
G1 X52.359 Y13.722 E27.9843
G1 X63.156 Y14.821 E28.3453
G1 X64.359 Y14.959 E28.3856
G1 X76.876 Y17.152 E28.8082
G1 X89.202 Y20.239 E29.2309
G1 X101.274 Y24.205 E29.6535
G1 X113.029 Y29.029 E30.0761
G1 X124.407 Y34.687 E30.4988
G1 X135.348 Y41.148 E30.9214
G1 X145.797 Y48.379 E31.3440
G1 X155.698 Y56.344 E31.7666
G1 X165.001 Y64.999 E32.1893
G1 X173.656 Y74.302 E32.6119
G1 X181.621 Y84.203 E33.0345
G1 X188.852 Y94.652 E33.4572
G1 X195.313 Y105.593 E33.8798
G1 X200.971 Y116.971 E34.3024
G1 X205.795 Y128.726 E34.7250
G1 X209.761 Y140.798 E35.1477
G1 X212.848 Y153.124 E35.5703
G1 X215.041 Y165.641 E35.9929
G1 X215.193 Y166.987 E36.0380
G1 X215.259 Y167.814 E36.0656
G1 X216.325 Y178.285 E36.4157
G1 X216.387 Y179.471 E36.4552
G1 X216.687 Y188.630 E36.7600
G1 X216.702 Y189.568 E36.7911
G1 X216.041 Y189.297
;segType:Loop
G0 X215.594 Y188.525 F10800
G1 X215.247 Y178.847 E37.1132 F3600
G1 X215.165 Y177.193 E37.1683
G1 X213.961 Y166.222 E37.5354
G1 X213.733 Y164.156 E37.6046
G1 X211.317 Y151.203 E38.0428
G1 X207.935 Y138.468 E38.4811
G1 X203.607 Y126.021 E38.9194
G1 X198.358 Y113.935 E39.3576
G1 X192.215 Y102.277 E39.7959
G1 X185.215 Y91.112 E40.2342
G1 X177.397 Y80.504 E40.6725
G1 X168.805 Y70.513 E41.1108
G1 X159.487 Y61.195 E41.5490
G1 X149.496 Y52.603 E41.9873
G1 X138.888 Y44.785 E42.4256
G1 X127.724 Y37.785 E42.8639
G1 X116.065 Y31.642 E43.3022
G1 X103.979 Y26.393 E43.7405
G1 X91.532 Y22.065 E44.1788
G1 X78.797 Y18.683 E44.6170
G1 X65.844 Y16.267 E45.0553
G1 X64.019 Y16.061 E45.1163
G1 X63.684 Y16.030 E45.1275
G1 X52.753 Y14.831 E45.4933
G1 X51.302 Y14.755 E45.5416
G1 X41.353 Y14.399 E45.8727
G1 X41.173 Y14.396 E45.8787
G1 X41.173 Y14.111 E45.8882
G1 X42.155 Y14.148 E45.9209
G1 X51.282 Y14.447 E46.2246
G1 X52.289 Y14.519 E46.2582
G1 X63.072 Y15.617 E46.6187
G1 X64.244 Y15.751 E46.6579
G1 X76.710 Y17.934 E47.0789
G1 X88.980 Y21.008 E47.4996
G1 X100.997 Y24.956 E47.9203
G1 X112.699 Y29.759 E48.3410
G1 X124.025 Y35.390 E48.7617
G1 X134.917 Y41.822 E49.1824
G1 X145.318 Y49.021 E49.6031
G1 X155.174 Y56.949 E50.0238
G1 X164.434 Y65.566 E50.4446
G1 X173.051 Y74.826 E50.8653
G1 X180.979 Y84.682 E51.2860
G1 X188.178 Y95.083 E51.7067
G1 X194.610 Y105.975 E52.1274
G1 X200.241 Y117.301 E52.5481
G1 X205.044 Y129.003 E52.9688
G1 X208.992 Y141.020 E53.3895
G1 X212.066 Y153.290 E53.8102
G1 X214.249 Y165.755 E54.2311
G1 X214.396 Y167.064 E54.2749
G1 X214.462 Y167.887 E54.3024
G1 X215.527 Y178.347 E54.6521
G1 X215.587 Y179.505 E54.6907
G1 X215.887 Y188.650 E54.9950
G1 X215.890 Y188.827 E55.0009
G1 X215.603 Y188.794 E55.0105
G1 X215.601 Y188.723 E55.0128
; ------------------------------------
; Layer #14
; ------------------------------------
G21 ; mm
G90 ; abs
G92 E0 ; reset extr
M106 S255
;segType:Loop
G0 F4800 E-1.0000
G0 F300 Z3.000
G0 X215.612 Y189.227 F10800
G0 F4800 E0.0000
G1 X215.210 Y189.227 E0.0134 F3600
G1 X215.202 Y188.732 E0.0299
G1 X214.852 Y178.978 E0.3545
G1 X214.811 Y177.930 E0.3894
G1 X214.765 Y177.216 E0.4132
G1 X213.579 Y166.406 E0.7749
G1 X213.556 Y166.155 E0.7832
G1 X213.337 Y164.215 E0.8482
G1 X210.926 Y151.292 E1.2854
G1 X207.553 Y138.585 E1.7227
G1 X203.234 Y126.167 E2.1600
G1 X197.997 Y114.108 E2.5973
G1 X191.868 Y102.476 E3.0345
G1 X184.884 Y91.337 E3.4718
G1 X177.084 Y80.753 E3.9091
G1 X168.511 Y70.785 E4.3464
G1 X159.215 Y61.489 E4.7837
G1 X149.247 Y52.916 E5.2210
G1 X138.663 Y45.116 E5.6583
G1 X127.524 Y38.132 E6.0955
G1 X115.892 Y32.003 E6.5328
G1 X103.833 Y26.766 E6.9701
G1 X91.415 Y22.447 E7.4074
G1 X78.708 Y19.074 E7.8447
G1 X65.785 Y16.663 E8.2819
G1 X63.851 Y16.444 E8.3466
G1 X63.493 Y16.412 E8.3586
G1 X52.720 Y15.230 E8.7191
G1 X51.183 Y15.150 E8.7703
G1 X41.425 Y14.800 E9.0950
G1 X40.773 Y14.789 E9.1167
G1 X40.773 Y13.704 E9.1528
G1 X41.235 Y13.711 E9.1682
G1 X42.313 Y13.752 E9.2041
G1 X51.274 Y14.046 E9.5023
G1 X52.370 Y14.124 E9.5388
G1 X63.027 Y15.209 E9.8951
G1 X64.302 Y15.355 E9.9378
G1 X76.793 Y17.543 E10.3596
G1 X89.091 Y20.624 E10.7812
G1 X101.135 Y24.581 E11.2029
G1 X112.864 Y29.394 E11.6246
G1 X124.216 Y35.039 E12.0463
G1 X135.133 Y41.485 E12.4679
G1 X145.558 Y48.700 E12.8896
G1 X155.436 Y56.646 E13.3113
G1 X164.717 Y65.283 E13.7329
G1 X173.354 Y74.564 E14.1546
G1 X181.300 Y84.442 E14.5763
G1 X188.515 Y94.867 E14.9979
G1 X194.961 Y105.784 E15.4196
G1 X200.606 Y117.136 E15.8413
G1 X205.419 Y128.865 E16.2629
G1 X209.376 Y140.909 E16.6846
G1 X212.457 Y153.207 E17.1063
G1 X214.645 Y165.698 E17.5281
G1 X214.805 Y167.122 E17.5757
G1 X214.876 Y168.007 E17.6052
G1 X215.926 Y178.320 E17.9500
G1 X215.955 Y178.740 E17.9640
G1 X215.991 Y179.571 E17.9917
G1 X216.285 Y188.554 E18.2906
G1 X216.296 Y189.227 E18.3130
G1 X215.811 Y189.227 E18.3292
;segType:Perimeter
G0 X216.362 Y188.971 F10800
G1 X216.643 Y189.627 E18.3529 F2159
G1 X214.817 Y189.627 E18.4137
G1 X214.802 Y188.742 E18.4431
G1 X214.453 Y178.993 E18.7676
G1 X214.412 Y177.950 E18.8023
G1 X214.367 Y177.251 E18.8256
G1 X213.181 Y166.446 E19.1871
G1 X213.158 Y166.196 E19.1955
G1 X212.941 Y164.274 E19.2598
G1 X210.536 Y151.380 E19.6961
G1 X207.170 Y138.702 E20.1323
G1 X202.861 Y126.312 E20.5686
G1 X197.636 Y114.281 E21.0049
G1 X191.521 Y102.676 E21.4412
G1 X184.553 Y91.562 E21.8775
G1 X176.771 Y81.003 E22.3138
G1 X168.218 Y71.058 E22.7500
G1 X158.942 Y61.782 E23.1863
G1 X148.997 Y53.229 E23.6226
G1 X138.438 Y45.447 E24.0589
G1 X127.324 Y38.479 E24.4952
G1 X115.719 Y32.364 E24.9314
G1 X103.688 Y27.139 E25.3677
G1 X91.298 Y22.830 E25.8040
G1 X78.620 Y19.464 E26.2403
G1 X65.726 Y17.059 E26.6766
G1 X63.811 Y16.842 E26.7407
G1 X63.453 Y16.810 E26.7526
G1 X52.688 Y15.629 E27.1128
G1 X51.166 Y15.550 E27.1635
G1 X41.415 Y15.200 E27.4880
G1 X40.373 Y15.183 E27.5227
G1 X40.373 Y13.297 E27.5854
G1 X41.245 Y13.312 E27.6144
G1 X42.327 Y13.353 E27.6504
G1 X51.294 Y13.647 E27.9489
G1 X52.405 Y13.725 E27.9859
G1 X63.069 Y14.811 E28.3424
G1 X64.359 Y14.959 E28.3856
G1 X76.876 Y17.152 E28.8083
G1 X89.202 Y20.239 E29.2309
G1 X101.274 Y24.205 E29.6535
G1 X113.029 Y29.029 E30.0761
G1 X124.407 Y34.687 E30.4988
G1 X135.348 Y41.148 E30.9214
G1 X145.797 Y48.379 E31.3440
G1 X155.698 Y56.344 E31.7666
G1 X165.001 Y64.999 E32.1893
G1 X173.656 Y74.302 E32.6119
G1 X181.621 Y84.203 E33.0345
G1 X188.852 Y94.652 E33.4572
G1 X195.313 Y105.593 E33.8798
G1 X200.971 Y116.971 E34.3024
G1 X205.795 Y128.726 E34.7250
G1 X209.761 Y140.798 E35.1477
G1 X212.848 Y153.124 E35.5703
G1 X215.041 Y165.641 E35.9930
G1 X215.204 Y167.084 E36.0412
G1 X215.275 Y167.970 E36.0708
G1 X216.325 Y178.286 E36.4157
G1 X216.355 Y178.718 E36.4301
G1 X216.391 Y179.556 E36.4580
G1 X216.685 Y188.544 E36.7571
G1 X216.702 Y189.568 E36.7912
G1 X216.041 Y189.297
;segType:Loop
G0 X215.598 Y188.623 F10800
G1 X215.252 Y178.963 E37.1126 F3600
G1 X215.210 Y177.909 E37.1477
G1 X215.164 Y177.181 E37.1720
G1 X213.977 Y166.365 E37.5339
G1 X213.954 Y166.114 E37.5423
G1 X213.733 Y164.156 E37.6078
G1 X211.317 Y151.203 E38.0461
G1 X207.935 Y138.468 E38.4843
G1 X203.607 Y126.021 E38.9226
G1 X198.358 Y113.935 E39.3609
G1 X192.215 Y102.277 E39.7992
G1 X185.215 Y91.112 E40.2375
G1 X177.397 Y80.504 E40.6757
G1 X168.805 Y70.513 E41.1140
G1 X159.487 Y61.195 E41.5523
G1 X149.496 Y52.603 E41.9906
G1 X138.888 Y44.785 E42.4289
G1 X127.724 Y37.785 E42.8672
G1 X116.065 Y31.642 E43.3055
G1 X103.979 Y26.393 E43.7437
G1 X91.532 Y22.065 E44.1820
G1 X78.797 Y18.683 E44.6203
G1 X65.844 Y16.267 E45.0585
G1 X63.892 Y16.047 E45.1239
G1 X63.532 Y16.014 E45.1359
G1 X52.752 Y14.831 E45.4966
G1 X51.202 Y14.750 E45.5482
G1 X41.435 Y14.400 E45.8733
G1 X41.173 Y14.396 E45.8820
G1 X41.173 Y14.111 E45.8915
G1 X42.299 Y14.152 E45.9290
G1 X51.253 Y14.446 E46.2269
G1 X52.335 Y14.523 E46.2630
G1 X62.984 Y15.607 E46.6190
G1 X64.244 Y15.751 E46.6612
G1 X76.710 Y17.934 E47.0822
G1 X88.980 Y21.008 E47.5029
G1 X100.997 Y24.956 E47.9236
G1 X112.699 Y29.759 E48.3443
G1 X124.025 Y35.390 E48.7650
G1 X134.917 Y41.822 E49.1857
G1 X145.318 Y49.021 E49.6064
G1 X155.174 Y56.949 E50.0271
G1 X164.434 Y65.566 E50.4478
G1 X173.051 Y74.826 E50.8685
G1 X180.979 Y84.682 E51.2893
G1 X188.178 Y95.083 E51.7100
G1 X194.610 Y105.975 E52.1307
G1 X200.241 Y117.301 E52.5514
G1 X205.044 Y129.003 E52.9721
G1 X208.992 Y141.020 E53.3928
G1 X212.066 Y153.290 E53.8135
G1 X214.249 Y165.755 E54.2344
G1 X214.407 Y167.160 E54.2814
G1 X214.478 Y168.043 E54.3109
G1 X215.528 Y178.354 E54.6556
G1 X215.556 Y178.763 E54.6692
G1 X215.592 Y179.587 E54.6967
G1 X215.885 Y188.564 E54.9954
G1 X215.890 Y188.827 E55.0042
G1 X215.604 Y188.827 E55.0137
G1 X215.604 Y188.827
; ------------------------------------
; Layer #15
; ------------------------------------
G21 ; mm
G90 ; abs
G92 E0 ; reset extr
M106 S255
;segType:Loop
G0 F4800 E-1.0000
G0 F300 Z3.200
G0 X215.612 Y189.227 F10800
G0 F4800 E0.0000
G1 X215.210 Y189.227 E0.0134 F3600
G1 X215.201 Y188.660 E0.0323
G1 X214.858 Y179.090 E0.3507
G1 X214.814 Y177.971 E0.3880
G1 X214.765 Y177.212 E0.4133
G1 X213.595 Y166.551 E0.7700
G1 X213.570 Y166.283 E0.7789
G1 X213.337 Y164.215 E0.8482
G1 X210.926 Y151.292 E1.2854
G1 X207.553 Y138.585 E1.7227
G1 X203.234 Y126.167 E2.1600
G1 X197.997 Y114.108 E2.5973
G1 X191.868 Y102.476 E3.0345
G1 X184.884 Y91.337 E3.4718
G1 X177.084 Y80.753 E3.9091
G1 X168.511 Y70.785 E4.3464
G1 X159.215 Y61.489 E4.7837
G1 X149.247 Y52.916 E5.2210
G1 X138.663 Y45.116 E5.6583
G1 X127.524 Y38.132 E6.0955
G1 X115.892 Y32.003 E6.5328
G1 X103.833 Y26.766 E6.9701
G1 X91.415 Y22.447 E7.4074
G1 X78.708 Y19.074 E7.8447
G1 X65.785 Y16.663 E8.2819
G1 X63.724 Y16.430 E8.3509
G1 X63.342 Y16.395 E8.3637
G1 X52.720 Y15.230 E8.7191
G1 X51.084 Y15.145 E8.7736
G1 X41.508 Y14.801 E9.0923
G1 X40.773 Y14.789 E9.1167
G1 X40.773 Y13.704 E9.1528
G1 X41.307 Y13.713 E9.1706
G1 X42.457 Y13.756 E9.2089
G1 X51.245 Y14.044 E9.5013
G1 X52.416 Y14.128 E9.5404
G1 X62.940 Y15.199 E9.8922
G1 X64.301 Y15.355 E9.9378
G1 X76.793 Y17.543 E10.3596
G1 X89.091 Y20.624 E10.7812
G1 X101.135 Y24.581 E11.2029
G1 X112.864 Y29.394 E11.6246
G1 X124.216 Y35.039 E12.0462
G1 X135.133 Y41.485 E12.4679
G1 X145.558 Y48.700 E12.8896
G1 X155.436 Y56.646 E13.3113
G1 X164.717 Y65.283 E13.7329
G1 X173.354 Y74.564 E14.1546
G1 X181.300 Y84.442 E14.5763
G1 X188.515 Y94.867 E14.9979
G1 X194.961 Y105.784 E15.4196
G1 X200.606 Y117.136 E15.8413
G1 X205.419 Y128.865 E16.2629
G1 X209.376 Y140.909 E16.6846
G1 X212.457 Y153.207 E17.1063
G1 X214.645 Y165.698 E17.5281
G1 X214.817 Y167.219 E17.5789
G1 X214.892 Y168.163 E17.6104
G1 X215.926 Y178.319 E17.9500
G1 X215.956 Y178.770 E17.9650
G1 X215.995 Y179.656 E17.9945
G1 X216.284 Y188.468 E18.2878
G1 X216.296 Y189.227 E18.3130
G1 X215.811 Y189.227 E18.3292
;segType:Perimeter
G0 X216.362 Y188.971 F10800
G1 X216.643 Y189.627 E18.3529 F2159
G1 X214.817 Y189.627 E18.4136
G1 X214.801 Y188.670 E18.4455
G1 X214.458 Y179.105 E18.7638
G1 X214.415 Y177.992 E18.8009
G1 X214.366 Y177.246 E18.8257
G1 X213.197 Y166.591 E19.1823
G1 X213.172 Y166.324 E19.1912
G1 X212.941 Y164.274 E19.2598
G1 X210.536 Y151.380 E19.6960
G1 X207.170 Y138.702 E20.1323
G1 X202.861 Y126.312 E20.5686
G1 X197.636 Y114.281 E21.0049
G1 X191.521 Y102.676 E21.4412
G1 X184.553 Y91.562 E21.8774
G1 X176.771 Y81.003 E22.3137
G1 X168.218 Y71.058 E22.7500
G1 X158.942 Y61.782 E23.1863
G1 X148.997 Y53.229 E23.6226
G1 X138.438 Y45.447 E24.0589
G1 X127.324 Y38.479 E24.4952
G1 X115.719 Y32.364 E24.9314
G1 X103.688 Y27.139 E25.3677
G1 X91.298 Y22.830 E25.8040
G1 X78.620 Y19.464 E26.2403
G1 X65.726 Y17.059 E26.6766
G1 X63.683 Y16.828 E26.7449
G1 X63.302 Y16.793 E26.7577
G1 X52.688 Y15.629 E27.1128
G1 X51.065 Y15.544 E27.1668
G1 X41.498 Y15.201 E27.4853
G1 X40.373 Y15.183 E27.5227
G1 X40.373 Y13.297 E27.5854
G1 X41.317 Y13.313 E27.6168
G1 X42.472 Y13.357 E27.6552
G1 X51.266 Y13.645 E27.9479
G1 X52.451 Y13.729 E27.9874
G1 X62.983 Y14.801 E28.3395
G1 X64.359 Y14.959 E28.3856
G1 X76.876 Y17.152 E28.8082
G1 X89.202 Y20.239 E29.2309
G1 X101.274 Y24.205 E29.6535
G1 X113.029 Y29.029 E30.0761
G1 X124.407 Y34.687 E30.4988
G1 X135.348 Y41.148 E30.9214
G1 X145.797 Y48.379 E31.3440
G1 X155.698 Y56.344 E31.7666
G1 X165.001 Y64.999 E32.1893
G1 X173.656 Y74.302 E32.6119
G1 X181.621 Y84.203 E33.0345
G1 X188.852 Y94.652 E33.4572
G1 X195.313 Y105.593 E33.8798
G1 X200.971 Y116.971 E34.3024
G1 X205.795 Y128.726 E34.7250
G1 X209.761 Y140.798 E35.1477
G1 X212.848 Y153.124 E35.5703
G1 X215.041 Y165.641 E35.9929
G1 X215.215 Y167.180 E36.0445
G1 X215.290 Y168.126 E36.0760
G1 X216.325 Y178.286 E36.4157
G1 X216.356 Y178.747 E36.4310
G1 X216.395 Y179.642 E36.4608
G1 X216.684 Y188.459 E36.7543
G1 X216.702 Y189.568 E36.7911
G1 X216.041 Y189.297
;segType:Loop
G0 X215.597 Y188.551 F10800
G1 X215.257 Y179.075 E37.1065 F3600
G1 X215.213 Y177.950 E37.1439
G1 X215.164 Y177.177 E37.1697
G1 X213.993 Y166.510 E37.5266
G1 X213.968 Y166.242 E37.5356
G1 X213.733 Y164.156 E37.6054
G1 X211.317 Y151.203 E38.0436
G1 X207.935 Y138.468 E38.4819
G1 X203.607 Y126.021 E38.9202
G1 X198.358 Y113.935 E39.3585
G1 X192.215 Y102.277 E39.7968
G1 X185.215 Y91.112 E40.2351
G1 X177.397 Y80.504 E40.6733
G1 X168.805 Y70.513 E41.1116
G1 X159.487 Y61.195 E41.5499
G1 X149.496 Y52.603 E41.9882
G1 X138.888 Y44.785 E42.4265
G1 X127.724 Y37.785 E42.8648
G1 X116.065 Y31.642 E43.3030
G1 X103.979 Y26.393 E43.7413
G1 X91.532 Y22.065 E44.1796
G1 X78.797 Y18.683 E44.6179
G1 X65.844 Y16.267 E45.0561
G1 X63.764 Y16.032 E45.1257
G1 X63.381 Y15.997 E45.1385
G1 X52.752 Y14.831 E45.4942
G1 X51.102 Y14.745 E45.5491
G1 X41.518 Y14.401 E45.8681
G1 X41.173 Y14.396 E45.8796
G1 X41.173 Y14.111 E45.8891
G1 X42.443 Y14.156 E45.9313
G1 X51.225 Y14.444 E46.2236
G1 X52.381 Y14.526 E46.2622
G1 X62.898 Y15.597 E46.6138
G1 X64.244 Y15.751 E46.6588
G1 X76.710 Y17.934 E47.0797
G1 X88.980 Y21.008 E47.5004
G1 X100.997 Y24.956 E47.9211
G1 X112.699 Y29.759 E48.3419
G1 X124.025 Y35.390 E48.7626
G1 X134.917 Y41.822 E49.1833
G1 X145.318 Y49.021 E49.6040
G1 X155.174 Y56.949 E50.0247
G1 X164.434 Y65.566 E50.4454
G1 X173.051 Y74.826 E50.8661
G1 X180.979 Y84.682 E51.2868
G1 X188.178 Y95.083 E51.7076
G1 X194.610 Y105.975 E52.1283
G1 X200.241 Y117.301 E52.5490
G1 X205.044 Y129.003 E52.9697
G1 X208.992 Y141.020 E53.3904
G1 X212.066 Y153.290 E53.8111
G1 X214.249 Y165.755 E54.2320
G1 X214.418 Y167.257 E54.2823
G1 X214.494 Y168.199 E54.3137
G1 X215.527 Y178.353 E54.6532
G1 X215.557 Y178.792 E54.6678
G1 X215.596 Y179.671 E54.6971
G1 X215.884 Y188.478 E54.9902
G1 X215.890 Y188.827 E55.0018
G1 X215.604 Y188.827 E55.0113
G1 X215.604 Y188.827
; ------------------------------------
; Layer #16
; ------------------------------------
G21 ; mm
G90 ; abs
G92 E0 ; reset extr
M106 S255
;segType:Loop
G0 F4800 E-1.0000
G0 F300 Z3.400
G0 X215.612 Y189.227 F10800
G0 F4800 E0.0000
G1 X215.210 Y189.227 E0.0134 F3600
G1 X215.200 Y188.588 E0.0347
G1 X214.863 Y179.201 E0.3470
G1 X214.817 Y178.013 E0.3866
G1 X214.765 Y177.208 E0.4134
G1 X213.611 Y166.694 E0.7652
G1 X213.585 Y166.411 E0.7747
G1 X213.337 Y164.215 E0.8482
G1 X210.926 Y151.292 E1.2854
G1 X207.553 Y138.585 E1.7227
G1 X203.234 Y126.167 E2.1600
G1 X197.997 Y114.108 E2.5973
G1 X191.868 Y102.476 E3.0345
G1 X184.884 Y91.337 E3.4718
G1 X177.084 Y80.753 E3.9091
G1 X168.511 Y70.785 E4.3464
G1 X159.215 Y61.489 E4.7837
G1 X149.247 Y52.916 E5.2210
G1 X138.663 Y45.116 E5.6583
G1 X127.524 Y38.132 E6.0956
G1 X115.892 Y32.003 E6.5328
G1 X103.833 Y26.766 E6.9701
G1 X91.415 Y22.447 E7.4074
G1 X78.708 Y19.074 E7.8447
G1 X65.785 Y16.663 E8.2819
G1 X63.597 Y16.416 E8.3552
G1 X63.191 Y16.379 E8.3687
G1 X52.720 Y15.230 E8.7191
G1 X50.982 Y15.139 E8.7770
G1 X41.590 Y14.803 E9.0895
G1 X40.773 Y14.789 E9.1167
G1 X40.773 Y13.704 E9.1528
G1 X41.379 Y13.714 E9.1730
G1 X42.601 Y13.760 E9.2137
G1 X51.217 Y14.043 E9.5004
G1 X52.462 Y14.131 E9.5419
G1 X62.853 Y15.189 E9.8893
G1 X64.302 Y15.355 E9.9378
G1 X76.793 Y17.543 E10.3596
G1 X89.091 Y20.624 E10.7813
G1 X101.135 Y24.581 E11.2029
G1 X112.864 Y29.394 E11.6246
G1 X124.216 Y35.039 E12.0463
G1 X135.133 Y41.485 E12.4679
G1 X145.558 Y48.700 E12.8896
G1 X155.436 Y56.646 E13.3113
G1 X164.717 Y65.283 E13.7329
G1 X173.354 Y74.564 E14.1546
G1 X181.300 Y84.442 E14.5763
G1 X188.515 Y94.867 E14.9980
G1 X194.961 Y105.784 E15.4196
G1 X200.606 Y117.136 E15.8413
G1 X205.419 Y128.865 E16.2630
G1 X209.376 Y140.909 E16.6846
G1 X212.457 Y153.207 E17.1063
G1 X214.645 Y165.698 E17.5281
G1 X214.827 Y167.315 E17.5822
G1 X214.908 Y168.319 E17.6157
G1 X215.926 Y178.320 E17.9500
G1 X215.958 Y178.798 E17.9660
G1 X215.999 Y179.743 E17.9974
G1 X216.282 Y188.382 E18.2849
G1 X216.296 Y189.227 E18.3130
G1 X215.811 Y189.227 E18.3292
;segType:Perimeter
G0 X216.362 Y188.971 F10800
G1 X216.643 Y189.627 E18.3529 F2159
G1 X214.817 Y189.627 E18.4137
G1 X214.800 Y188.598 E18.4479
G1 X214.463 Y179.216 E18.7601
G1 X214.417 Y178.034 E18.7995
G1 X214.366 Y177.243 E18.8259
G1 X213.213 Y166.735 E19.1775
G1 X213.187 Y166.451 E19.1869
G1 X212.941 Y164.274 E19.2598
G1 X210.536 Y151.380 E19.6961
G1 X207.170 Y138.702 E20.1323
G1 X202.861 Y126.312 E20.5686
G1 X197.636 Y114.281 E21.0049
G1 X191.521 Y102.676 E21.4412
G1 X184.553 Y91.562 E21.8775
G1 X176.771 Y81.003 E22.3138
G1 X168.218 Y71.058 E22.7500
G1 X158.942 Y61.782 E23.1863
G1 X148.997 Y53.229 E23.6226
G1 X138.438 Y45.447 E24.0589
G1 X127.324 Y38.479 E24.4952
G1 X115.719 Y32.364 E24.9315
G1 X103.688 Y27.139 E25.3677
G1 X91.298 Y22.830 E25.8040
G1 X78.620 Y19.464 E26.2403
G1 X65.726 Y17.059 E26.6766
G1 X63.556 Y16.814 E26.7492
G1 X63.151 Y16.777 E26.7627
G1 X52.688 Y15.629 E27.1128
G1 X50.964 Y15.539 E27.1702
G1 X41.580 Y15.203 E27.4825
G1 X40.373 Y15.183 E27.5227
G1 X40.373 Y13.297 E27.5854
G1 X41.389 Y13.314 E27.6192
G1 X42.615 Y13.361 E27.6600
G1 X51.238 Y13.643 E27.9470
G1 X52.497 Y13.733 E27.9890
G1 X62.896 Y14.791 E28.3366
G1 X64.359 Y14.959 E28.3856
G1 X76.876 Y17.152 E28.8083
G1 X89.202 Y20.239 E29.2309
G1 X101.274 Y24.205 E29.6535
G1 X113.029 Y29.029 E30.0761
G1 X124.407 Y34.687 E30.4988
G1 X135.348 Y41.148 E30.9214
G1 X145.797 Y48.379 E31.3440
G1 X155.698 Y56.344 E31.7667
G1 X165.001 Y64.999 E32.1893
G1 X173.656 Y74.302 E32.6119
G1 X181.621 Y84.203 E33.0345
G1 X188.852 Y94.652 E33.4572
G1 X195.313 Y105.593 E33.8798
G1 X200.971 Y116.971 E34.3024
G1 X205.795 Y128.726 E34.7250
G1 X209.761 Y140.798 E35.1477
G1 X212.848 Y153.124 E35.5703
G1 X215.041 Y165.641 E35.9930
G1 X215.225 Y167.277 E36.0477
G1 X215.306 Y168.282 E36.0813
G1 X216.324 Y178.286 E36.4157
G1 X216.358 Y178.776 E36.4321
G1 X216.399 Y179.727 E36.4637
G1 X216.682 Y188.373 E36.7514
G1 X216.702 Y189.568 E36.7912
G1 X216.041 Y189.297
;segType:Loop
G0 X215.596 Y188.479 F10800
G1 X215.263 Y179.186 E37.1004 F3600
G1 X215.216 Y177.992 E37.1402
G1 X215.163 Y177.173 E37.1675
G1 X214.009 Y166.654 E37.5194
G1 X213.983 Y166.370 E37.5290
G1 X213.733 Y164.156 E37.6031
G1 X211.317 Y151.203 E38.0413
G1 X207.935 Y138.468 E38.4795
G1 X203.607 Y126.021 E38.9178
G1 X198.358 Y113.935 E39.3561
G1 X192.215 Y102.277 E39.7944
G1 X185.215 Y91.112 E40.2327
G1 X177.397 Y80.504 E40.6710
G1 X168.805 Y70.513 E41.1093
G1 X159.487 Y61.195 E41.5475
G1 X149.496 Y52.603 E41.9858
G1 X138.888 Y44.785 E42.4241
G1 X127.724 Y37.785 E42.8624
G1 X116.065 Y31.642 E43.3007
G1 X103.979 Y26.393 E43.7389
G1 X91.532 Y22.065 E44.1772
G1 X78.797 Y18.683 E44.6155
G1 X65.844 Y16.267 E45.0538
