; GCode generated by CraftWare

G28 X0 Y0
G28 Z0

M190 S60 ;set bed temp (wait)
M109 S215 ;set head temp (wait)

; ------------------------------------
; Raft Layer #0
; ------------------------------------
G21 ; mm
G90 ; abs
G92 E0 ; reset extr
M106 S0
;segType:Raft
G0 F4800 E-1.0000
G0 F300 Z0.300
G0 X0.000 Y0.000 F10800
G0 F4800 E0.0000
G1 X72.695 Y124.602 E7.1970 F600
G1 X72.695 Y79.441 E9.4501
G1 X76.581 Y79.441 E9.6440
G1 X76.581 Y126.873 E12.0104
G1 X80.468 Y126.999 E12.2045
G1 X80.468 Y80.198 E14.5394
G1 X84.355 Y79.441 E14.7369
G1 X84.355 Y126.747 E17.0970
G1 X88.241 Y124.224 E17.3282
G1 X88.241 Y79.441 E19.5624
G1 X92.128 Y81.711 E19.7870
G1 X92.128 Y118.673 E21.6310
G0 F4800 E20.6310
G0 X68.808 Y119.935 F10800
G0 F4800 E21.6310
G1 X68.808 Y81.333 E23.5569 F600
G0 F4800 E22.5569
G0 X165.974 Y76.665 F10800
G0 F4800 E23.5569
G1 X165.974 Y121.322 E25.7848 F600
G1 X169.861 Y123.971 E26.0195
G1 X169.861 Y76.665 E28.3796
G1 X173.748 Y77.675 E28.5799
G1 X173.748 Y124.350 E30.9086
G1 X177.634 Y124.224 E31.1026
G1 X177.634 Y76.665 E33.4753
G1 X181.521 Y76.665 E33.6692
G1 X181.521 Y122.205 E35.9412
G1 X185.408 Y117.790 E36.2346
G1 X185.408 Y78.432 E38.1982



; ------------------------------------
; Raft Layer #1
; ------------------------------------
G21 ; mm
G90 ; abs
G92 E0 ; reset extr
M106 S0
;segType:Raft
G0 F4800 E-1.0000
G0 F300 Z0.600
G0 X184.896 Y77.966 F10800
G0 F4800 E0.0000
G1 X163.412 Y77.966 E1.0719 F3600
G1 X164.706 Y76.703 E1.1621
G1 X170.918 Y76.703 E1.4720
G1 X177.390 Y76.703 E1.7949
G1 X183.602 Y76.703 E2.1048
G1 X186.191 Y79.229 E2.2852
G1 X162.117 Y79.229 E3.4863
G1 X162.117 Y80.492 E3.5493
G1 X186.191 Y80.492 E4.7503
G1 X186.191 Y81.754 E4.8133
G1 X162.117 Y81.754 E6.0143
G1 X162.117 Y83.017 E6.0773
G1 X186.191 Y83.017 E7.2783
G1 X186.191 Y84.280 E7.3413
G1 X162.117 Y84.280 E8.5423
G1 X162.117 Y85.543 E8.6053
G1 X186.191 Y85.543 E9.8063
G1 X186.191 Y86.805 E9.8693
G1 X162.117 Y86.805 E11.0703
G1 X162.117 Y88.068 E11.1333
G1 X186.191 Y88.068 E12.3344
G1 X186.191 Y89.331 E12.3974
G1 X162.117 Y89.331 E13.5984
G1 X162.117 Y90.594 E13.6614
G1 X186.191 Y90.594 E14.8624
G1 X186.191 Y91.856 E14.9254
G1 X162.117 Y91.856 E16.1264
G1 X162.117 Y93.119 E16.1894
G1 X186.191 Y93.119 E17.3904
G1 X186.191 Y94.382 E17.4534
G1 X162.117 Y94.382 E18.6544
G1 X162.117 Y95.645 E18.7174
G1 X186.191 Y95.645 E19.9185
G1 X186.191 Y96.907 E19.9815
G1 X162.117 Y96.907 E21.1825
G1 X162.117 Y98.170 E21.2455
G1 X186.191 Y98.170 E22.4465
G1 X186.191 Y99.433 E22.5095
G1 X162.117 Y99.433 E23.7105
G1 X162.117 Y100.696 E23.7735
G1 X186.191 Y100.696 E24.9745
G1 X186.191 Y101.958 E25.0375
G1 X162.117 Y101.958 E26.2385
G1 X162.117 Y103.221 E26.3015
G1 X186.191 Y103.221 E27.5025
G1 X186.191 Y104.484 E27.5655
G1 X162.117 Y104.484 E28.7666
G1 X162.117 Y105.747 E28.8296
G1 X186.191 Y105.747 E30.0306
G1 X186.191 Y107.009 E30.0936
G1 X162.117 Y107.009 E31.2946
G1 X162.117 Y108.272 E31.3576
G1 X186.191 Y108.272 E32.5586
G1 X186.191 Y109.535 E32.6216
G1 X162.117 Y109.535 E33.8226
G1 X162.117 Y110.798 E33.8856
G1 X186.191 Y110.798 E35.0866
G1 X186.191 Y112.060 E35.1496
G1 X162.117 Y112.060 E36.3507
G1 X162.117 Y113.323 E36.4137
G1 X186.191 Y113.323 E37.6147
G1 X186.191 Y114.586 E37.6777
G1 X162.117 Y114.586 E38.8787
G1 X162.247 Y115.849 E38.9420
G1 X185.932 Y115.849 E40.1237
G1 X185.543 Y117.111 E40.1896
G1 X162.765 Y117.111 E41.3260
G1 X163.412 Y118.374 E41.3968
G1 X184.896 Y118.374 E42.4687
G1 X183.861 Y119.637 E42.5501
G1 X164.318 Y119.637 E43.5252
G1 X165.612 Y120.900 E43.6154
G1 X182.696 Y120.900 E44.4677
G1 X181.402 Y122.162 E44.5579
G1 X166.906 Y122.162 E45.2811
G1 X168.848 Y123.425 E45.3967
G1 X179.460 Y123.425 E45.9261
G0 F4800 E44.9261
G0 X92.098 Y118.374 F10800
G0 F4800 E45.9261
G1 X68.284 Y118.374 E47.1142 F3600
G1 X68.154 Y117.111 E47.1776
G1 X92.228 Y117.111 E48.3786
G1 X92.228 Y115.849 E48.4416
G1 X68.154 Y115.849 E49.6426
G1 X68.154 Y114.586 E49.7056
G1 X92.228 Y114.586 E50.9066
G1 X92.228 Y113.323 E50.9696
G1 X68.154 Y113.323 E52.1706
G1 X68.154 Y112.060 E52.2336
G1 X92.228 Y112.060 E53.4346
G1 X92.228 Y110.798 E53.4976
G1 X68.154 Y110.798 E54.6987
G1 X68.154 Y109.535 E54.7617
G1 X92.228 Y109.535 E55.9627
G1 X92.228 Y108.272 E56.0257
G1 X68.154 Y108.272 E57.2267
G1 X68.154 Y107.009 E57.2897
G1 X92.228 Y107.009 E58.4907
G1 X92.228 Y105.747 E58.5537
G1 X68.154 Y105.747 E59.7547
G1 X68.154 Y104.484 E59.8177
G1 X92.228 Y104.484 E61.0187
G1 X92.228 Y103.221 E61.0817
G1 X68.154 Y103.221 E62.2827
G1 X68.154 Y101.958 E62.3457
G1 X92.228 Y101.958 E63.5468
G1 X92.228 Y100.696 E63.6098
G1 X68.154 Y100.696 E64.8108
G1 X68.154 Y99.433 E64.8738
G1 X92.228 Y99.433 E66.0748
G1 X92.228 Y98.170 E66.1378
G1 X68.154 Y98.170 E67.3388
G1 X68.154 Y96.907 E67.4018
G1 X92.228 Y96.907 E68.6028
G1 X92.228 Y95.645 E68.6658
G1 X68.154 Y95.645 E69.8668
G1 X68.154 Y94.382 E69.9298
G1 X92.228 Y94.382 E71.1309
G1 X92.228 Y93.119 E71.1939
G1 X68.154 Y93.119 E72.3949
G1 X68.154 Y91.856 E72.4579
G1 X92.228 Y91.856 E73.6589
G1 X92.228 Y90.594 E73.7219
G1 X68.154 Y90.594 E74.9229
G1 X68.154 Y89.331 E74.9859
G1 X92.228 Y89.331 E76.1869
G1 X92.228 Y88.068 E76.2499
G1 X68.154 Y88.068 E77.4509
G1 X68.154 Y86.805 E77.5139
G1 X92.228 Y86.805 E78.7149
G1 X92.228 Y85.543 E78.7779
G1 X68.154 Y85.543 E79.9790
G1 X68.154 Y84.280 E80.0420
G1 X92.228 Y84.280 E81.2430
G1 X92.228 Y83.017 E81.3060
G1 X68.154 Y83.017 E82.5070
G1 X68.284 Y81.754 E82.5703
G1 X92.098 Y81.754 E83.7584
G1 X90.804 Y80.492 E83.8486
G1 X69.578 Y80.492 E84.9076
G0 F4800 E83.9076
G0 X68.672 Y119.637 F10800
G0 F4800 E84.9076
G1 X91.710 Y119.637 E86.0570 F3600
G1 X91.063 Y120.900 E86.1277
G1 X69.319 Y120.900 E87.2125
G1 X70.225 Y122.162 E87.2901
G1 X90.157 Y122.162 E88.2845
G1 X88.862 Y123.425 E88.3747
G1 X71.519 Y123.425 E89.2399
G1 X72.814 Y124.688 E89.3301
G1 X87.568 Y124.688 E90.0662
G1 X85.886 Y125.951 E90.1712
G1 X74.496 Y125.951 E90.7394



; ------------------------------------
; Raft Layer #2
; ------------------------------------
G21 ; mm
G90 ; abs
G92 E0 ; reset extr
M106 S0
;segType:Raft
G0 F4800 E-1.0000
G0 F300 Z0.900
G0 X68.808 Y119.935 F10800
G0 F4800 E0.0000
G1 X68.808 Y81.333 E1.9258 F3600
G1 X69.197 Y80.955 E1.9529
G1 X69.197 Y120.692 E3.9354
G1 X69.586 Y121.322 E3.9724
G1 X69.586 Y80.576 E6.0052
G1 X69.974 Y80.198 E6.0323
G1 X69.974 Y121.827 E8.1092
G1 X70.363 Y122.331 E8.1409
G1 X70.363 Y79.819 E10.2619
G1 X70.752 Y79.441 E10.2889
G1 X70.752 Y122.710 E12.4476
G1 X71.140 Y123.088 E12.4747
G1 X71.140 Y79.441 E14.6523
G1 X71.529 Y79.441 E14.6717
G1 X71.529 Y123.467 E16.8682
G1 X71.918 Y123.845 E16.8952
G1 X71.918 Y79.441 E19.1106
G1 X72.306 Y79.441 E19.1300
G1 X72.306 Y124.224 E21.3642
G1 X72.695 Y124.602 E21.3913
G1 X72.695 Y79.441 E23.6444
G1 X73.084 Y79.441 E23.6638
G1 X73.084 Y124.981 E25.9358
G1 X73.472 Y125.359 E25.9628
G1 X73.472 Y79.441 E28.2537
G1 X73.861 Y79.441 E28.2731
G1 X73.861 Y125.611 E30.5766
G1 X74.250 Y125.864 E30.5997
G1 X74.250 Y79.441 E32.9157
G1 X74.638 Y79.441 E32.9351
G1 X74.638 Y126.116 E35.2637
G1 X75.027 Y126.368 E35.2869
G1 X75.027 Y79.441 E37.6281
G1 X75.416 Y79.441 E37.6475
G1 X75.416 Y126.494 E39.9950
G1 X75.804 Y126.621 E40.0154
G1 X75.804 Y79.441 E42.3692
G1 X76.193 Y79.441 E42.3886
G1 X76.193 Y126.747 E44.7487
G1 X76.582 Y126.873 E44.7691
G1 X76.582 Y79.441 E47.1355
G1 X76.970 Y79.441 E47.1549
G1 X76.970 Y126.873 E49.5213
G1 X77.359 Y126.999 E49.5416
G1 X77.359 Y79.693 E51.9017
G1 X77.748 Y80.072 E51.9288
G1 X77.748 Y126.999 E54.2700
G1 X78.136 Y126.999 E54.2894
G1 X78.136 Y80.324 E56.6181
G1 X78.525 Y80.198 E56.6384
G1 X78.525 Y126.999 E58.9734
G1 X78.914 Y126.999 E58.9928
G1 X78.914 Y80.198 E61.3277
G1 X79.302 Y80.198 E61.3471
G1 X79.302 Y126.999 E63.6820
G1 X79.691 Y126.999 E63.7014
G1 X79.691 Y80.198 E66.0363
G1 X80.080 Y80.198 E66.0557
G1 X80.080 Y126.999 E68.3907
G1 X80.468 Y126.999 E68.4101
G1 X80.468 Y80.198 E70.7450
G1 X80.857 Y80.198 E70.7644
G1 X80.857 Y126.999 E73.0993
G1 X81.246 Y126.999 E73.1187
G1 X81.246 Y80.198 E75.4536
G1 X81.634 Y80.198 E75.4730
G1 X81.634 Y126.999 E77.8080
G1 X82.023 Y126.999 E77.8273
G1 X82.023 Y80.198 E80.1623
G1 X82.412 Y80.198 E80.1817
G1 X82.412 Y126.999 E82.5166
G1 X82.800 Y126.999 E82.5360
G1 X82.800 Y80.072 E84.8772
G1 X83.189 Y79.693 E84.9043
G1 X83.189 Y126.999 E87.2644
G1 X83.578 Y126.873 E87.2848
G1 X83.578 Y79.441 E89.6512
G1 X83.966 Y79.441 E89.6706
G1 X83.966 Y126.873 E92.0370
G1 X84.355 Y126.747 E92.0573
G1 X84.355 Y79.441 E94.4175
G1 X84.744 Y79.441 E94.4368
G1 X84.744 Y126.621 E96.7907
G1 X85.132 Y126.494 E96.8110
G1 X85.132 Y79.441 E99.1586
G1 X85.521 Y79.441 E99.1780
G1 X85.521 Y126.368 E101.5192
G1 X85.910 Y126.116 E101.5423
G1 X85.910 Y79.441 E103.8709
G1 X86.298 Y79.441 E103.8903
G1 X86.298 Y125.864 E106.2064
G1 X86.687 Y125.611 E106.2295
G1 X86.687 Y79.441 E108.5330
G1 X87.076 Y79.441 E108.5524
G1 X87.076 Y125.359 E110.8432
G1 X87.464 Y124.981 E110.8703
G1 X87.464 Y79.441 E113.1423
G1 X87.853 Y79.441 E113.1617
G1 X87.853 Y124.602 E115.4148
G1 X88.242 Y124.224 E115.4418
G1 X88.242 Y79.441 E117.6761
G1 X88.630 Y79.441 E117.6955
G1 X88.630 Y123.845 E119.9108
G1 X89.019 Y123.467 E119.9379
G1 X89.019 Y79.441 E122.1344
G1 X89.408 Y79.441 E122.1537
G1 X89.408 Y123.088 E124.3313
G1 X89.796 Y122.710 E124.3584
G1 X89.796 Y79.441 E126.5171
G1 X90.185 Y79.819 E126.5442
G1 X90.185 Y122.331 E128.6651
G1 X90.574 Y121.953 E128.6922
G1 X90.574 Y80.198 E130.7754
G1 X90.962 Y80.576 E130.8024
G1 X90.962 Y121.322 E132.8353
G1 X91.351 Y120.818 E132.8671
G1 X91.351 Y80.955 E134.8558
G1 X91.740 Y81.333 E134.8829
G1 X91.740 Y119.809 E136.8025
G1 X92.128 Y118.673 E136.8623
G1 X92.128 Y81.711 E138.7064
G0 F4800 E137.7064
G0 X68.420 Y81.711 F10800
G0 F4800 E138.7064
G1 X68.420 Y118.673 E140.5504 F3600
G0 F4800 E139.5504
G0 X162.476 Y116.402 F10800
G0 F4800 E140.5504
G1 X162.476 Y78.936 E142.4196 F3600
G0 F4800 E141.4196
G0 X186.185 Y79.188 F10800
G0 F4800 E142.4196
G1 X186.185 Y115.015 E144.2070 F3600
G1 X185.796 Y116.781 E144.2972
G1 X185.796 Y78.810 E146.1916
G1 X185.408 Y78.432 E146.2186
G1 X185.408 Y117.790 E148.1823
G1 X185.019 Y118.421 E148.2192
G1 X185.019 Y78.053 E150.2332
G1 X184.630 Y77.675 E150.2602
G1 X184.630 Y119.052 E152.3245
G1 X184.242 Y119.430 E152.3516
G1 X184.242 Y77.296 E154.4537
G1 X183.853 Y76.918 E154.4807
G1 X183.853 Y119.809 E156.6206
G1 X183.464 Y120.313 E156.6524
G1 X183.464 Y76.665 E158.8300
G1 X183.076 Y76.665 E158.8494
G1 X183.076 Y120.692 E161.0458
G1 X182.687 Y121.070 E161.0729
G1 X182.687 Y76.665 E163.2882
G1 X182.298 Y76.665 E163.3076
G1 X182.298 Y121.448 E165.5419
G1 X181.910 Y121.827 E165.5689
G1 X181.910 Y76.665 E167.8221
G1 X181.521 Y76.665 E167.8415
G1 X181.521 Y122.205 E170.1134
G1 X181.132 Y122.458 E170.1366
G1 X181.132 Y76.665 E172.4211
G1 X180.744 Y76.665 E172.4405
G1 X180.744 Y122.836 E174.7440
G1 X180.355 Y123.088 E174.7671
G1 X180.355 Y76.665 E177.0832
G1 X179.966 Y76.665 E177.1026
G1 X179.966 Y123.341 E179.4312
G1 X179.578 Y123.467 E179.4516
G1 X179.578 Y76.665 E181.7865
G1 X179.189 Y76.665 E181.8059
G1 X179.189 Y123.719 E184.1534
G1 X178.800 Y123.845 E184.1738
G1 X178.800 Y76.665 E186.5276
G1 X178.412 Y76.665 E186.5470
G1 X178.412 Y123.971 E188.9071
G1 X178.023 Y124.098 E188.9275
G1 X178.023 Y76.665 E191.2939
G1 X177.634 Y76.665 E191.3133
G1 X177.634 Y124.224 E193.6860
G1 X177.246 Y124.224 E193.7054
G1 X177.246 Y76.918 E196.0655
G1 X176.857 Y77.296 E196.0926
G1 X176.857 Y124.350 E198.4401
G1 X176.468 Y124.350 E198.4595
G1 X176.468 Y77.675 E200.7881
G1 X176.080 Y77.675 E200.8075
G1 X176.080 Y124.350 E203.1361
G1 X175.691 Y124.350 E203.1555
G1 X175.691 Y77.675 E205.4841
G1 X175.302 Y77.675 E205.5035
G1 X175.302 Y124.350 E207.8322
G1 X174.914 Y124.350 E207.8516
G1 X174.914 Y77.675 E210.1802
G1 X174.525 Y77.675 E210.1996
G1 X174.525 Y124.350 E212.5282
G1 X174.136 Y124.350 E212.5476
G1 X174.136 Y77.675 E214.8762
G1 X173.748 Y77.675 E214.8956
G1 X173.748 Y124.350 E217.2243
G1 X173.359 Y124.350 E217.2436
G1 X173.359 Y77.675 E219.5723
G1 X172.970 Y77.675 E219.5917
G1 X172.970 Y124.350 E221.9203
G1 X172.582 Y124.350 E221.9397
G1 X172.582 Y77.675 E224.2683
G1 X172.193 Y77.675 E224.2877
G1 X172.193 Y124.350 E226.6163
G1 X171.804 Y124.350 E226.6357
G1 X171.804 Y77.549 E228.9707
G1 X171.416 Y77.170 E228.9977
G1 X171.416 Y124.224 E231.3453
G1 X171.027 Y124.224 E231.3647
G1 X171.027 Y76.792 E233.7310
G1 X170.638 Y76.665 E233.7514
G1 X170.638 Y124.098 E236.1178
G1 X170.250 Y124.098 E236.1372
G1 X170.250 Y76.665 E238.5036
G1 X169.861 Y76.665 E238.5230
G1 X169.861 Y123.971 E240.8831
G1 X169.472 Y123.845 E240.9035
G1 X169.472 Y76.665 E243.2573
G1 X169.084 Y76.665 E243.2767
G1 X169.084 Y123.593 E245.6179
G1 X168.695 Y123.467 E245.6383
G1 X168.695 Y76.665 E247.9732
G1 X168.306 Y76.665 E247.9926
G1 X168.306 Y123.215 E250.3150
G1 X167.918 Y122.962 E250.3381
G1 X167.918 Y76.665 E252.6478
G1 X167.529 Y76.665 E252.6672
G1 X167.529 Y122.710 E254.9644
G1 X167.140 Y122.458 E254.9875
G1 X167.140 Y76.665 E257.2721
G1 X166.752 Y76.665 E257.2915
G1 X166.752 Y122.079 E259.5572
G1 X166.363 Y121.701 E259.5842
G1 X166.363 Y76.665 E261.8311
G1 X165.974 Y76.665 E261.8504
G1 X165.974 Y121.322 E264.0784
G1 X165.586 Y120.944 E264.1055
G1 X165.586 Y76.665 E266.3145
G1 X165.197 Y76.665 E266.3339
G1 X165.197 Y120.565 E268.5241
G1 X164.808 Y120.187 E268.5511
G1 X164.808 Y76.665 E270.7224
G1 X164.420 Y77.044 E270.7495
G1 X164.420 Y119.809 E272.8830
G1 X164.031 Y119.304 E272.9148
G1 X164.031 Y77.422 E275.0043
G1 X163.642 Y77.801 E275.0314
G1 X163.642 Y118.925 E277.0831
G1 X163.254 Y118.169 E277.1255
G1 X163.254 Y78.179 E279.1206
G1 X162.865 Y78.558 E279.1477
G1 X162.865 Y117.538 E281.0924



; ------------------------------------
; Raft Layer #3
; ------------------------------------
G21 ; mm
G90 ; abs
G92 E0 ; reset extr
M106 S0
;segType:Raft
G0 F4800 E-1.0000
G0 F300 Z1.200
G0 X170.142 Y123.930 F10800
G0 F4800 E0.0000
G1 X178.166 Y123.930 E0.4003 F3600
G1 X179.202 Y123.552 E0.4553
G1 X169.106 Y123.552 E0.9590
G1 X168.330 Y123.173 E1.0021
G1 X179.978 Y123.173 E1.5832
G1 X180.625 Y122.794 E1.6207
G1 X167.683 Y122.794 E2.2664
G1 X167.294 Y122.415 E2.2934
G1 X181.014 Y122.415 E2.9779
G1 X181.531 Y122.036 E3.0099
G1 X166.777 Y122.036 E3.7460
G1 X166.388 Y121.657 E3.7730
G1 X181.920 Y121.657 E4.5479
G1 X182.308 Y121.279 E4.5750
G1 X166.000 Y121.279 E5.3885
G1 X165.612 Y120.900 E5.4156
G1 X182.696 Y120.900 E6.2679
G1 X183.084 Y120.521 E6.2950
G1 X165.224 Y120.521 E7.1861
G1 X164.835 Y120.142 E7.2131
G1 X183.473 Y120.142 E8.1430
G1 X183.731 Y119.763 E8.1659
G1 X164.447 Y119.763 E9.1280
G1 X164.188 Y119.384 E9.1509
G1 X184.120 Y119.384 E10.1452
G1 X184.508 Y119.006 E10.1723
G1 X163.800 Y119.006 E11.2054
G1 X163.541 Y118.627 E11.2283
G1 X184.767 Y118.627 E12.2873
G1 X185.026 Y118.248 E12.3102
G1 X163.282 Y118.248 E13.3950
G1 X163.023 Y117.869 E13.4179
G1 X185.285 Y117.869 E14.5285
G1 X185.414 Y117.490 E14.5484
G1 X162.894 Y117.490 E15.6720
G1 X162.765 Y117.111 E15.6920
G1 X185.543 Y117.111 E16.8284
G1 X185.673 Y116.733 E16.8484
G1 X162.506 Y116.733 E18.0042
G1 X162.506 Y116.354 E18.0231
G1 X185.802 Y116.354 E19.1854
G1 X185.932 Y115.975 E19.2053
G1 X162.376 Y115.975 E20.3805
G1 X162.247 Y115.596 E20.4005
G1 X186.061 Y115.596 E21.5886
G1 X186.061 Y115.217 E21.6075
G1 X162.247 Y115.217 E22.7956
G1 X162.117 Y114.838 E22.8156
G1 X186.191 Y114.838 E24.0166
G1 X186.191 Y114.460 E24.0355
G1 X162.117 Y114.460 E25.2365
G1 X162.117 Y114.081 E25.2554
G1 X186.191 Y114.081 E26.4564
G1 X186.191 Y113.702 E26.4753
G1 X162.117 Y113.702 E27.6763
G1 X162.117 Y113.323 E27.6952
G1 X186.191 Y113.323 E28.8962
G1 X186.191 Y112.944 E28.9151
G1 X162.117 Y112.944 E30.1162
G1 X162.117 Y112.566 E30.1351
G1 X186.191 Y112.566 E31.3361
G1 X186.191 Y112.187 E31.3550
G1 X162.117 Y112.187 E32.5560
G1 X162.117 Y111.808 E32.5749
G1 X186.191 Y111.808 E33.7759
G1 X186.191 Y111.429 E33.7948
G1 X162.117 Y111.429 E34.9958
G1 X162.117 Y111.050 E35.0147
G1 X186.191 Y111.050 E36.2157
G1 X186.191 Y110.671 E36.2346
G1 X162.117 Y110.671 E37.4356
G1 X162.117 Y110.293 E37.4545
G1 X186.191 Y110.293 E38.6556
G1 X186.191 Y109.914 E38.6745
G1 X162.117 Y109.914 E39.8755
G1 X162.117 Y109.535 E39.8944
G1 X186.191 Y109.535 E41.0954
G1 X186.191 Y109.156 E41.1143
G1 X162.117 Y109.156 E42.3153
G1 X162.117 Y108.777 E42.3342
G1 X186.191 Y108.777 E43.5352
G1 X186.191 Y108.398 E43.5541
G1 X162.117 Y108.398 E44.7551
G1 X162.117 Y108.020 E44.7740
G1 X186.191 Y108.020 E45.9750
G1 X186.191 Y107.641 E45.9939
G1 X162.117 Y107.641 E47.1950
G1 X162.117 Y107.262 E47.2138
G1 X186.191 Y107.262 E48.4149
G1 X186.191 Y106.883 E48.4338
G1 X162.117 Y106.883 E49.6348
G1 X162.117 Y106.504 E49.6537
G1 X186.191 Y106.504 E50.8547
G1 X186.191 Y106.125 E50.8736
G1 X162.117 Y106.125 E52.0746
G1 X162.117 Y105.747 E52.0935
G1 X186.191 Y105.747 E53.2945
G1 X186.191 Y105.368 E53.3134
G1 X162.117 Y105.368 E54.5144
G1 X162.117 Y104.989 E54.5333
G1 X186.191 Y104.989 E55.7343
G1 X186.191 Y104.610 E55.7532
G1 X162.117 Y104.610 E56.9543
G1 X162.117 Y104.231 E56.9732
G1 X186.191 Y104.231 E58.1742
G1 X186.191 Y103.853 E58.1931
G1 X162.117 Y103.853 E59.3941
G1 X162.117 Y103.474 E59.4130
G1 X186.191 Y103.474 E60.6140
G1 X186.191 Y103.095 E60.6329
G1 X162.117 Y103.095 E61.8339
G1 X162.117 Y102.716 E61.8528
G1 X186.191 Y102.716 E63.0538
G1 X186.191 Y102.337 E63.0727
G1 X162.117 Y102.337 E64.2737
G1 X162.117 Y101.958 E64.2926
G1 X186.191 Y101.958 E65.4937
G1 X186.191 Y101.580 E65.5126
G1 X162.117 Y101.580 E66.7136
G1 X162.117 Y101.201 E66.7325
G1 X186.191 Y101.201 E67.9335
G1 X186.191 Y100.822 E67.9524
G1 X162.117 Y100.822 E69.1534
G1 X162.117 Y100.443 E69.1723
G1 X186.191 Y100.443 E70.3733
G1 X186.191 Y100.064 E70.3922
G1 X162.117 Y100.064 E71.5932
G1 X162.117 Y99.685 E71.6121
G1 X186.191 Y99.685 E72.8132
G1 X186.191 Y99.307 E72.8321
G1 X162.117 Y99.307 E74.0331
G1 X162.117 Y98.928 E74.0520
G1 X186.191 Y98.928 E75.2530
G1 X186.191 Y98.549 E75.2719
G1 X162.117 Y98.549 E76.4729
G1 X162.117 Y98.170 E76.4918
G1 X186.191 Y98.170 E77.6928
G1 X186.191 Y97.791 E77.7117
G1 X162.117 Y97.791 E78.9128
G1 X162.117 Y97.412 E78.9317
G1 X186.191 Y97.412 E80.1327
G1 X186.191 Y97.034 E80.1516
G1 X162.117 Y97.034 E81.3526
G1 X162.117 Y96.655 E81.3715
G1 X186.191 Y96.655 E82.5725
G1 X186.191 Y96.276 E82.5914
G1 X162.117 Y96.276 E83.7924
G1 X162.117 Y95.897 E83.8113
G1 X186.191 Y95.897 E85.0123
G1 X186.191 Y95.518 E85.0312
G1 X162.117 Y95.518 E86.2323
G1 X162.117 Y95.140 E86.2512
G1 X186.191 Y95.140 E87.4522
G1 X186.191 Y94.761 E87.4711
G1 X162.117 Y94.761 E88.6721
G1 X162.117 Y94.382 E88.6910
G1 X186.191 Y94.382 E89.8920
G1 X186.191 Y94.003 E89.9109
G1 X162.117 Y94.003 E91.1119
G1 X162.117 Y93.624 E91.1308
G1 X186.191 Y93.624 E92.3318
G1 X186.191 Y93.245 E92.3507
G1 X162.117 Y93.245 E93.5518
G1 X162.117 Y92.867 E93.5707
G1 X186.191 Y92.867 E94.7717
G1 X186.191 Y92.488 E94.7906
G1 X162.117 Y92.488 E95.9916
G1 X162.117 Y92.109 E96.0105
G1 X186.191 Y92.109 E97.2115
G1 X186.191 Y91.730 E97.2304
G1 X162.117 Y91.730 E98.4314
G1 X162.117 Y91.351 E98.4503
G1 X186.191 Y91.351 E99.6513
G1 X186.191 Y90.972 E99.6702
G1 X162.117 Y90.972 E100.8713
G1 X162.117 Y90.594 E100.8902
G1 X186.191 Y90.594 E102.0912
G1 X186.191 Y90.215 E102.1101
G1 X162.117 Y90.215 E103.3111
G1 X162.117 Y89.836 E103.3300
G1 X186.191 Y89.836 E104.5310
G1 X186.191 Y89.457 E104.5499
G1 X162.117 Y89.457 E105.7509
G1 X162.117 Y89.078 E105.7698
G1 X186.191 Y89.078 E106.9709
G1 X186.191 Y88.699 E106.9898
G1 X162.117 Y88.699 E108.1908
G1 X162.117 Y88.321 E108.2097
G1 X186.191 Y88.321 E109.4107
G1 X186.191 Y87.942 E109.4296
G1 X162.117 Y87.942 E110.6306
G1 X162.117 Y87.563 E110.6495
G1 X186.191 Y87.563 E111.8505
G1 X186.191 Y87.184 E111.8694
G1 X162.117 Y87.184 E113.0704
G1 X162.117 Y86.805 E113.0893
G1 X186.191 Y86.805 E114.2904
G1 X186.191 Y86.427 E114.3093
G1 X162.117 Y86.427 E115.5103
G1 X162.117 Y86.048 E115.5292
G1 X186.191 Y86.048 E116.7302
G1 X186.191 Y85.669 E116.7491
G1 X162.117 Y85.669 E117.9501
G1 X162.117 Y85.290 E117.9690
G1 X186.191 Y85.290 E119.1700
G1 X186.191 Y84.911 E119.1889
G1 X162.117 Y84.911 E120.3899
G1 X162.117 Y84.532 E120.4088
G1 X186.191 Y84.532 E121.6099
G1 X186.191 Y84.154 E121.6288
G1 X162.117 Y84.154 E122.8298
G1 X162.117 Y83.775 E122.8487
G1 X186.191 Y83.775 E124.0497
G1 X186.191 Y83.396 E124.0686
G1 X162.117 Y83.396 E125.2696
G1 X162.117 Y83.017 E125.2885
G1 X186.191 Y83.017 E126.4895
G1 X186.191 Y82.638 E126.5084
G1 X162.117 Y82.638 E127.7094
G1 X162.117 Y82.259 E127.7283
G1 X186.191 Y82.259 E128.9294
G1 X186.191 Y81.881 E128.9483
G1 X162.117 Y81.881 E130.1493
G1 X162.117 Y81.502 E130.1682
G1 X186.191 Y81.502 E131.3692
G1 X186.191 Y81.123 E131.3881
G1 X162.117 Y81.123 E132.5891
G1 X162.117 Y80.744 E132.6080
G1 X186.191 Y80.744 E133.8091
G1 X186.191 Y80.365 E133.8280
G1 X162.117 Y80.365 E135.0290
G1 X162.117 Y79.987 E135.0479
G1 X186.191 Y79.987 E136.2489
G1 X186.191 Y79.608 E136.2678
G1 X162.117 Y79.608 E137.4688
G1 X162.117 Y79.229 E137.4877
G1 X186.191 Y79.229 E138.6888
G1 X185.802 Y78.850 E138.7158
G1 X162.506 Y78.850 E139.8781
G1 X162.894 Y78.471 E139.9052
G1 X185.414 Y78.471 E141.0287
G1 X185.026 Y78.092 E141.0558
G1 X163.282 Y78.092 E142.1406
G1 X163.670 Y77.714 E142.1676
G1 X184.637 Y77.714 E143.2137
G1 X184.249 Y77.335 E143.2408
G1 X176.742 Y77.335 E143.6153
G1 X177.131 Y76.956 E143.6423
G1 X183.861 Y76.956 E143.9781
G0 F4800 E142.9781
G0 X164.447 Y76.956 F10800
G0 F4800 E143.9781
G1 X171.177 Y76.956 E144.3139 F3600
G1 X171.565 Y77.335 E144.3409
G1 X164.059 Y77.335 E144.7155
G0 F4800 E143.7155
G0 X89.898 Y79.608 F10800
G0 F4800 E144.7155
G1 X83.168 Y79.608 E145.0512 F3600
G1 X82.779 Y79.987 E145.0783
G1 X90.286 Y79.987 E145.4528
G1 X90.674 Y80.365 E145.4799
G1 X69.707 Y80.365 E146.5259
G1 X69.319 Y80.744 E146.5530
G1 X91.063 Y80.744 E147.6378
G1 X91.451 Y81.123 E147.6649
G1 X68.931 Y81.123 E148.7884
G1 X68.543 Y81.502 E148.8155
G1 X91.839 Y81.502 E149.9777
G1 X92.228 Y81.881 E150.0048
G1 X68.154 Y81.881 E151.2058
G1 X68.154 Y82.259 E151.2247
G1 X92.228 Y82.259 E152.4258
G1 X92.228 Y82.638 E152.4447
G1 X68.154 Y82.638 E153.6457
G1 X68.154 Y83.017 E153.6646
G1 X92.228 Y83.017 E154.8656
G1 X92.228 Y83.396 E154.8845
G1 X68.154 Y83.396 E156.0855
G1 X68.154 Y83.775 E156.1044
G1 X92.228 Y83.775 E157.3055
G1 X92.228 Y84.154 E157.3244
G1 X68.154 Y84.154 E158.5254
G1 X68.154 Y84.532 E158.5443
G1 X92.228 Y84.532 E159.7453
G1 X92.228 Y84.911 E159.7642
G1 X68.154 Y84.911 E160.9652
G1 X68.154 Y85.290 E160.9841
G1 X92.228 Y85.290 E162.1852
G1 X92.228 Y85.669 E162.2041
G1 X68.154 Y85.669 E163.4051
G1 X68.154 Y86.048 E163.4240
G1 X92.228 Y86.048 E164.6250
G1 X92.228 Y86.427 E164.6439
G1 X68.154 Y86.427 E165.8449
G1 X68.154 Y86.805 E165.8638
G1 X92.228 Y86.805 E167.0649
G1 X92.228 Y87.184 E167.0838
G1 X68.154 Y87.184 E168.2848
G1 X68.154 Y87.563 E168.3037
G1 X92.228 Y87.563 E169.5047
G1 X92.228 Y87.942 E169.5236
G1 X68.154 Y87.942 E170.7246
G1 X68.154 Y88.321 E170.7435
G1 X92.228 Y88.321 E171.9446
G1 X92.228 Y88.699 E171.9635
G1 X68.154 Y88.699 E173.1645
G1 X68.154 Y89.078 E173.1834
G1 X92.228 Y89.078 E174.3844
G1 X92.228 Y89.457 E174.4033
G1 X68.154 Y89.457 E175.6043
G1 X68.154 Y89.836 E175.6232
G1 X92.228 Y89.836 E176.8243
G1 X92.228 Y90.215 E176.8432
G1 X68.154 Y90.215 E178.0442
G1 X68.154 Y90.594 E178.0631
G1 X92.228 Y90.594 E179.2641
G1 X92.228 Y90.972 E179.2830
G1 X68.154 Y90.972 E180.4840
G1 X68.154 Y91.351 E180.5029
G1 X92.228 Y91.351 E181.7040
G1 X92.228 Y91.730 E181.7229
G1 X68.154 Y91.730 E182.9239
G1 X68.154 Y92.109 E182.9428
G1 X92.228 Y92.109 E184.1438
G1 X92.228 Y92.488 E184.1627
G1 X68.154 Y92.488 E185.3637
G1 X68.154 Y92.867 E185.3826
G1 X92.228 Y92.867 E186.5837
G1 X92.228 Y93.245 E186.6026
G1 X68.154 Y93.245 E187.8036
G1 X68.154 Y93.624 E187.8225
G1 X92.228 Y93.624 E189.0235
G1 X92.228 Y94.003 E189.0424
G1 X68.154 Y94.003 E190.2434
G1 X68.154 Y94.382 E190.2623
G1 X92.228 Y94.382 E191.4634
G1 X92.228 Y94.761 E191.4823
G1 X68.154 Y94.761 E192.6833
G1 X68.154 Y95.140 E192.7022
G1 X92.228 Y95.140 E193.9032
G1 X92.228 Y95.518 E193.9221
G1 X68.154 Y95.518 E195.1231
G1 X68.154 Y95.897 E195.1420
G1 X92.228 Y95.897 E196.3431
G1 X92.228 Y96.276 E196.3620
G1 X68.154 Y96.276 E197.5630
G1 X68.154 Y96.655 E197.5819
G1 X92.228 Y96.655 E198.7829
G1 X92.228 Y97.034 E198.8018
G1 X68.154 Y97.034 E200.0028
G1 X68.154 Y97.412 E200.0217
G1 X92.228 Y97.412 E201.2228
G1 X92.228 Y97.791 E201.2417
G1 X68.154 Y97.791 E202.4427
G1 X68.154 Y98.170 E202.4616
G1 X92.228 Y98.170 E203.6626
G1 X92.228 Y98.549 E203.6815
G1 X68.154 Y98.549 E204.8825
G1 X68.154 Y98.928 E204.9014
G1 X92.228 Y98.928 E206.1025
G1 X92.228 Y99.307 E206.1214
G1 X68.154 Y99.307 E207.3224
G1 X68.154 Y99.685 E207.3413
G1 X92.228 Y99.685 E208.5423
G1 X92.228 Y100.064 E208.5612
G1 X68.154 Y100.064 E209.7622
G1 X68.154 Y100.443 E209.7811
G1 X92.228 Y100.443 E210.9822
G1 X92.228 Y100.822 E211.0011
G1 X68.154 Y100.822 E212.2021
G1 X68.154 Y101.201 E212.2210
G1 X92.228 Y101.201 E213.4220
G1 X92.228 Y101.580 E213.4409
G1 X68.154 Y101.580 E214.6419
G1 X68.154 Y101.958 E214.6608
G1 X92.228 Y101.958 E215.8619
G1 X92.228 Y102.337 E215.8808
G1 X68.154 Y102.337 E217.0818
G1 X68.154 Y102.716 E217.1007
G1 X92.228 Y102.716 E218.3017
G1 X92.228 Y103.095 E218.3206
G1 X68.154 Y103.095 E219.5216
G1 X68.154 Y103.474 E219.5405
G1 X92.228 Y103.474 E220.7416
G1 X92.228 Y103.853 E220.7605
G1 X68.154 Y103.853 E221.9615
G1 X68.154 Y104.231 E221.9804
G1 X92.228 Y104.231 E223.1814
G1 X92.228 Y104.610 E223.2003
G1 X68.154 Y104.610 E224.4013
G1 X68.154 Y104.989 E224.4202
G1 X92.228 Y104.989 E225.6213
G1 X92.228 Y105.368 E225.6402
G1 X68.154 Y105.368 E226.8412
G1 X68.154 Y105.747 E226.8601
G1 X92.228 Y105.747 E228.0611
G1 X92.228 Y106.125 E228.0800
G1 X68.154 Y106.125 E229.2810
G1 X68.154 Y106.504 E229.2999
G1 X92.228 Y106.504 E230.5010
G1 X92.228 Y106.883 E230.5199
G1 X68.154 Y106.883 E231.7209
G1 X68.154 Y107.262 E231.7398
G1 X92.228 Y107.262 E232.9408
G1 X92.228 Y107.641 E232.9597
G1 X68.154 Y107.641 E234.1607
G1 X68.154 Y108.020 E234.1796
G1 X92.228 Y108.020 E235.3807
G1 X92.228 Y108.398 E235.3996
G1 X68.154 Y108.398 E236.6006
G1 X68.154 Y108.777 E236.6195
G1 X92.228 Y108.777 E237.8205
G1 X92.228 Y109.156 E237.8394
G1 X68.154 Y109.156 E239.0404
G1 X68.154 Y109.535 E239.0593
G1 X92.228 Y109.535 E240.2604
G1 X92.228 Y109.914 E240.2793
G1 X68.154 Y109.914 E241.4803
G1 X68.154 Y110.293 E241.4992
G1 X92.228 Y110.293 E242.7002
G1 X92.228 Y110.671 E242.7191
G1 X68.154 Y110.671 E243.9201
G1 X68.154 Y111.050 E243.9390
G1 X92.228 Y111.050 E245.1401
G1 X92.228 Y111.429 E245.1590
G1 X68.154 Y111.429 E246.3600
G1 X68.154 Y111.808 E246.3789
G1 X92.228 Y111.808 E247.5799
G1 X92.228 Y112.187 E247.5988
G1 X68.154 Y112.187 E248.7998
G1 X68.154 Y112.566 E248.8187
G1 X92.228 Y112.566 E250.0198
G1 X92.228 Y112.944 E250.0387
G1 X68.154 Y112.944 E251.2397
G1 X68.154 Y113.323 E251.2586
G1 X92.228 Y113.323 E252.4596
G1 X92.228 Y113.702 E252.4785
G1 X68.154 Y113.702 E253.6795
G1 X68.154 Y114.081 E253.6984
G1 X92.228 Y114.081 E254.8995
G1 X92.228 Y114.460 E254.9184
G1 X68.154 Y114.460 E256.1194
G1 X68.154 Y114.838 E256.1383
G1 X92.228 Y114.838 E257.3393
G1 X92.228 Y115.217 E257.3582
G1 X68.154 Y115.217 E258.5592
G1 X68.154 Y115.596 E258.5781
G1 X92.228 Y115.596 E259.7791
G1 X92.228 Y115.975 E259.7980
G1 X68.154 Y115.975 E260.9990
G1 X68.154 Y116.354 E261.0179
G1 X92.228 Y116.354 E262.2189
G1 X92.228 Y116.733 E262.2378
G1 X68.154 Y116.733 E263.4388
G1 X68.154 Y117.111 E263.4577
G1 X92.228 Y117.111 E264.6587
G1 X92.228 Y117.490 E264.6776
G1 X68.284 Y117.490 E265.8722
G1 X68.284 Y117.869 E265.8911
G1 X92.098 Y117.869 E267.0792
G1 X92.098 Y118.248 E267.0981
G1 X68.284 Y118.248 E268.2862
G1 X68.413 Y118.627 E268.3061
G1 X91.969 Y118.627 E269.4813
G1 X91.969 Y119.006 E269.5002
G1 X68.543 Y119.006 E270.6690
G1 X68.543 Y119.384 E270.6878
G1 X91.839 Y119.384 E271.8501
G1 X91.580 Y119.763 E271.8730
G1 X68.672 Y119.763 E273.0159
G1 X68.931 Y120.142 E273.0388
G1 X91.580 Y120.142 E274.1688
G1 X91.322 Y120.521 E274.1917
G1 X69.060 Y120.521 E275.3023
G1 X69.319 Y120.900 E275.3252
G1 X91.063 Y120.900 E276.4100
G1 X90.804 Y121.279 E276.4328
G1 X69.578 Y121.279 E277.4918
G1 X69.837 Y121.657 E277.5147
G1 X90.545 Y121.657 E278.5478
G1 X90.286 Y122.036 E278.5707
G1 X70.096 Y122.036 E279.5780
G1 X70.484 Y122.415 E279.6051
G1 X89.898 Y122.415 E280.5737
G1 X89.510 Y122.794 E280.6007
G1 X70.872 Y122.794 E281.5305
G1 X71.261 Y123.173 E281.5576
G1 X89.121 Y123.173 E282.4487
G1 X88.733 Y123.552 E282.4758
G1 X71.649 Y123.552 E283.3281
G1 X72.037 Y123.930 E283.3551
G1 X88.345 Y123.930 E284.1687
G1 X87.956 Y124.309 E284.1958
G1 X72.425 Y124.309 E284.9707
G1 X72.814 Y124.688 E284.9977
G1 X87.568 Y124.688 E285.7338
G1 X87.180 Y125.067 E285.7609
G1 X73.202 Y125.067 E286.4583
G1 X73.720 Y125.446 E286.4903
G1 X86.662 Y125.446 E287.1360
G1 X86.145 Y125.824 E287.1680
G1 X74.237 Y125.824 E287.7621
G1 X74.884 Y126.203 E287.7995
G1 X85.497 Y126.203 E288.3290
G1 X84.462 Y126.582 E288.3840
G1 X75.920 Y126.582 E288.8101
G0 F4800 E287.8101
G0 X77.602 Y79.987 F10800
G0 F4800 E288.8101
G1 X70.096 Y79.987 E289.1846 F3600
G1 X70.484 Y79.608 E289.2117
G1 X77.214 Y79.608 E289.5475



; ------------------------------------
; Raft Layer #4
; ------------------------------------
G21 ; mm
G90 ; abs
G92 E0 ; reset extr
M106 S255
;segType:Raft
G0 F4800 E-1.0000
G0 F300 Z1.500
G0 X68.420 Y81.711 F10800
G0 F4800 E0.0000
G1 X68.420 Y118.673 E1.8440 F3600
G1 X68.808 Y119.935 E1.9099
G1 X68.808 Y81.333 E3.8357
G1 X69.197 Y80.955 E3.8628
G1 X69.197 Y120.692 E5.8453
G1 X69.586 Y121.322 E5.8822
G1 X69.586 Y80.576 E7.9151
G1 X69.974 Y80.198 E7.9421
G1 X69.974 Y121.827 E10.0190
G1 X70.363 Y122.331 E10.0508
G1 X70.363 Y79.819 E12.1718
G1 X70.752 Y79.441 E12.1988
G1 X70.752 Y122.710 E14.3575
G1 X71.140 Y123.088 E14.3846
G1 X71.140 Y79.441 E16.5622
G1 X71.529 Y79.441 E16.5816
G1 X71.529 Y123.467 E18.7780
G1 X71.918 Y123.845 E18.8051
G1 X71.918 Y79.441 E21.0205
G1 X72.306 Y79.441 E21.0399
G1 X72.306 Y124.224 E23.2741
G1 X72.695 Y124.602 E23.3011
G1 X72.695 Y79.441 E25.5543
G1 X73.084 Y79.441 E25.5737
G1 X73.084 Y124.981 E27.8456
G1 X73.472 Y125.359 E27.8727
G1 X73.472 Y79.441 E30.1636
G1 X73.861 Y79.441 E30.1830
G1 X73.861 Y125.611 E32.4864
G1 X74.250 Y125.864 E32.5096
G1 X74.250 Y79.441 E34.8256
G1 X74.638 Y79.441 E34.8450
G1 X74.638 Y126.116 E37.1736
G1 X75.027 Y126.368 E37.1967
G1 X75.027 Y79.441 E39.5380
G1 X75.416 Y79.441 E39.5574
G1 X75.416 Y126.494 E41.9049
G1 X75.804 Y126.621 E41.9253
G1 X75.804 Y79.441 E44.2791
G1 X76.193 Y79.441 E44.2985
G1 X76.193 Y126.747 E46.6586
G1 X76.582 Y126.873 E46.6789
G1 X76.582 Y79.441 E49.0453
G1 X76.970 Y79.441 E49.0647
G1 X76.970 Y126.873 E51.4311
G1 X77.359 Y126.999 E51.4515
G1 X77.359 Y79.693 E53.8116
G1 X77.748 Y80.072 E53.8387
G1 X77.748 Y126.999 E56.1799
G1 X78.136 Y126.999 E56.1993
G1 X78.136 Y80.324 E58.5279
G1 X78.525 Y80.198 E58.5483
G1 X78.525 Y126.999 E60.8833
G1 X78.914 Y126.999 E60.9026
G1 X78.914 Y80.198 E63.2376
G1 X79.302 Y80.198 E63.2570
G1 X79.302 Y126.999 E65.5919
G1 X79.691 Y126.999 E65.6113
G1 X79.691 Y80.198 E67.9462
G1 X80.080 Y80.198 E67.9656
G1 X80.080 Y126.999 E70.3005
G1 X80.468 Y126.999 E70.3199
G1 X80.468 Y80.198 E72.6549
G1 X80.857 Y80.198 E72.6743
G1 X80.857 Y126.999 E75.0092
G1 X81.246 Y126.999 E75.0286
G1 X81.246 Y80.198 E77.3635
G1 X81.634 Y80.198 E77.3829
G1 X81.634 Y126.999 E79.7178
G1 X82.023 Y126.999 E79.7372
G1 X82.023 Y80.198 E82.0722
G1 X82.412 Y80.198 E82.0916
G1 X82.412 Y126.999 E84.4265
G1 X82.800 Y126.999 E84.4459
G1 X82.800 Y80.072 E86.7871
G1 X83.189 Y79.693 E86.8142
G1 X83.189 Y126.999 E89.1743
G1 X83.578 Y126.873 E89.1947
G1 X83.578 Y79.441 E91.5611
G1 X83.966 Y79.441 E91.5804
G1 X83.966 Y126.873 E93.9468
G1 X84.355 Y126.747 E93.9672
G1 X84.355 Y79.441 E96.3273
G1 X84.744 Y79.441 E96.3467
G1 X84.744 Y126.621 E98.7005
G1 X85.132 Y126.494 E98.7209
G1 X85.132 Y79.441 E101.0684
G1 X85.521 Y79.441 E101.0878
G1 X85.521 Y126.368 E103.4291
G1 X85.910 Y126.116 E103.4522
G1 X85.910 Y79.441 E105.7808
G1 X86.298 Y79.441 E105.8002
G1 X86.298 Y125.864 E108.1163
G1 X86.687 Y125.611 E108.1394
G1 X86.687 Y79.441 E110.4428
G1 X87.076 Y79.441 E110.4622
G1 X87.076 Y125.359 E112.7531
G1 X87.464 Y124.981 E112.7802
G1 X87.464 Y79.441 E115.0522
G1 X87.853 Y79.441 E115.0716
G1 X87.853 Y124.602 E117.3247
G1 X88.242 Y124.224 E117.3517
G1 X88.242 Y79.441 E119.5860
G1 X88.630 Y79.441 E119.6054
G1 X88.630 Y123.845 E121.8207
G1 X89.019 Y123.467 E121.8478
G1 X89.019 Y79.441 E124.0442
G1 X89.408 Y79.441 E124.0636
G1 X89.408 Y123.088 E126.2412
G1 X89.796 Y122.710 E126.2683
G1 X89.796 Y79.441 E128.4270
G1 X90.185 Y79.819 E128.4541
G1 X90.185 Y122.331 E130.5750
G1 X90.574 Y121.953 E130.6021
G1 X90.574 Y80.198 E132.6853
G1 X90.962 Y80.576 E132.7123
G1 X90.962 Y121.322 E134.7452
G1 X91.351 Y120.818 E134.7770
G1 X91.351 Y80.955 E136.7657
G1 X91.740 Y81.333 E136.7928
G1 X91.740 Y119.809 E138.7124
G1 X92.128 Y118.673 E138.7722
G1 X92.128 Y81.711 E140.6163
G0 F4800 E139.6163
G0 X162.476 Y78.936 F10800
G0 F4800 E140.6163
G1 X162.476 Y116.402 E142.4855 F3600
G1 X162.865 Y117.538 E142.5453
G1 X162.865 Y78.558 E144.4901
G1 X163.254 Y78.179 E144.5171
G1 X163.254 Y118.169 E146.5122
G1 X163.642 Y118.925 E146.5547
G1 X163.642 Y77.801 E148.6064
G1 X164.031 Y77.422 E148.6334
G1 X164.031 Y119.304 E150.7229
G1 X164.420 Y119.809 E150.7547
G1 X164.420 Y77.044 E152.8882
G1 X164.808 Y76.665 E152.9153
G1 X164.808 Y120.187 E155.0866
G1 X165.197 Y120.565 E155.1137
G1 X165.197 Y76.665 E157.3038
G1 X165.586 Y76.665 E157.3232
G1 X165.586 Y120.944 E159.5323
G1 X165.974 Y121.322 E159.5594
G1 X165.974 Y76.665 E161.7873
G1 X166.363 Y76.665 E161.8067
G1 X166.363 Y121.701 E164.0535
G1 X166.752 Y122.079 E164.0806
G1 X166.752 Y76.665 E166.3463
G1 X167.140 Y76.665 E166.3657
G1 X167.140 Y122.458 E168.6503
G1 X167.529 Y122.710 E168.6734
G1 X167.529 Y76.665 E170.9705
G1 X167.918 Y76.665 E170.9899
G1 X167.918 Y122.962 E173.2997
G1 X168.306 Y123.215 E173.3228
G1 X168.306 Y76.665 E175.6451
G1 X168.695 Y76.665 E175.6645
G1 X168.695 Y123.467 E177.9995
G1 X169.084 Y123.593 E178.0199
G1 X169.084 Y76.665 E180.3611
G1 X169.472 Y76.665 E180.3805
G1 X169.472 Y123.845 E182.7343
G1 X169.861 Y123.971 E182.7547
G1 X169.861 Y76.665 E185.1148
G1 X170.250 Y76.665 E185.1342
G1 X170.250 Y124.098 E187.5006
G1 X170.638 Y124.098 E187.5199
G1 X170.638 Y76.665 E189.8863
G1 X171.027 Y76.792 E189.9067
G1 X171.027 Y124.224 E192.2731
G1 X171.416 Y124.224 E192.2925
G1 X171.416 Y77.170 E194.6400
G1 X171.804 Y77.549 E194.6671
G1 X171.804 Y124.350 E197.0020
G1 X172.193 Y124.350 E197.0214
G1 X172.193 Y77.675 E199.3501
G1 X172.582 Y77.675 E199.3695
G1 X172.582 Y124.350 E201.6981
G1 X172.970 Y124.350 E201.7175
G1 X172.970 Y77.675 E204.0461
G1 X173.359 Y77.675 E204.0655
G1 X173.359 Y124.350 E206.3941
G1 X173.748 Y124.350 E206.4135
G1 X173.748 Y77.675 E208.7421
G1 X174.136 Y77.675 E208.7615
G1 X174.136 Y124.350 E211.0902
G1 X174.525 Y124.350 E211.1096
G1 X174.525 Y77.675 E213.4382
G1 X174.914 Y77.675 E213.4576
G1 X174.914 Y124.350 E215.7862
G1 X175.302 Y124.350 E215.8056
G1 X175.302 Y77.675 E218.1342
G1 X175.691 Y77.675 E218.1536
G1 X175.691 Y124.350 E220.4823
G1 X176.080 Y124.350 E220.5017
G1 X176.080 Y77.675 E222.8303
G1 X176.468 Y77.675 E222.8497
G1 X176.468 Y124.350 E225.1783
G1 X176.857 Y124.350 E225.1977
G1 X176.857 Y77.296 E227.5452
G1 X177.246 Y76.918 E227.5723
G1 X177.246 Y124.224 E229.9324
G1 X177.634 Y124.224 E229.9518
G1 X177.634 Y76.665 E232.3245
G1 X178.023 Y76.665 E232.3439
G1 X178.023 Y124.098 E234.7103
G1 X178.412 Y123.971 E234.7307
G1 X178.412 Y76.665 E237.0908
G1 X178.800 Y76.665 E237.1102
G1 X178.800 Y123.845 E239.4640
G1 X179.189 Y123.719 E239.4844
G1 X179.189 Y76.665 E241.8319
G1 X179.578 Y76.665 E241.8513
G1 X179.578 Y123.467 E244.1862
G1 X179.966 Y123.341 E244.2066
G1 X179.966 Y76.665 E246.5352
G1 X180.355 Y76.665 E246.5546
G1 X180.355 Y123.088 E248.8707
G1 X180.744 Y122.836 E248.8938
G1 X180.744 Y76.665 E251.1972
G1 X181.132 Y76.665 E251.2166
G1 X181.132 Y122.458 E253.5012
G1 X181.521 Y122.205 E253.5243
G1 X181.521 Y76.665 E255.7963
G1 X181.910 Y76.665 E255.8157
G1 X181.910 Y121.827 E258.0688
G1 X182.298 Y121.448 E258.0959
G1 X182.298 Y76.665 E260.3301
G1 X182.687 Y76.665 E260.3495
G1 X182.687 Y121.070 E262.5649
G1 X183.076 Y120.692 E262.5919
G1 X183.076 Y76.665 E264.7884
G1 X183.464 Y76.665 E264.8078
G1 X183.464 Y120.313 E266.9854
G1 X183.853 Y119.809 E267.0171
G1 X183.853 Y76.918 E269.1570
G1 X184.242 Y77.296 E269.1840
G1 X184.242 Y119.430 E271.2861
G1 X184.630 Y119.052 E271.3132
G1 X184.630 Y77.675 E273.3775
G1 X185.019 Y78.053 E273.4045
G1 X185.019 Y118.421 E275.4185
G1 X185.408 Y117.790 E275.4554
G1 X185.408 Y78.432 E277.4190
G1 X185.796 Y78.810 E277.4461
G1 X185.796 Y116.781 E279.3405
G1 X186.185 Y115.015 E279.4307
G1 X186.185 Y79.188 E281.2181


; ------------------------------------
; Layer #0
; ------------------------------------
G21 ; mm
G90 ; abs
G92 E0 ; reset extr
M106 S255
G0 F4800 E-1.0000
G0 F300 Z1.850
G0 X179.467 Y80.802 F10800
G0 X178.621 Y82.173
G0 F4800 E0.0000
;segType:Support
G1 X177.921 Y82.173 E0.0099 F900
G1 X178.621 Y82.873 E0.0239
G1 X177.921 Y82.873 E0.0338
G1 X177.328 Y83.413 E0.0451
G1 X176.628 Y83.413 E0.0550
G1 X177.328 Y84.113 E0.0690
G1 X176.628 Y84.113 E0.0789
G0 F4800 E-0.9211
G0 X177.657 Y87.193 F10800
G0 F4800 E0.0789
G1 X178.357 Y87.193 E0.0888 F900
G1 X178.357 Y87.893 E0.0987
G1 X177.657 Y87.893 E0.1086
G0 F4800 E-0.8914
G0 X177.621 Y90.799 F10800
G0 F4800 E0.1086
G1 X178.321 Y90.799 E0.1185 F900
G1 X178.321 Y91.499 E0.1284
G1 X177.621 Y91.499 E0.1383
G0 F4800 E-0.8617
G0 X177.697 Y93.433 F10800
G0 F4800 E0.1383
G1 X178.397 Y93.433 E0.1482 F900
G1 X178.397 Y94.133 E0.1581
G1 X177.697 Y94.133 E0.1680
G0 F4800 E-0.8320
G0 X177.717 Y96.717 F10800
G0 F4800 E0.1680
G1 X178.417 Y96.717 E0.1779 F900
G1 X178.417 Y97.417 E0.1878
G1 X177.717 Y97.417 E0.1976
G0 F4800 E-0.8024
G0 X178.267 Y99.564 F10800
G0 F4800 E0.1976
G1 X177.567 Y99.564 E0.2075 F900
G1 X177.567 Y100.264 E0.2174
G1 X178.267 Y100.264 E0.2273
G0 F4800 E-0.7727
G0 X178.378 Y102.191 F10800
G0 F4800 E0.2273
G1 X177.678 Y102.191 E0.2372 F900
G1 X177.678 Y102.891 E0.2471
G1 X178.378 Y102.891 E0.2570
G0 F4800 E-0.7430
G0 X178.511 Y104.975 F10800
G0 F4800 E0.2570
G1 X177.811 Y104.975 E0.2669 F900
G1 X177.811 Y105.675 E0.2768
G1 X178.511 Y105.675 E0.2867
G0 F4800 E-0.7133
G0 X177.671 Y107.464 F10800
G0 F4800 E0.2867
G1 X178.371 Y107.464 E0.2966 F900
G1 X178.371 Y108.164 E0.3065
G1 X177.671 Y108.164 E0.3164
G1 X176.941 Y108.871 E0.3308
G1 X176.241 Y108.871 E0.3406
G1 X176.241 Y109.571 E0.3505
G1 X176.941 Y109.571 E0.3604
G0 F4800 E-0.6396
G0 X178.319 Y111.180 F10800
G0 F4800 E0.3604
G1 X177.619 Y111.180 E0.3703 F900
G1 X178.319 Y110.480 E0.3843
G1 X177.619 Y110.480 E0.3942
G0 F4800 E-0.6058
G0 X176.085 Y110.612 F10800
G0 F4800 E0.3942
G1 X175.385 Y110.612 E0.4041 F900
G1 X176.085 Y111.312 E0.4181
G1 X175.385 Y111.312 E0.4280
G0 F4800 E-0.5720
G0 X172.772 Y111.293 F10800
G0 F4800 E0.4280
G1 X173.472 Y111.293 E0.4379 F900
G1 X173.472 Y110.593 E0.4478
G1 X172.772 Y110.593 E0.4577
G0 F4800 E-0.5423
G0 X171.217 Y111.298 F10800
G0 F4800 E0.4577
G1 X170.517 Y111.298 E0.4676 F900
G1 X170.517 Y110.598 E0.4775
G1 X171.217 Y110.598 E0.4874
G0 F4800 E-0.5126
G0 X171.901 Y109.538 F10800
G0 F4800 E0.4874
G1 X172.601 Y109.538 E0.4973 F900
G1 X172.601 Y108.838 E0.5072
G1 X170.176 Y108.778 E0.5415
G1 X170.176 Y108.078 E0.5513
G1 X170.876 Y108.078 E0.5612
G0 F4800 E-0.4388
G0 X170.081 Y104.993 F10800
G0 F4800 E0.5612
G1 X170.781 Y104.993 E0.5711 F900
G1 X170.781 Y105.693 E0.5810
G1 X170.081 Y105.693 E0.5909
G0 F4800 E-0.4091
G0 X170.952 Y102.932 F10800
G0 F4800 E0.5909
G1 X170.252 Y102.932 E0.6008 F900
G1 X170.252 Y102.232 E0.6107
G1 X170.952 Y102.232 E0.6206
G0 F4800 E-0.3794
G0 X171.031 Y100.240 F10800
G0 F4800 E0.6206
G1 X170.331 Y100.240 E0.6305 F900
G1 X170.331 Y99.540 E0.6404
G1 X171.031 Y99.540 E0.6503
G0 F4800 E-0.3497
G0 X169.293 Y81.060 F10800
G0 X169.091 Y80.803
G0 X166.661 Y80.865
G0 X85.519 Y83.519
G0 X84.508 Y110.578
G0 F4800 E0.6503
G1 X83.808 Y110.578 E0.6602 F900
G1 X83.491 Y111.238 E0.6705
G1 X82.791 Y111.238 E0.6804
G0 F4800 E-0.3196
G0 X82.072 Y113.340 F10800
G0 F4800 E0.6804
G1 X81.372 Y113.340 E0.6903 F900
G0 F4800 E-0.3097
G0 X79.395 Y113.518 F10800
G0 F4800 E0.6903
G1 X78.695 Y113.518 E0.7002 F900
G0 F4800 E-0.2998
G0 X76.796 Y111.067 F10800
G0 F4800 E0.7002
G1 X76.096 Y111.067 E0.7101 F900
G0 F4800 E-0.2899
G0 X76.108 Y107.736 F10800
G0 F4800 E0.7101
G1 X76.808 Y107.736 E0.7200 F900
G0 F4800 E-0.2800
G0 X76.950 Y104.164 F10800
G0 F4800 E0.7200
G1 X76.250 Y104.164 E0.7299 F900
G1 X76.250 Y103.464 E0.7398
G1 X76.950 Y103.464 E0.7497
G0 F4800 E-0.2503
G0 X76.808 Y107.036 F10800
G0 F4800 E0.7497
G1 X76.108 Y107.036 E0.7596 F900
G0 F4800 E-0.2404
G0 X76.096 Y110.367 F10800
G0 F4800 E0.7596
G1 X76.796 Y110.367 E0.7695 F900
G0 F4800 E-0.2305
G0 X77.463 Y111.396 F10800
G0 F4800 E0.7695
G1 X78.163 Y111.396 E0.7794 F900
G1 X78.163 Y112.096 E0.7893
G1 X77.463 Y112.096 E0.7992
G0 F4800 E-0.2008
G0 X77.080 Y113.454 F10800
G0 F4800 E0.7992
G1 X76.380 Y113.454 E0.8091 F900
G1 X76.380 Y114.154 E0.8190
G1 X77.080 Y114.154 E0.8289
G0 F4800 E-0.1711
G0 X78.695 Y114.218 F10800
G0 F4800 E0.8289
G1 X79.395 Y114.218 E0.8388 F900
G0 F4800 E-0.1612
G0 X81.372 Y114.040 F10800
G0 F4800 E0.8388
G1 X82.072 Y114.040 E0.8486 F900
G0 F4800 E-0.1514
G0 X83.475 Y114.035 F10800
G0 F4800 E0.8486
G1 X84.175 Y114.035 E0.8585 F900
G1 X84.175 Y113.335 E0.8684
G1 X83.475 Y113.335 E0.8783
G0 F4800 E-0.1217
G0 X82.791 Y111.938 F10800
G0 F4800 E0.8783
G1 X83.491 Y111.938 E0.8882 F900
G0 F4800 E-0.1118
G0 X83.808 Y109.878 F10800
G0 F4800 E0.8882
G1 X84.508 Y109.878 E0.8981 F900
G0 F4800 E-0.1019
G0 X83.655 Y107.975 F10800
G0 F4800 E0.8981
G1 X84.355 Y107.975 E0.9080 F900
G1 X84.355 Y107.275 E0.9179
G1 X83.655 Y107.275 E0.9278
G0 F4800 E-0.0722
G0 X83.431 Y104.239 F10800
G0 F4800 E0.9278
G1 X84.131 Y104.239 E0.9377 F900
G1 X84.131 Y103.539 E0.9476
G1 X83.431 Y103.539 E0.9575
G0 F4800 E-0.0425
G0 X83.637 Y100.997 F10800
G0 F4800 E0.9575
G1 X84.337 Y100.997 E0.9674 F900
G1 X84.337 Y100.297 E0.9773
G1 X83.637 Y100.297 E0.9872
G0 F4800 E-0.0128
G0 X76.971 Y100.638 F10800
G0 F4800 E0.9872
G1 X76.271 Y100.638 E0.9971 F900
G1 X76.271 Y99.938 E1.0070
G1 X76.971 Y99.938 E1.0169
G0 F4800 E0.0169
G0 X76.168 Y97.038 F10800
G0 F4800 E1.0169
G1 X76.868 Y97.038 E1.0268 F900
G1 X76.868 Y96.338 E1.0367
G1 X76.168 Y96.338 E1.0465
G0 F4800 E0.0465
G0 X76.228 Y94.548 F10800
G0 F4800 E1.0465
G1 X76.928 Y94.548 E1.0564 F900
G1 X76.928 Y93.848 E1.0663
G1 X76.228 Y93.848 E1.0762
G0 F4800 E0.0762
G0 X76.436 Y90.837 F10800
G0 F4800 E1.0762
G1 X77.136 Y90.837 E1.0861 F900
G0 F4800 E0.0861
G0 X79.029 Y85.741 F10800
G0 F4800 E1.0861
G1 X78.329 Y85.741 E1.0960 F900
G0 F4800 E0.0960
G0 X76.435 Y86.902 F10800
G0 F4800 E1.0960
G1 X77.135 Y86.902 E1.1059 F900
G1 X77.135 Y87.602 E1.1158
G1 X76.435 Y87.602 E1.1257
G0 F4800 E0.1257
G0 X77.136 Y90.137 F10800
G0 F4800 E1.1257
G1 X76.436 Y90.137 E1.1356 F900
G0 F4800 E0.1356
G0 X79.029 Y85.041 F10800
G0 F4800 E1.1356
G1 X78.329 Y85.041 E1.1455 F900
G0 F4800 E0.1455
G0 X77.333 Y83.959 F10800
G0 F4800 E1.1455
G1 X76.633 Y83.959 E1.1554 F900
G1 X77.333 Y84.659 E1.1694
G1 X76.633 Y84.659 E1.1793
;segType:HShell
G0 F4800 E0.1793
G0 X73.396 Y84.514 F10800
G0 F4800 E1.1793
G1 X73.646 Y84.271 E1.1851 F600
G1 X74.195 Y84.272
G1 X73.396 Y85.050 E1.2036
G1 X73.396 Y85.586
G1 X74.559 Y84.452 E1.2306
;segType:Loop
G0 X74.759 Y84.697 F10800
G1 X74.759 Y114.571 E1.7274 F600
G1 X74.815 Y114.925 E1.7334
G1 X75.000 Y115.288 E1.7402
G1 X75.291 Y115.579 E1.7470
G1 X75.660 Y115.767 E1.7539
G1 X76.025 Y115.824 E1.7600
G1 X84.631 Y115.824 E1.9032
G1 X84.995 Y115.767 E1.9093
G1 X85.364 Y115.578 E1.9162
G1 X85.655 Y115.288 E1.9230
G1 X85.839 Y114.925 E1.9298
G1 X85.896 Y114.571 E1.9358
G1 X85.896 Y84.079 E2.4428
G1 X87.459 Y84.085 E2.4688
G1 X87.459 Y115.019 E2.9833
G1 X87.422 Y115.736 E2.9952
G1 X87.309 Y116.478 E3.0077
G1 X87.119 Y117.203 E3.0202
G1 X86.856 Y117.903 E3.0326
G1 X86.520 Y118.572 E3.0451
G1 X86.116 Y119.202 E3.0575
G1 X85.650 Y119.786 E3.0699
G1 X85.125 Y120.318 E3.0824
G1 X84.548 Y120.791 E3.0948
G1 X83.925 Y121.202 E3.1072
G1 X83.262 Y121.544 E3.1196
G1 X82.568 Y121.816 E3.1320
G1 X81.850 Y122.013 E3.1444
G1 X81.115 Y122.134 E3.1567
G1 X80.372 Y122.178 E3.1691
G1 X79.628 Y122.143 E3.1815
G1 X78.892 Y122.031 E3.1939
G1 X78.171 Y121.843 E3.2063
G1 X77.474 Y121.580 E3.2187
G1 X76.808 Y121.246 E3.2311
G1 X76.179 Y120.844 E3.2435
G1 X75.597 Y120.378 E3.2559
G1 X75.065 Y119.853 E3.2683
G1 X74.591 Y119.275 E3.2807
G1 X74.180 Y118.650 E3.2932
G1 X73.836 Y117.986 E3.3056
G1 X73.563 Y117.288 E3.3181
G1 X73.365 Y116.566 E3.3305
G1 X73.243 Y115.827 E3.3430
G1 X73.198 Y115.065 E3.3557
G1 X73.196 Y113.175 E3.3871
G1 X73.196 Y84.075 E3.8710
G1 X74.759 Y84.078 E3.8970
G1 X74.759 Y84.508 E3.9042
;segType:Perimeter
G0 X74.489 Y84.088 F10800
G1 X75.087 Y83.735 E3.9157 F359
G1 X75.159 Y83.834 E3.9178
G1 X75.159 Y114.541 E4.4284
G1 X75.201 Y114.806 E4.4329
G1 X75.330 Y115.060 E4.4376
G1 X75.533 Y115.262 E4.4424
G1 X75.788 Y115.392 E4.4472
G1 X76.057 Y115.435 E4.4517
G1 X84.598 Y115.435 E4.5937
G1 X84.867 Y115.392 E4.5983
G1 X85.122 Y115.262 E4.6030
G1 X85.324 Y115.060 E4.6078
G1 X85.454 Y114.806 E4.6125
G1 X85.496 Y114.541 E4.6170
G1 X85.496 Y83.831 E5.1277
G1 X85.605 Y83.688 E5.1307
G1 X87.777 Y83.696 E5.1668
G1 X87.859 Y83.807 E5.1691
G1 X87.859 Y115.029 E5.6883
G1 X87.820 Y115.774 E5.7007
G1 X87.701 Y116.555 E5.7139
G1 X87.502 Y117.318 E5.7270
G1 X87.224 Y118.057 E5.7401
G1 X86.870 Y118.762 E5.7532
G1 X86.445 Y119.426 E5.7663
G1 X85.952 Y120.042 E5.7795
G1 X85.399 Y120.603 E5.7926
G1 X84.789 Y121.103 E5.8057
G1 X84.131 Y121.536 E5.8188
G1 X83.431 Y121.898 E5.8319
G1 X82.698 Y122.185 E5.8450
G1 X81.938 Y122.394 E5.8581
G1 X81.161 Y122.522 E5.8712
G1 X80.375 Y122.568 E5.8843
G1 X79.588 Y122.532 E5.8974
G1 X78.809 Y122.413 E5.9105
G1 X78.047 Y122.214 E5.9236
G1 X77.310 Y121.937 E5.9367
G1 X76.606 Y121.583 E5.9498
G1 X75.942 Y121.158 E5.9629
G1 X75.327 Y120.666 E5.9760
G1 X74.766 Y120.112 E5.9891
G1 X74.266 Y119.502 E6.0022
G1 X73.832 Y118.844 E6.0153
G1 X73.469 Y118.143 E6.0284
G1 X73.182 Y117.408 E6.0416
G1 X72.973 Y116.648 E6.0547
G1 X72.845 Y115.869 E6.0678
G1 X72.798 Y115.077 E6.0810
G1 X72.796 Y113.175 E6.1126
G1 X72.796 Y83.829 E6.6006
G1 X72.847 Y83.719 E6.6027
G1 X72.933 Y83.685 E6.6042
G1 X74.995 Y83.688 E6.6385
G1 X75.043 Y84.368
G0 X74.559 Y84.988 F10800
;segType:HShell
G1 X73.396 Y86.121 E6.6655 F600
G1 X73.396 Y86.657
G1 X74.559 Y85.523 E6.6925
G1 X74.559 Y86.059
G1 X73.396 Y87.193 E6.7195
G1 X73.396 Y87.729
G1 X74.559 Y86.595 E6.7466
G1 X74.559 Y87.131
G1 X73.396 Y88.264 E6.7736
G1 X73.396 Y88.800
G1 X74.559 Y87.666 E6.8006
G1 X74.559 Y88.202
G1 X73.396 Y89.336 E6.8276
G1 X73.396 Y89.872
G1 X74.559 Y88.738 E6.8546
G1 X74.559 Y89.274
G1 X73.396 Y90.407 E6.8816
G1 X73.396 Y90.943
G1 X74.559 Y89.809 E6.9087
G1 X74.559 Y90.345
G1 X73.396 Y91.479 E6.9357
G1 X73.396 Y92.015
G1 X74.559 Y90.881 E6.9627
G1 X74.559 Y91.416
G1 X73.396 Y92.550 E6.9897
G1 X73.396 Y93.086
G1 X74.559 Y91.952 E7.0167
G1 X74.559 Y92.488
G1 X73.396 Y93.622 E7.0438
G1 X73.396 Y94.158
G1 X74.559 Y93.024 E7.0708
G1 X74.559 Y93.559
G1 X73.396 Y94.693 E7.0978
G1 X73.396 Y95.229
G1 X74.559 Y94.095 E7.1248
G1 X74.559 Y94.631
G1 X73.396 Y95.765 E7.1518
G1 X73.396 Y96.301
G1 X74.559 Y95.167 E7.1789
G1 X74.559 Y95.702
G1 X73.396 Y96.836 E7.2059
G1 X73.396 Y97.372
G1 X74.559 Y96.238 E7.2329
G1 X74.559 Y96.774
G1 X73.396 Y97.908 E7.2599
G1 X73.396 Y98.444
G1 X74.559 Y97.310 E7.2869
G1 X74.559 Y97.845
G1 X73.396 Y98.979 E7.3140
G1 X73.396 Y99.515
G1 X74.559 Y98.381 E7.3410
G1 X74.559 Y98.917
G1 X73.396 Y100.051 E7.3680
G1 X73.396 Y100.587
G1 X74.559 Y99.453 E7.3950
G1 X74.559 Y99.988
G1 X73.396 Y101.122 E7.4220
G1 X73.396 Y101.658
G1 X74.559 Y100.524 E7.4491
G1 X74.559 Y101.060
G1 X73.396 Y102.194 E7.4761
G1 X73.396 Y102.730
G1 X74.559 Y101.596 E7.5031
G1 X74.559 Y102.131
G1 X73.396 Y103.265 E7.5301
G1 X73.396 Y103.801
G1 X74.559 Y102.667 E7.5572
G1 X74.559 Y103.203
G1 X73.396 Y104.337 E7.5842
G1 X73.396 Y104.873
G1 X74.559 Y103.739 E7.6112
G1 X74.559 Y104.274
G1 X73.396 Y105.408 E7.6382
G1 X73.396 Y105.944
G1 X74.559 Y104.810 E7.6653
G1 X74.559 Y105.346
G1 X73.396 Y106.480 E7.6923
G1 X73.396 Y107.016
G1 X74.559 Y105.881 E7.7193
G1 X74.559 Y106.417
G1 X73.396 Y107.551 E7.7463
G1 X73.396 Y108.087
G1 X74.559 Y106.953 E7.7734
G1 X74.559 Y107.489
G1 X73.396 Y108.623 E7.8004
G1 X73.396 Y109.159
G1 X74.559 Y108.024 E7.8274
G1 X74.559 Y108.560
G1 X73.396 Y109.694 E7.8544
G1 X73.396 Y110.230
G1 X74.559 Y109.096 E7.8815
G1 X74.559 Y109.632
G1 X73.396 Y110.766 E7.9085
G1 X73.396 Y111.302
G1 X74.559 Y110.167 E7.9355
G1 X74.559 Y110.703
G1 X73.396 Y111.837 E7.9625
G1 X73.396 Y112.373
G1 X74.559 Y111.239 E7.9896
G1 X74.559 Y111.775
G1 X73.396 Y112.909 E8.0166
G1 X73.396 Y113.444
G1 X74.559 Y112.310 E8.0436
G1 X74.559 Y112.846
G1 X73.397 Y113.979 E8.0706
G1 X73.397 Y114.514
G1 X74.559 Y113.382 E8.0976
G1 X74.559 Y113.918
G1 X73.398 Y115.050 E8.1246
G1 X73.428 Y115.557
G1 X74.559 Y114.453 E8.1508
G1 X74.615 Y114.935
G1 X73.481 Y116.040 E8.1772
G1 X73.557 Y116.502
G1 X74.785 Y115.305 E8.2057
G1 X75.032 Y115.600
G1 X73.671 Y116.926 E8.2373
G1 X73.797 Y117.339
G1 X75.348 Y115.828 E8.2733
G1 X75.744 Y115.977
G1 X73.949 Y117.727 E8.3150
G1 X74.118 Y118.098
G1 X76.251 Y116.019 E8.3645
G1 X76.800 Y116.019
G1 X74.302 Y118.454 E8.4225
G1 X74.509 Y118.789
G1 X77.350 Y116.019 E8.4885
G1 X77.900 Y116.019
G1 X74.724 Y119.115 E8.5623
G1 X74.964 Y119.417
G1 X78.449 Y116.019 E8.6432
G1 X78.999 Y116.019
G1 X75.208 Y119.715 E8.7313
G1 X75.480 Y119.985
G1 X79.549 Y116.019 E8.8258
G1 X80.098 Y116.019
G1 X75.755 Y120.252 E8.9266
G1 X76.057 Y120.494
G1 X80.648 Y116.019 E9.0332
G1 X81.198 Y116.019
G1 X76.365 Y120.729 E9.1454
G1 X76.697 Y120.942
G1 X81.747 Y116.019 E9.2627
G1 X82.297 Y116.019
G1 X77.040 Y121.143 E9.3848
G1 X77.403 Y121.325
G1 X82.847 Y116.019 E9.5112
G1 X83.396 Y116.019
G1 X77.785 Y121.488 E9.6415
G1 X78.182 Y121.638
G1 X83.946 Y116.019 E9.7754
G1 X84.496 Y116.019
G1 X78.610 Y121.756 E9.9121
G1 X79.054 Y121.859
G1 X85.171 Y115.897 E10.0541
G0 X81.853 Y121.809 F10800
G1 X87.027 Y116.766 E10.1743 F600
G1 X86.777 Y117.546
G1 X82.641 Y121.577 E10.2703
G0 X83.664 Y121.116 F10800
G1 X86.302 Y118.545 E10.3316 F600
G0 X87.165 Y116.096 F10800
G1 X81.185 Y121.925 E10.4704 F600
G1 X80.589 Y121.970
G1 X87.234 Y115.493 E10.6247
G1 X87.259 Y114.933
G1 X80.042 Y121.967 E10.7923
G1 X79.530 Y121.931
G1 X87.259 Y114.397 E10.9718
G1 X87.259 Y113.861
G1 X85.959 Y115.128 E11.0020
G1 X86.095 Y114.460
G1 X87.259 Y113.326 E11.0291
G1 X87.259 Y112.790
G1 X86.095 Y113.924 E11.0561
G1 X86.095 Y113.388
G1 X87.259 Y112.254 E11.0831
G1 X87.259 Y111.718
G1 X86.095 Y112.853 E11.1101
G1 X86.095 Y112.317
G1 X87.259 Y111.183 E11.1372
G1 X87.259 Y110.647
G1 X86.095 Y111.781 E11.1642
G1 X86.095 Y111.245
G1 X87.259 Y110.111 E11.1912
G1 X87.259 Y109.575
G1 X86.095 Y110.710 E11.2182
G1 X86.095 Y110.174
G1 X87.259 Y109.040 E11.2453
G1 X87.259 Y108.504
G1 X86.095 Y109.638 E11.2723
G1 X86.095 Y109.102
G1 X87.259 Y107.968 E11.2993
G1 X87.259 Y107.432
G1 X86.095 Y108.567 E11.3264
G1 X86.095 Y108.031
G1 X87.259 Y106.897 E11.3534
G1 X87.259 Y106.361
G1 X86.095 Y107.495 E11.3804
G1 X86.095 Y106.960
G1 X87.259 Y105.825 E11.4074
G1 X87.259 Y105.289
G1 X86.095 Y106.424 E11.4345
G1 X86.095 Y105.888
G1 X87.259 Y104.754 E11.4615
G1 X87.259 Y104.218
G1 X86.095 Y105.352 E11.4885
G1 X86.095 Y104.817
G1 X87.259 Y103.682 E11.5155
G1 X87.259 Y103.146
G1 X86.095 Y104.281 E11.5426
G1 X86.095 Y103.745
G1 X87.259 Y102.611 E11.5696
G1 X87.259 Y102.075
G1 X86.095 Y103.209 E11.5966
G1 X86.095 Y102.674
G1 X87.259 Y101.539 E11.6237
G1 X87.259 Y101.003
G1 X86.095 Y102.138 E11.6507
G1 X86.095 Y101.602
G1 X87.259 Y100.468 E11.6777
G1 X87.259 Y99.932
G1 X86.095 Y101.066 E11.7047
G1 X86.095 Y100.531
G1 X87.259 Y99.396 E11.7318
G1 X87.259 Y98.861
G1 X86.095 Y99.995 E11.7588
G1 X86.095 Y99.459
G1 X87.259 Y98.325 E11.7858
G1 X87.259 Y97.789
G1 X86.095 Y98.923 E11.8128
G1 X86.095 Y98.388
G1 X87.259 Y97.253 E11.8399
G1 X87.259 Y96.718
G1 X86.095 Y97.852 E11.8669
G1 X86.095 Y97.316
G1 X87.259 Y96.182 E11.8939
G1 X87.259 Y95.646
G1 X86.095 Y96.780 E11.9210
G1 X86.095 Y96.245
G1 X87.259 Y95.110 E11.9480
G1 X87.259 Y94.575
G1 X86.095 Y95.709 E11.9750
G1 X86.095 Y95.173
G1 X87.259 Y94.039 E12.0020
G1 X87.259 Y93.503
G1 X86.095 Y94.637 E12.0291
G1 X86.095 Y94.102
G1 X87.259 Y92.967 E12.0561
G1 X87.259 Y92.432
G1 X86.095 Y93.566 E12.0831
G1 X86.095 Y93.030
G1 X87.259 Y91.896 E12.1101
G1 X87.259 Y91.360
G1 X86.095 Y92.494 E12.1372
G1 X86.095 Y91.959
G1 X87.259 Y90.824 E12.1642
G1 X87.259 Y90.289
G1 X86.095 Y91.423 E12.1912
G1 X86.095 Y90.887
G1 X87.259 Y89.753 E12.2183
G1 X87.259 Y89.217
G1 X86.095 Y90.352 E12.2453
G1 X86.095 Y89.816
G1 X87.259 Y88.681 E12.2723
G1 X87.259 Y88.146
G1 X86.095 Y89.280 E12.2993
G1 X86.095 Y88.744
G1 X87.259 Y87.610 E12.3264
G1 X87.259 Y87.074
G1 X86.095 Y88.209 E12.3534
G1 X86.095 Y87.673
G1 X87.259 Y86.538 E12.3804
G1 X87.259 Y86.003
G1 X86.095 Y87.137 E12.4074
G1 X86.095 Y86.601
G1 X87.259 Y85.467 E12.4345
G1 X87.259 Y84.931
G1 X86.095 Y86.066 E12.4615
G1 X86.095 Y85.530
G1 X87.259 Y84.395 E12.4885
G1 X86.831 Y84.277
G1 X86.095 Y84.994 E12.5056
G1 X86.095 Y84.458
G1 X86.283 Y84.275 E12.5100
;segType:Support
G0 F4800 E11.5100
G0 X84.410 Y83.897 F10800
G0 F4800 E12.5100
G1 X83.710 Y83.897 E12.5199 F900
G1 X84.410 Y84.597 E12.5338
G1 X83.710 Y84.597 E12.5437
G0 F4800 E11.5437
G0 X82.806 Y85.634 F10800
G0 F4800 E12.5437
G1 X82.106 Y85.634 E12.5536 F900
G1 X82.806 Y84.934 E12.5676
G1 X82.106 Y84.934 E12.5775
G0 F4800 E11.5775
G0 X80.847 Y83.905 F10800
G0 F4800 E12.5775
G1 X80.147 Y83.905 E12.5874 F900
G1 X80.147 Y84.605 E12.5973
G1 X80.847 Y84.605 E12.6072
G0 F4800 E11.6072
G0 X83.518 Y86.971 F10800
G0 F4800 E12.6072
G1 X84.218 Y86.971 E12.6171 F900
G1 X83.518 Y87.671 E12.6311
G1 X84.218 Y87.671 E12.6410
G0 F4800 E11.6410
G0 X83.558 Y90.296 F10800
G0 F4800 E12.6410
G1 X84.258 Y90.296 E12.6509 F900
G1 X84.258 Y90.996 E12.6608
G1 X83.558 Y90.996 E12.6707
G0 F4800 E11.6707
G0 X83.594 Y94.161 F10800
G0 F4800 E12.6707
G1 X84.294 Y94.161 E12.6806 F900
G1 X84.294 Y94.861 E12.6905
G1 X83.594 Y94.861 E12.7004
G0 F4800 E11.7004
G0 X84.427 Y97.513 F10800
G0 F4800 E12.7004
G1 X83.727 Y97.513 E12.7103 F900
G1 X83.727 Y96.813 E12.7201
G1 X84.427 Y96.813 E12.7300
G0 F4800 E11.7300
G0 X85.311 Y83.772 F10800
G0 X85.519 Y83.519
G0 X166.845 Y80.782
G0 X169.091 Y80.803
G0 X169.293 Y81.060
G0 X170.365 Y97.388
G0 F4800 E12.7300
G1 X171.065 Y97.388 E12.7399 F900
G1 X171.065 Y96.688 E12.7498
G1 X170.365 Y96.688 E12.7597
G0 F4800 E11.7597
G0 X170.959 Y94.196 F10800
G0 F4800 E12.7597
G1 X170.259 Y94.196 E12.7696 F900
G1 X170.259 Y93.496 E12.7795
G1 X170.959 Y93.496 E12.7894
G0 F4800 E11.7894
G0 X170.292 Y91.238 F10800
G0 F4800 E12.7894
G1 X170.992 Y91.238 E12.7993 F900
G1 X170.992 Y90.538 E12.8092
G1 X170.292 Y90.538 E12.8191
G0 F4800 E11.8191
G0 X170.907 Y86.952 F10800
G0 F4800 E12.8191
G1 X170.207 Y86.952 E12.8290 F900
G1 X170.207 Y87.652 E12.8389
G1 X170.907 Y87.652 E12.8488
G0 F4800 E11.8488
G0 X171.772 Y84.124 F10800
G0 F4800 E12.8488
G1 X171.072 Y84.124 E12.8587 F900
G0 F4800 E11.8587
G0 X169.913 Y82.847 F10800
G0 F4800 E12.8587
G1 X170.613 Y82.847 E12.8686 F900
G1 X171.072 Y83.424 E12.8790
G1 X171.772 Y83.424 E12.8889
G0 F4800 E11.8889
G0 X172.498 Y82.043 F10800
G0 F4800 E12.8889
G1 X173.198 Y82.043 E12.8988 F900
G0 F4800 E11.8988
G0 X174.021 Y83.111 F10800
G0 F4800 E12.8988
G1 X174.721 Y83.111 E12.9087 F900
G1 X174.021 Y82.411 E12.9227
G1 X174.721 Y82.411 E12.9326
G1 X175.085 Y82.078 E12.9395
G1 X175.785 Y82.078 E12.9494
G1 X175.785 Y81.378 E12.9593
G1 X175.085 Y81.378 E12.9692
G0 F4800 E11.9692
G0 X172.498 Y81.343 F10800
G0 F4800 E12.9692
G1 X173.198 Y81.343 E12.9791 F900
G0 F4800 E11.9791
G0 X170.613 Y82.147 F10800
G0 F4800 E12.9791
G1 X169.913 Y82.147 E12.9890 F900
;segType:HShell
G0 F4800 E11.9890
G0 X167.345 Y81.877 F10800
G0 F4800 E12.9890
G1 X167.676 Y81.554 E12.9967 F600
G1 X168.225 Y81.555
G1 X167.345 Y82.413 E13.0171
G1 X167.345 Y82.948
G1 X168.508 Y81.814 E13.0442
;segType:Loop
G0 X168.708 Y81.980 F10800
G1 X168.708 Y111.854 E13.5410 F600
G1 X168.764 Y112.208 E13.5469
G1 X168.949 Y112.571 E13.5537
G1 X169.240 Y112.862 E13.5605
G1 X169.609 Y113.050 E13.5674
G1 X169.973 Y113.107 E13.5736
G1 X178.579 Y113.107 E13.7167
G1 X178.943 Y113.050 E13.7228
G1 X179.313 Y112.862 E13.7297
G1 X179.604 Y112.571 E13.7365
G1 X179.788 Y112.208 E13.7433
G1 X179.844 Y111.854 E13.7493
G1 X179.844 Y81.362 E14.2564
G1 X181.408 Y81.368 E14.2824
G1 X181.408 Y112.302 E14.7968
G1 X181.370 Y113.019 E14.8087
G1 X181.258 Y113.761 E14.8212
G1 X181.068 Y114.486 E14.8337
G1 X180.804 Y115.187 E14.8461
G1 X180.469 Y115.856 E14.8586
G1 X180.065 Y116.485 E14.8710
G1 X179.599 Y117.069 E14.8834
G1 X179.074 Y117.601 E14.8959
G1 X178.497 Y118.074 E14.9083
G1 X177.873 Y118.484 E14.9207
G1 X177.211 Y118.827 E14.9331
G1 X176.517 Y119.098 E14.9455
G1 X175.799 Y119.296 E14.9579
G1 X175.064 Y119.417 E14.9703
G1 X174.321 Y119.460 E14.9826
G1 X173.577 Y119.426 E14.9950
G1 X172.841 Y119.315 E15.0074
G1 X172.121 Y119.126 E15.0198
G1 X171.423 Y118.863 E15.0322
G1 X170.757 Y118.529 E15.0446
G1 X170.128 Y118.127 E15.0570
G1 X169.545 Y117.661 E15.0694
G1 X169.014 Y117.136 E15.0818
G1 X168.540 Y116.558 E15.0943
G1 X168.129 Y115.933 E15.1067
G1 X167.785 Y115.268 E15.1191
G1 X167.512 Y114.571 E15.1316
G1 X167.314 Y113.849 E15.1440
G1 X167.192 Y113.110 E15.1565
G1 X167.147 Y112.348 E15.1692
G1 X167.145 Y110.457 E15.2006
G1 X167.145 Y81.358 E15.6845
G1 X168.708 Y81.361 E15.7105
G1 X168.708 Y81.791 E15.7177
;segType:Perimeter
G0 X168.438 Y81.372 F10800
G1 X169.036 Y81.018 E15.7293 F359
G1 X169.108 Y81.117 E15.7313
G1 X169.108 Y111.824 E16.2420
G1 X169.150 Y112.089 E16.2464
G1 X169.279 Y112.343 E16.2511
G1 X169.482 Y112.545 E16.2559
G1 X169.737 Y112.675 E16.2607
G1 X170.006 Y112.718 E16.2652
G1 X178.547 Y112.718 E16.4072
G1 X178.815 Y112.675 E16.4118
G1 X179.071 Y112.545 E16.4165
G1 X179.273 Y112.343 E16.4213
G1 X179.403 Y112.089 E16.4260
G1 X179.444 Y111.824 E16.4305
G1 X179.444 Y81.114 E16.9412
G1 X179.554 Y80.971 E16.9442
G1 X181.726 Y80.979 E16.9803
G1 X181.808 Y81.090 E16.9826
G1 X181.808 Y112.312 E17.5018
G1 X181.769 Y113.057 E17.5142
G1 X181.650 Y113.838 E17.5274
G1 X181.451 Y114.601 E17.5405
G1 X181.173 Y115.340 E17.5536
G1 X180.819 Y116.045 E17.5667
G1 X180.394 Y116.709 E17.5798
G1 X179.901 Y117.325 E17.5930
G1 X179.347 Y117.886 E17.6061
G1 X178.738 Y118.386 E17.6192
G1 X178.080 Y118.819 E17.6323
G1 X177.380 Y119.181 E17.6454
G1 X176.646 Y119.468 E17.6585
G1 X175.887 Y119.677 E17.6716
G1 X175.110 Y119.805 E17.6847
G1 X174.323 Y119.851 E17.6978
G1 X173.537 Y119.815 E17.7109
G1 X172.758 Y119.696 E17.7240
G1 X171.996 Y119.497 E17.7371
G1 X171.259 Y119.219 E17.7502
G1 X170.555 Y118.866 E17.7633
G1 X169.891 Y118.441 E17.7764
G1 X169.275 Y117.949 E17.7895
G1 X168.715 Y117.395 E17.8026
G1 X168.215 Y116.785 E17.8157
G1 X167.781 Y116.127 E17.8288
G1 X167.418 Y115.426 E17.8419
G1 X167.131 Y114.691 E17.8551
G1 X166.922 Y113.931 E17.8682
G1 X166.794 Y113.152 E17.8813
G1 X166.747 Y112.360 E17.8945
G1 X166.745 Y110.458 E17.9261
G1 X166.745 Y81.112 E18.4142
G1 X166.796 Y81.002 E18.4162
G1 X166.882 Y80.968 E18.4177
G1 X168.944 Y80.971 E18.4520
G1 X168.992 Y81.651
G0 X168.508 Y82.350 F10800
;segType:HShell
G1 X167.345 Y83.484 E18.4790 F600
G1 X167.345 Y84.020
G1 X168.508 Y82.886 E18.5060
G1 X168.508 Y83.422
G1 X167.345 Y84.556 E18.5331
G1 X167.345 Y85.091
G1 X168.508 Y83.957 E18.5601
G1 X168.508 Y84.493
G1 X167.345 Y85.627 E18.5871
G1 X167.345 Y86.163
G1 X168.508 Y85.029 E18.6141
G1 X168.508 Y85.565
G1 X167.345 Y86.699 E18.6411
G1 X167.345 Y87.234
G1 X168.508 Y86.100 E18.6681
G1 X168.508 Y86.636
G1 X167.345 Y87.770 E18.6952
G1 X167.345 Y88.306
G1 X168.508 Y87.172 E18.7222
G1 X168.508 Y87.708
G1 X167.345 Y88.842 E18.7492
G1 X167.345 Y89.377
G1 X168.508 Y88.243 E18.7762
G1 X168.508 Y88.779
G1 X167.345 Y89.913 E18.8032
G1 X167.345 Y90.449
G1 X168.508 Y89.315 E18.8303
G1 X168.508 Y89.851
G1 X167.345 Y90.985 E18.8573
G1 X167.345 Y91.520
G1 X168.508 Y90.386 E18.8843
G1 X168.508 Y90.922
G1 X167.345 Y92.056 E18.9113
G1 X167.345 Y92.592
G1 X168.508 Y91.458 E18.9383
G1 X168.508 Y91.993
G1 X167.345 Y93.128 E18.9654
G1 X167.345 Y93.663
G1 X168.508 Y92.529 E18.9924
G1 X168.508 Y93.065
G1 X167.345 Y94.199 E19.0194
G1 X167.345 Y94.735
G1 X168.508 Y93.601 E19.0464
G1 X168.508 Y94.136
G1 X167.345 Y95.271 E19.0734
G1 X167.345 Y95.806
G1 X168.508 Y94.672 E19.1005
G1 X168.508 Y95.208
G1 X167.345 Y96.342 E19.1275
G1 X167.345 Y96.878
G1 X168.508 Y95.744 E19.1545
G1 X168.508 Y96.279
G1 X167.345 Y97.414 E19.1815
G1 X167.345 Y97.949
G1 X168.508 Y96.815 E19.2086
G1 X168.508 Y97.351
G1 X167.345 Y98.485 E19.2356
G1 X167.345 Y99.021
G1 X168.508 Y97.887 E19.2626
G1 X168.508 Y98.422
G1 X167.345 Y99.557 E19.2896
G1 X167.345 Y100.092
G1 X168.508 Y98.958 E19.3166
G1 X168.508 Y99.494
G1 X167.345 Y100.628 E19.3437
G1 X167.345 Y101.164
G1 X168.508 Y100.030 E19.3707
G1 X168.508 Y100.565
G1 X167.345 Y101.700 E19.3977
G1 X167.345 Y102.235
G1 X168.508 Y101.101 E19.4247
G1 X168.508 Y101.637
G1 X167.345 Y102.771 E19.4518
G1 X167.345 Y103.307
G1 X168.508 Y102.173 E19.4788
G1 X168.508 Y102.708
G1 X167.345 Y103.843 E19.5058
G1 X167.345 Y104.378
G1 X168.508 Y103.244 E19.5328
G1 X168.508 Y103.780
G1 X167.345 Y104.914 E19.5599
G1 X167.345 Y105.450
G1 X168.508 Y104.316 E19.5869
G1 X168.508 Y104.851
G1 X167.345 Y105.986 E19.6139
G1 X167.345 Y106.521
G1 X168.508 Y105.387 E19.6409
G1 X168.508 Y105.923
G1 X167.345 Y107.057 E19.6680
G1 X167.345 Y107.593
G1 X168.508 Y106.459 E19.6950
G1 X168.508 Y106.994
G1 X167.345 Y108.129 E19.7220
G1 X167.344 Y108.664
G1 X168.508 Y107.530 E19.7490
G1 X168.508 Y108.066
G1 X167.344 Y109.200 E19.7761
G1 X167.344 Y109.736
G1 X168.508 Y108.601 E19.8031
G1 X168.508 Y109.137
G1 X167.344 Y110.272 E19.8301
G1 X167.345 Y110.807
G1 X168.508 Y109.673 E19.8571
G1 X168.508 Y110.209
G1 X167.346 Y111.342 E19.8841
G1 X167.346 Y111.877
G1 X168.508 Y110.744 E19.9111
G1 X168.508 Y111.280
G1 X167.351 Y112.408 E19.9380
G1 X167.381 Y112.915
G1 X168.508 Y111.816 E19.9642
G1 X168.579 Y112.283
G1 X167.441 Y113.392 E19.9906
G1 X167.521 Y113.850
G1 X168.761 Y112.641 E20.0194
G1 X169.022 Y112.923
G1 X167.637 Y114.272 E20.0516
G1 X167.769 Y114.680
G1 X169.351 Y113.138 E20.0883
G1 X169.763 Y113.271
G1 X167.920 Y115.068 E20.1311
G1 X168.094 Y115.434
G1 X170.281 Y113.302 E20.1819
G1 X170.831 Y113.302
G1 X168.279 Y115.790 E20.2412
G1 X168.490 Y116.120
G1 X171.381 Y113.302 E20.3083
G1 X171.930 Y113.302
G1 X168.705 Y116.446 E20.3832
G1 X168.949 Y116.744
G1 X172.480 Y113.302 E20.4652
G1 X173.030 Y113.302
G1 X169.196 Y117.038 E20.5542
G1 X169.469 Y117.308
G1 X173.579 Y113.302 E20.6497
G1 X174.129 Y113.302
G1 X169.749 Y117.571 E20.7514
G1 X170.051 Y117.813
G1 X174.679 Y113.302 E20.8588
G1 X175.228 Y113.302
G1 X170.363 Y118.044 E20.9718
G1 X170.695 Y118.256
G1 X175.778 Y113.302 E21.0899
G1 X176.328 Y113.302
G1 X171.043 Y118.453 E21.2126
G1 X171.406 Y118.635
G1 X176.877 Y113.302 E21.3397
G1 X177.427 Y113.302
G1 X171.793 Y118.794 E21.4705
G1 X172.190 Y118.943
G1 X177.977 Y113.302 E21.6049
G1 X178.526 Y113.302
G1 X172.623 Y119.056 E21.7420
G1 X173.074 Y119.153
G1 X179.291 Y113.093 E21.8863
G0 X175.916 Y119.061 F10800
G1 X180.948 Y114.156 E22.0032 F600
G1 X180.679 Y114.955
G1 X176.727 Y118.806 E22.0950
G0 X177.795 Y118.301 F10800
G1 X180.115 Y116.039 E22.1489 F600
G0 X181.099 Y113.473 F10800
G1 X175.232 Y119.192 E22.2851 F600
G1 X174.625 Y119.247
G1 X181.179 Y112.860 E22.4373
G1 X181.208 Y112.295
G1 X174.069 Y119.254 E22.6031
G1 X173.549 Y119.225
G1 X181.208 Y111.760 E22.7810
G1 X181.208 Y111.224
G1 X179.828 Y112.569 E22.8130
G1 X180.044 Y111.822
G1 X181.208 Y110.688 E22.8400
G1 X181.208 Y110.152
G1 X180.044 Y111.287 E22.8671
G1 X180.044 Y110.751
G1 X181.208 Y109.617 E22.8941
G1 X181.208 Y109.081
G1 X180.044 Y110.215 E22.9211
G1 X180.044 Y109.679
G1 X181.208 Y108.545 E22.9481
G1 X181.208 Y108.009
G1 X180.044 Y109.144 E22.9752
G1 X180.044 Y108.608
G1 X181.208 Y107.474 E23.0022
G1 X181.208 Y106.938
G1 X180.044 Y108.072 E23.0292
G1 X180.044 Y107.537
G1 X181.208 Y106.402 E23.0563
G1 X181.208 Y105.866
G1 X180.044 Y107.001 E23.0833
G1 X180.044 Y106.465
G1 X181.208 Y105.331 E23.1103
G1 X181.208 Y104.795
G1 X180.044 Y105.929 E23.1373
G1 X180.044 Y105.394
G1 X181.208 Y104.259 E23.1644
G1 X181.208 Y103.723
G1 X180.044 Y104.858 E23.1914
G1 X180.044 Y104.322
G1 X181.208 Y103.188 E23.2184
G1 X181.208 Y102.652
G1 X180.044 Y103.786 E23.2454
G1 X180.044 Y103.251
G1 X181.208 Y102.116 E23.2725
G1 X181.208 Y101.580
G1 X180.044 Y102.715 E23.2995
G1 X180.044 Y102.179
G1 X181.208 Y101.045 E23.3265
G1 X181.208 Y100.509
G1 X180.044 Y101.643 E23.3536
G1 X180.044 Y101.108
G1 X181.208 Y99.973 E23.3806
G1 X181.208 Y99.438
G1 X180.044 Y100.572 E23.4076
G1 X180.044 Y100.036
G1 X181.208 Y98.902 E23.4346
G1 X181.208 Y98.366
G1 X180.044 Y99.500 E23.4617
G1 X180.044 Y98.965
G1 X181.208 Y97.830 E23.4887
G1 X181.208 Y97.295
G1 X180.044 Y98.429 E23.5157
G1 X180.044 Y97.893
G1 X181.208 Y96.759 E23.5427
G1 X181.208 Y96.223
G1 X180.044 Y97.357 E23.5698
G1 X180.044 Y96.822
G1 X181.208 Y95.687 E23.5968
G1 X181.208 Y95.152
G1 X180.044 Y96.286 E23.6238
G1 X180.044 Y95.750
G1 X181.208 Y94.616 E23.6509
G1 X181.208 Y94.080
G1 X180.044 Y95.214 E23.6779
G1 X180.044 Y94.679
G1 X181.208 Y93.544 E23.7049
G1 X181.208 Y93.009
G1 X180.044 Y94.143 E23.7319
G1 X180.044 Y93.607
G1 X181.208 Y92.473 E23.7590
G1 X181.208 Y91.937
G1 X180.044 Y93.072 E23.7860
G1 X180.044 Y92.536
G1 X181.208 Y91.401 E23.8130
G1 X181.208 Y90.866
G1 X180.044 Y92.000 E23.8400
G1 X180.044 Y91.464
G1 X181.208 Y90.330 E23.8671
G1 X181.208 Y89.794
G1 X180.044 Y90.929 E23.8941
G1 X180.044 Y90.393
G1 X181.208 Y89.258 E23.9211
G1 X181.208 Y88.723
G1 X180.044 Y89.857 E23.9482
G1 X180.044 Y89.321
G1 X181.208 Y88.187 E23.9752
G1 X181.208 Y87.651
G1 X180.044 Y88.786 E24.0022
G1 X180.044 Y88.250
G1 X181.208 Y87.115 E24.0292
G1 X181.208 Y86.580
G1 X180.044 Y87.714 E24.0563
G1 X180.044 Y87.178
G1 X181.208 Y86.044 E24.0833
G1 X181.208 Y85.508
G1 X180.044 Y86.643 E24.1103
G1 X180.044 Y86.107
G1 X181.208 Y84.973 E24.1373
G1 X181.208 Y84.437
G1 X180.044 Y85.571 E24.1644
G1 X180.044 Y85.035
G1 X181.208 Y83.901 E24.1914
G1 X181.208 Y83.365
G1 X180.044 Y84.500 E24.2184
G1 X180.044 Y83.964
G1 X181.208 Y82.830 E24.2455
G1 X181.208 Y82.294
G1 X180.044 Y83.428 E24.2725
G1 X180.044 Y82.892
G1 X181.208 Y81.758 E24.2995
G1 X180.861 Y81.561
G1 X180.044 Y82.357 E24.3185
G1 X180.044 Y81.821
G1 X180.313 Y81.559 E24.3247
; ------------------------------------
; Layer #1
; ------------------------------------
G21 ; mm
G90 ; abs
G92 E0 ; reset extr
M106 S255
;segType:Support
G0 F4800 E-1.0000
G0 F300 Z1.700
G0 X178.544 Y82.173 F10800
G0 F4800 E0.0000
G1 X177.921 Y82.173 E0.0088 F5400
G1 X178.544 Y82.873 E0.0221
G1 X177.921 Y82.873 E0.0309
G0 F4800 E-0.9691
G0 X175.085 Y81.378 F10800
G0 F4800 E0.0309
G1 X175.785 Y81.378 E0.0408 F5400
G1 X175.785 Y82.078 E0.0506
G1 X175.085 Y82.078 E0.0605
G1 X174.721 Y82.411 E0.0675
G1 X174.021 Y82.411 E0.0774
G0 F4800 E-0.9226
G0 X173.198 Y81.343 F10800
G0 F4800 E0.0774
G1 X172.498 Y81.343 E0.0873 F5400
G1 X173.198 Y82.043 E0.1013
G1 X172.498 Y82.043 E0.1112
G0 F4800 E-0.8888
G0 X170.613 Y82.147 F10800
G0 F4800 E0.1112
G1 X170.008 Y82.147 E0.1198 F5400
G1 X170.613 Y82.847 E0.1328
G1 X170.008 Y82.847 E0.1414
G0 F4800 E-0.8586
G0 X171.072 Y84.124 F10800
G0 F4800 E0.1414
G1 X171.772 Y84.124 E0.1513 F5400
G1 X171.072 Y83.424 E0.1653
G1 X171.772 Y83.424 E0.1752
G0 F4800 E-0.8248
G0 X174.021 Y83.111 F10800
G0 F4800 E0.1752
G1 X174.721 Y83.111 E0.1851 F5400
G0 F4800 E-0.8149
G0 X176.628 Y83.413 F10800
G0 F4800 E0.1851
G1 X177.328 Y83.413 E0.1950 F5400
G1 X177.328 Y84.113 E0.2049
G1 X176.628 Y84.113 E0.2148
G0 F4800 E-0.7852
G0 X177.657 Y87.193 F10800
G0 F4800 E0.2148
G1 X178.357 Y87.193 E0.2247 F5400
G1 X178.357 Y87.893 E0.2346
G1 X177.657 Y87.893 E0.2445
G0 F4800 E-0.7555
G0 X178.321 Y90.799 F10800
G0 F4800 E0.2445
G1 X177.621 Y90.799 E0.2543 F5400
G1 X177.621 Y91.499 E0.2642
G1 X178.321 Y91.499 E0.2741
G0 F4800 E-0.7259
G0 X178.397 Y93.433 F10800
G0 F4800 E0.2741
G1 X177.697 Y93.433 E0.2840 F5400
G1 X178.397 Y94.133 E0.2980
G1 X177.697 Y94.133 E0.3079
G0 F4800 E-0.6921
G0 X177.717 Y96.717 F10800
G0 F4800 E0.3079
G1 X178.417 Y96.717 E0.3178 F5400
G1 X178.417 Y97.417 E0.3277
G1 X177.717 Y97.417 E0.3376
G0 F4800 E-0.6624
G0 X177.567 Y99.564 F10800
G0 F4800 E0.3376
G1 X178.267 Y99.564 E0.3475 F5400
G1 X178.267 Y100.264 E0.3574
G1 X177.567 Y100.264 E0.3673
G0 F4800 E-0.6327
G0 X178.378 Y102.191 F10800
G0 F4800 E0.3673
G1 X177.678 Y102.191 E0.3772 F5400
G1 X177.678 Y102.891 E0.3871
G1 X178.378 Y102.891 E0.3970
G0 F4800 E-0.6030
G0 X178.511 Y104.975 F10800
G0 F4800 E0.3970
G1 X177.811 Y104.975 E0.4069 F5400
G1 X177.811 Y105.675 E0.4168
G1 X178.511 Y105.675 E0.4267
G0 F4800 E-0.5733
G0 X177.671 Y107.464 F10800
G0 F4800 E0.4267
G1 X178.371 Y107.464 E0.4366 F5400
G1 X178.371 Y108.164 E0.4464
G1 X177.671 Y108.164 E0.4563
G1 X176.941 Y108.871 E0.4707
G1 X176.241 Y108.871 E0.4806
G1 X176.941 Y109.571 E0.4946
G1 X176.241 Y109.571 E0.5045
G0 F4800 E-0.4955
G0 X177.619 Y110.480 F10800
G0 F4800 E0.5045
G1 X178.319 Y110.480 E0.5144 F5400
G1 X178.319 Y111.180 E0.5243
G1 X177.619 Y111.180 E0.5342
G0 F4800 E-0.4658
G0 X175.385 Y110.612 F10800
G0 F4800 E0.5342
G1 X176.085 Y110.612 E0.5441 F5400
G1 X176.085 Y111.312 E0.5540
G1 X175.385 Y111.312 E0.5639
G0 F4800 E-0.4361
G0 X173.472 Y111.293 F10800
G0 F4800 E0.5639
G1 X172.772 Y111.293 E0.5738 F5400
G1 X173.472 Y110.593 E0.5877
G1 X172.772 Y110.593 E0.5976
G0 F4800 E-0.4024
G0 X172.601 Y109.538 F10800
G0 F4800 E0.5976
G1 X171.901 Y109.538 E0.6075 F5400
G1 X172.601 Y108.838 E0.6215
G1 X170.176 Y108.778 E0.6558
G0 F4800 E-0.3442
G0 X170.517 Y111.298 F10800
G0 F4800 E0.6558
G1 X171.217 Y111.298 E0.6657 F5400
G1 X171.217 Y110.598 E0.6756
G1 X170.517 Y110.598 E0.6855
G0 F4800 E-0.3145
G0 X170.176 Y108.078 F10800
G0 F4800 E0.6855
G1 X170.876 Y108.078 E0.6954 F5400
G0 F4800 E-0.3046
G0 X170.781 Y105.693 F10800
G0 F4800 E0.6954
G1 X170.081 Y105.693 E0.7053 F5400
G1 X170.081 Y104.993 E0.7152
G1 X170.781 Y104.993 E0.7251
G0 F4800 E-0.2749
G0 X170.252 Y102.932 F10800
G0 F4800 E0.7251
G1 X170.952 Y102.932 E0.7350 F5400
G1 X170.952 Y102.232 E0.7449
G1 X170.252 Y102.232 E0.7548
G0 F4800 E-0.2452
G0 X171.031 Y100.240 F10800
G0 F4800 E0.7548
G1 X170.331 Y100.240 E0.7647 F5400
G1 X170.331 Y99.540 E0.7746
G1 X171.031 Y99.540 E0.7845
G0 F4800 E-0.2155
G0 X171.065 Y97.388 F10800
G0 F4800 E0.7845
G1 X170.365 Y97.388 E0.7944 F5400
G1 X170.365 Y96.688 E0.8042
G1 X171.065 Y96.688 E0.8141
G0 F4800 E-0.1859
G0 X169.321 Y80.847 F10800
G0 X169.022 Y80.683
G0 X87.773 Y83.400
G0 X85.579 Y83.398
G0 X85.316 Y83.524
G0 X84.294 Y94.861
G0 F4800 E0.8141
G1 X83.594 Y94.861 E0.8240 F5400
G1 X84.294 Y94.161 E0.8380
G1 X83.594 Y94.161 E0.8479
G0 F4800 E-0.1521
G0 X84.427 Y96.813 F10800
G0 F4800 E0.8479
G1 X83.727 Y96.813 E0.8578 F5400
G1 X83.727 Y97.513 E0.8677
G1 X84.427 Y97.513 E0.8776
G0 F4800 E-0.1224
G0 X83.637 Y100.297 F10800
G0 F4800 E0.8776
G1 X84.337 Y100.297 E0.8875 F5400
G0 F4800 E-0.1125
G0 X83.431 Y104.239 F10800
G0 F4800 E0.8875
G1 X84.131 Y104.239 E0.8974 F5400
G1 X84.131 Y103.539 E0.9073
G1 X83.431 Y103.539 E0.9172
G0 F4800 E-0.0828
G0 X83.637 Y100.997 F10800
G0 F4800 E0.9172
G1 X84.337 Y100.997 E0.9271 F5400
G0 F4800 E-0.0729
G0 X84.355 Y107.275 F10800
G0 F4800 E0.9271
G1 X83.655 Y107.275 E0.9370 F5400
G1 X83.655 Y107.975 E0.9469
G1 X84.355 Y107.975 E0.9568
G0 F4800 E-0.0432
G0 X83.808 Y109.878 F10800
G0 F4800 E0.9568
G1 X84.508 Y109.878 E0.9667 F5400
G1 X84.508 Y110.578 E0.9766
G1 X83.808 Y110.578 E0.9865
G1 X83.491 Y111.238 E0.9968
G1 X82.791 Y111.238 E1.0067
G1 X83.491 Y111.938 E1.0207
G1 X82.791 Y111.938 E1.0306
G0 F4800 E0.0306
G0 X83.475 Y113.335 F10800
G0 F4800 E1.0306
G1 X84.175 Y113.335 E1.0405 F5400
G1 X84.175 Y114.035 E1.0504
G1 X83.475 Y114.035 E1.0603
G0 F4800 E0.0603
G0 X82.072 Y114.040 F10800
G0 F4800 E1.0603
G1 X81.372 Y114.040 E1.0702 F5400
G1 X82.072 Y113.340 E1.0842
G1 X81.372 Y113.340 E1.0941
G0 F4800 E0.0941
G0 X79.395 Y113.518 F10800
G0 F4800 E1.0941
G1 X78.695 Y113.518 E1.1039 F5400
G1 X79.395 Y114.218 E1.1179
G1 X78.695 Y114.218 E1.1278
G0 F4800 E0.1278
G0 X77.080 Y114.154 F10800
G0 F4800 E1.1278
G1 X76.380 Y114.154 E1.1377 F5400
G1 X76.380 Y113.454 E1.1476
G1 X77.080 Y113.454 E1.1575
G0 F4800 E0.1575
G0 X77.463 Y112.096 F10800
G0 F4800 E1.1575
G1 X78.163 Y112.096 E1.1674 F5400
G1 X78.163 Y111.396 E1.1773
G1 X77.463 Y111.396 E1.1872
G1 X76.796 Y111.067 E1.1977
G1 X76.096 Y111.067 E1.2076
G1 X76.096 Y110.367 E1.2175
G1 X76.796 Y110.367 E1.2274
G0 F4800 E0.2274
G0 X76.108 Y107.736 F10800
G0 F4800 E1.2274
G1 X76.808 Y107.736 E1.2373 F5400
G0 F4800 E0.2373
G0 X76.950 Y104.164 F10800
G0 F4800 E1.2373
G1 X76.250 Y104.164 E1.2472 F5400
G0 F4800 E0.2472
G0 X76.108 Y107.036 F10800
G0 F4800 E1.2472
G1 X76.808 Y107.036 E1.2571 F5400
G0 F4800 E0.2571
G0 X76.950 Y103.464 F10800
G0 F4800 E1.2571
G1 X76.250 Y103.464 E1.2670 F5400
G0 F4800 E0.2670
G0 X76.271 Y100.638 F10800
G0 F4800 E1.2670
G1 X76.971 Y100.638 E1.2769 F5400
G1 X76.971 Y99.938 E1.2868
G1 X76.271 Y99.938 E1.2967
G0 F4800 E0.2967
G0 X76.168 Y97.038 F10800
G0 F4800 E1.2967
G1 X76.868 Y97.038 E1.3066 F5400
G1 X76.868 Y96.338 E1.3165
G1 X76.168 Y96.338 E1.3264
G0 F4800 E0.3264
G0 X76.928 Y94.548 F10800
G0 F4800 E1.3264
G1 X76.228 Y94.548 E1.3362 F5400
G1 X76.228 Y93.848 E1.3461
G1 X76.928 Y93.848 E1.3560
G0 F4800 E0.3560
G0 X76.436 Y90.837 F10800
G0 F4800 E1.3560
G1 X77.136 Y90.837 E1.3659 F5400
G1 X76.436 Y90.137 E1.3799
G1 X77.136 Y90.137 E1.3898
G0 F4800 E0.3898
G0 X83.558 Y90.996 F10800
G0 F4800 E1.3898
G1 X84.258 Y90.996 E1.3997 F5400
G1 X83.558 Y90.296 E1.4137
G1 X84.258 Y90.296 E1.4236
G0 F4800 E0.4236
G0 X83.518 Y87.671 F10800
G0 F4800 E1.4236
G1 X84.218 Y87.671 E1.4335 F5400
G1 X84.218 Y86.971 E1.4434
G1 X83.518 Y86.971 E1.4533
G0 F4800 E0.4533
G0 X82.806 Y85.634 F10800
G0 F4800 E1.4533
G1 X82.106 Y85.634 E1.4632 F5400
G0 F4800 E0.4632
G0 X80.847 Y84.605 F10800
G0 F4800 E1.4632
G1 X80.147 Y84.605 E1.4731 F5400
G0 F4800 E0.4731
G0 X82.106 Y84.934 F10800
G0 F4800 E1.4731
G1 X82.806 Y84.934 E1.4830 F5400
G0 F4800 E0.4830
G0 X84.410 Y83.897 F10800
G0 F4800 E1.4830
G1 X83.710 Y83.897 E1.4929 F5400
G1 X84.410 Y84.597 E1.5069
G1 X83.710 Y84.597 E1.5168
G0 F4800 E0.5168
G0 X80.847 Y83.905 F10800
G0 F4800 E1.5168
G1 X80.147 Y83.905 E1.5266 F5400
G0 F4800 E0.5266
G0 X77.333 Y83.959 F10800
G0 F4800 E1.5266
G1 X76.633 Y83.959 E1.5365 F5400
G1 X76.633 Y84.659 E1.5464
G1 X77.333 Y84.659 E1.5563
G0 F4800 E0.5563
G0 X78.329 Y85.041 F10800
G0 F4800 E1.5563
G1 X79.029 Y85.041 E1.5662 F5400
G1 X79.029 Y85.741 E1.5761
G1 X78.329 Y85.741 E1.5860
G0 F4800 E0.5860
G0 X77.135 Y86.902 F10800
G0 F4800 E1.5860
G1 X76.435 Y86.902 E1.5959 F5400
G1 X77.135 Y87.602 E1.6099
G1 X76.435 Y87.602 E1.6198
;segType:HShell
G0 F4800 E0.6198
G0 X74.659 Y87.513 F10800
G0 F4800 E1.6198
G1 X73.295 Y86.183 E1.6515 F3600
G1 X73.295 Y85.647
G1 X74.659 Y86.977 E1.6832
G1 X74.659 Y86.441
G1 X73.295 Y85.112 E1.7148
G1 X73.295 Y84.576
G1 X74.659 Y85.905 E1.7465
G1 X74.659 Y85.370
G1 X73.426 Y84.168 E1.7751
G1 X73.976 Y84.168
G1 X74.659 Y84.834 E1.7910
G1 X74.659 Y84.298
G1 X74.526 Y84.168 E1.7941
;segType:Perimeter
G0 X74.542 Y83.807 F10800
G1 X75.238 Y83.739 E1.8057 F2159
G1 X75.259 Y83.807 E1.8069
G1 X75.260 Y109.808 E2.2393
G1 X75.261 Y114.559 E2.3183
G1 X75.305 Y114.794 E2.3223
G1 X75.425 Y115.017 E2.3265
G1 X75.609 Y115.191 E2.3307
G1 X75.838 Y115.301 E2.3349
G1 X76.058 Y115.334 E2.3386
G1 X84.598 Y115.334 E2.4807
G1 X84.836 Y115.296 E2.4847
G1 X85.063 Y115.180 E2.4889
G1 X85.243 Y115.000 E2.4931
G1 X85.358 Y114.775 E2.4973
G1 X85.395 Y114.541 E2.5013
G1 X85.395 Y83.826 E3.0121
G1 X85.458 Y83.653 E3.0151
G1 X85.619 Y83.584 E3.0180
G1 X87.726 Y83.584 E3.0531
G1 X87.922 Y83.684 E3.0567
G1 X87.959 Y83.807 E3.0589
G1 X87.960 Y115.029 E3.5781
G1 X87.918 Y115.833 E3.5915
G1 X87.793 Y116.623 E3.6048
G1 X87.586 Y117.395 E3.6181
G1 X87.299 Y118.142 E3.6314
G1 X86.936 Y118.854 E3.6447
G1 X86.501 Y119.525 E3.6580
G1 X85.998 Y120.146 E3.6713
G1 X85.432 Y120.711 E3.6846
G1 X84.812 Y121.214 E3.6978
G1 X84.142 Y121.649 E3.7111
G1 X83.430 Y122.012 E3.7244
G1 X82.684 Y122.298 E3.7377
G1 X81.913 Y122.505 E3.7510
G1 X81.125 Y122.629 E3.7642
G1 X80.327 Y122.671 E3.7775
G1 X79.530 Y122.629 E3.7908
G1 X78.742 Y122.505 E3.8041
G1 X77.970 Y122.298 E3.8174
G1 X77.225 Y122.012 E3.8306
G1 X76.513 Y121.649 E3.8439
G1 X75.843 Y121.214 E3.8572
G1 X75.222 Y120.711 E3.8705
G1 X74.657 Y120.146 E3.8838
G1 X74.154 Y119.525 E3.8971
G1 X73.719 Y118.854 E3.9104
G1 X73.356 Y118.142 E3.9237
G1 X73.069 Y117.395 E3.9370
G1 X72.862 Y116.623 E3.9503
G1 X72.737 Y115.833 E3.9636
G1 X72.695 Y115.029 E3.9770
G1 X72.695 Y83.826 E4.4959
G1 X72.759 Y83.653 E4.4989
G1 X72.919 Y83.584 E4.5018
G1 X75.026 Y83.584 E4.5369
G1 X75.170 Y83.658 E4.5396
G1 X74.963 Y84.309
;segType:Loop
G0 X74.859 Y84.721 F10800
G1 X74.860 Y109.808 E4.9568 F3600
G1 X74.861 Y114.594 E5.0364
G1 X74.922 Y114.923 E5.0419
G1 X75.101 Y115.253 E5.0482
G1 X75.376 Y115.514 E5.0545
G1 X75.717 Y115.677 E5.0608
G1 X76.027 Y115.724 E5.0660
G1 X84.631 Y115.724 E5.2090
G1 X84.964 Y115.671 E5.2147
G1 X85.306 Y115.497 E5.2210
G1 X85.573 Y115.228 E5.2273
G1 X85.744 Y114.894 E5.2336
G1 X85.795 Y114.571 E5.2390
G1 X85.795 Y83.973 E5.7479
G1 X87.559 Y83.973 E5.7772
G1 X87.560 Y115.019 E6.2935
G1 X87.519 Y115.793 E6.3064
G1 X87.400 Y116.544 E6.3190
G1 X87.204 Y117.278 E6.3316
G1 X86.932 Y117.987 E6.3443
G1 X86.587 Y118.663 E6.3569
G1 X86.174 Y119.299 E6.3695
G1 X85.697 Y119.889 E6.3821
G1 X85.161 Y120.424 E6.3947
G1 X84.572 Y120.901 E6.4073
G1 X83.938 Y121.313 E6.4199
G1 X83.264 Y121.657 E6.4325
G1 X82.558 Y121.927 E6.4451
G1 X81.828 Y122.123 E6.4576
G1 X81.082 Y122.241 E6.4702
G1 X80.327 Y122.281 E6.4828
G1 X79.573 Y122.241 E6.4953
G1 X78.827 Y122.123 E6.5079
G1 X78.097 Y121.927 E6.5204
G1 X77.391 Y121.657 E6.5330
G1 X76.717 Y121.313 E6.5456
G1 X76.083 Y120.901 E6.5582
G1 X75.494 Y120.424 E6.5708
G1 X74.958 Y119.889 E6.5834
G1 X74.481 Y119.299 E6.5960
G1 X74.068 Y118.663 E6.6086
G1 X73.723 Y117.987 E6.6212
G1 X73.451 Y117.278 E6.6339
G1 X73.254 Y116.544 E6.6465
G1 X73.135 Y115.793 E6.6591
G1 X73.095 Y115.019 E6.6720
G1 X73.095 Y83.973 E7.1883
G1 X74.859 Y83.973 E7.2176
G1 X74.859 Y84.532 E7.2269
;segType:HShell
G0 X74.659 Y88.049 F10800
G1 X73.295 Y86.719 E7.2586 F3600
G1 X73.295 Y87.255
G1 X74.659 Y88.584 E7.2903
G1 X74.659 Y89.120
G1 X73.295 Y87.790 E7.3220
G1 X73.295 Y88.326
G1 X74.659 Y89.656 E7.3537
G1 X74.659 Y90.192
G1 X73.295 Y88.862 E7.3853
G1 X73.295 Y89.398
G1 X74.659 Y90.727 E7.4170
G1 X74.659 Y91.263
G1 X73.295 Y89.933 E7.4487
G1 X73.295 Y90.469
G1 X74.659 Y91.799 E7.4804
G1 X74.659 Y92.335
G1 X73.295 Y91.005 E7.5121
G1 X73.295 Y91.540
G1 X74.659 Y92.870 E7.5438
G1 X74.659 Y93.406
G1 X73.295 Y92.076 E7.5755
G1 X73.295 Y92.612
G1 X74.659 Y93.942 E7.6072
G1 X74.659 Y94.478
G1 X73.295 Y93.148 E7.6388
G1 X73.295 Y93.683
G1 X74.659 Y95.014 E7.6705
G1 X74.659 Y95.549
G1 X73.295 Y94.219 E7.7022
G1 X73.295 Y94.755
G1 X74.659 Y96.085 E7.7339
G1 X74.659 Y96.621
G1 X73.295 Y95.291 E7.7656
G1 X73.295 Y95.826
G1 X74.660 Y97.157 E7.7973
G1 X74.660 Y97.692
G1 X73.295 Y96.362 E7.8290
G1 X73.295 Y96.898
G1 X74.660 Y98.228 E7.8607
G1 X74.660 Y98.764
G1 X73.295 Y97.434 E7.8924
G1 X73.295 Y97.969
G1 X74.660 Y99.300 E7.9241
G1 X74.660 Y99.836
G1 X73.295 Y98.505 E7.9558
G1 X73.295 Y99.041
G1 X74.660 Y100.371 E7.9875
G1 X74.660 Y100.907
G1 X73.295 Y99.577 E8.0192
G1 X73.295 Y100.112
G1 X74.660 Y101.443 E8.0509
G1 X74.660 Y101.979
G1 X73.295 Y100.648 E8.0826
G1 X73.295 Y101.184
G1 X74.660 Y102.514 E8.1143
G1 X74.660 Y103.050
G1 X73.295 Y101.720 E8.1460
G1 X73.295 Y102.255
G1 X74.660 Y103.586 E8.1777
G1 X74.660 Y104.122
G1 X73.295 Y102.791 E8.2094
G1 X73.295 Y103.327
G1 X74.660 Y104.657 E8.2411
G1 X74.660 Y105.193
G1 X73.295 Y103.863 E8.2728
G1 X73.295 Y104.398
G1 X74.660 Y105.729 E8.3045
G1 X74.660 Y106.265
G1 X73.295 Y104.934 E8.3362
G1 X73.295 Y105.470
G1 X74.660 Y106.801 E8.3679
G1 X74.660 Y107.336
G1 X73.295 Y106.006 E8.3996
G1 X73.295 Y106.541
G1 X74.660 Y107.872 E8.4313
G1 X74.660 Y108.408
G1 X73.295 Y107.077 E8.4631
G1 X73.295 Y107.613
G1 X74.660 Y108.944 E8.4948
G1 X74.660 Y109.479
G1 X73.295 Y108.148 E8.5265
G1 X73.295 Y108.684
G1 X74.660 Y110.015 E8.5582
G1 X74.660 Y110.551
G1 X73.295 Y109.220 E8.5899
G1 X73.295 Y109.756
G1 X74.661 Y111.087 E8.6216
G1 X74.661 Y111.623
G1 X73.295 Y110.291 E8.6534
G1 X73.295 Y110.827
G1 X74.661 Y112.159 E8.6851
G1 X74.661 Y112.695
G1 X73.295 Y111.363 E8.7168
G1 X73.295 Y111.899
G1 X74.661 Y113.231 E8.7485
G1 X74.661 Y113.766
G1 X73.295 Y112.434 E8.7803
G1 X73.295 Y112.970
G1 X74.661 Y114.302 E8.8120
G1 X74.712 Y114.888
G1 X73.295 Y113.506 E8.8449
G1 X73.295 Y114.042
G1 X81.446 Y121.986 E9.0342
G1 X80.963 Y122.052
G1 X73.295 Y114.577 E9.2123
G1 X73.300 Y115.118
G1 X80.442 Y122.080 E9.3782
G1 X79.874 Y122.062
G1 X73.330 Y115.683 E9.5301
G1 X73.419 Y116.306
G1 X79.254 Y121.993 E9.6656
G1 X78.556 Y121.848
G1 X73.584 Y117.002 E9.7811
G1 X73.873 Y117.820
G1 X77.727 Y121.576 E9.8706
G0 X76.567 Y120.981 F10800
G1 X74.505 Y118.972 E9.9185 F3600
G0 X75.726 Y115.875 F10800
G1 X81.907 Y121.900 E10.0620 F3600
G1 X82.338 Y121.784
G1 X76.320 Y115.919 E10.2018
G1 X76.869 Y115.919
G1 X82.745 Y121.646 E10.3382
G1 X83.140 Y121.495
G1 X77.419 Y115.919 E10.4711
G1 X77.969 Y115.919
G1 X83.504 Y121.314 E10.5996
G1 X83.863 Y121.128
G1 X78.518 Y115.919 E10.7237
G1 X79.068 Y115.919
G1 X84.193 Y120.913 E10.8427
G1 X84.516 Y120.693
G1 X79.618 Y115.919 E10.9565
G1 X80.167 Y115.919
G1 X84.816 Y120.450 E11.0645
G1 X85.108 Y120.198
G1 X80.717 Y115.919 E11.1664
G1 X81.267 Y115.919
G1 X85.379 Y119.927 E11.2619
G1 X85.639 Y119.645
G1 X81.816 Y115.919 E11.3507
G1 X82.366 Y115.919
G1 X85.882 Y119.345 E11.4323
G1 X86.110 Y119.032
G1 X82.916 Y115.919 E11.5065
G1 X83.465 Y115.919
G1 X86.323 Y118.704 E11.5729
G1 X86.519 Y118.359
G1 X84.015 Y115.919 E11.6311
G1 X84.565 Y115.919
G1 X86.701 Y118.001 E11.6807
G1 X86.859 Y117.619
G1 X85.044 Y115.850 E11.7228
G1 X85.405 Y115.666
G1 X87.009 Y117.230 E11.7601
G1 X87.124 Y116.806
G1 X85.681 Y115.400 E11.7936
G1 X85.882 Y115.060
G1 X87.226 Y116.369 E11.8248
G1 X87.299 Y115.905
G1 X85.988 Y114.628 E11.8552
G1 X85.995 Y114.098
G1 X87.339 Y115.409 E11.8864
G1 X87.360 Y114.893
G1 X85.995 Y113.562 E11.9181
G1 X85.995 Y113.027
G1 X87.360 Y114.357 E11.9499
G1 X87.360 Y113.822
G1 X85.995 Y112.491 E11.9816
G1 X85.995 Y111.955
G1 X87.360 Y113.286 E12.0133
G1 X87.360 Y112.750
G1 X85.995 Y111.420 E12.0450
G1 X85.995 Y110.884
G1 X87.360 Y112.214 E12.0767
G1 X87.360 Y111.679
G1 X85.995 Y110.348 E12.1084
G1 X85.995 Y109.812
G1 X87.360 Y111.143 E12.1401
G1 X87.360 Y110.607
G1 X85.995 Y109.277 E12.1718
G1 X85.995 Y108.741
G1 X87.360 Y110.071 E12.2035
G1 X87.360 Y109.536
G1 X85.995 Y108.205 E12.2352
G1 X85.995 Y107.669
G1 X87.360 Y109.000 E12.2669
G1 X87.360 Y108.464
G1 X85.995 Y107.134 E12.2986
G1 X85.995 Y106.598
G1 X87.360 Y107.928 E12.3303
G1 X87.360 Y107.393
G1 X85.995 Y106.062 E12.3620
G1 X85.995 Y105.526
G1 X87.360 Y106.857 E12.3937
G1 X87.360 Y106.321
G1 X85.995 Y104.991 E12.4254
G1 X85.995 Y104.455
G1 X87.360 Y105.785 E12.4571
G1 X87.360 Y105.249
G1 X85.995 Y103.919 E12.4888
G1 X85.995 Y103.383
G1 X87.360 Y104.714 E12.5205
G1 X87.360 Y104.178
G1 X85.995 Y102.848 E12.5522
G1 X85.995 Y102.312
G1 X87.360 Y103.642 E12.5839
G1 X87.360 Y103.106
G1 X85.995 Y101.776 E12.6155
G1 X85.995 Y101.240
G1 X87.360 Y102.571 E12.6472
G1 X87.360 Y102.035
G1 X85.995 Y100.705 E12.6789
G1 X85.995 Y100.169
G1 X87.360 Y101.499 E12.7106
G1 X87.360 Y100.963
G1 X85.995 Y99.633 E12.7423
G1 X85.995 Y99.097
G1 X87.360 Y100.428 E12.7740
G1 X87.360 Y99.892
G1 X85.995 Y98.562 E12.8057
G1 X85.995 Y98.026
G1 X87.360 Y99.356 E12.8374
G1 X87.359 Y98.820
G1 X85.995 Y97.490 E12.8691
G1 X85.995 Y96.954
G1 X87.359 Y98.285 E12.9008
G1 X87.359 Y97.749
G1 X85.995 Y96.419 E12.9325
G1 X85.995 Y95.883
G1 X87.359 Y97.213 E12.9642
G1 X87.359 Y96.677
G1 X85.995 Y95.347 E12.9958
G1 X85.995 Y94.812
G1 X87.359 Y96.141 E13.0275
G1 X87.359 Y95.606
G1 X85.995 Y94.276 E13.0592
G1 X85.995 Y93.740
G1 X87.359 Y95.070 E13.0909
G1 X87.359 Y94.534
G1 X85.995 Y93.204 E13.1226
G1 X85.995 Y92.669
G1 X87.359 Y93.998 E13.1543
G1 X87.359 Y93.463
G1 X85.995 Y92.133 E13.1860
G1 X85.995 Y91.597
G1 X87.359 Y92.927 E13.2176
G1 X87.359 Y92.391
G1 X85.995 Y91.061 E13.2493
G1 X85.995 Y90.526
G1 X87.359 Y91.855 E13.2810
G1 X87.359 Y91.320
G1 X85.995 Y89.990 E13.3127
G1 X85.995 Y89.454
G1 X87.359 Y90.784 E13.3444
G1 X87.359 Y90.248
G1 X85.995 Y88.918 E13.3761
G1 X85.995 Y88.383
G1 X87.359 Y89.712 E13.4077
G1 X87.359 Y89.177
G1 X85.995 Y87.847 E13.4394
G1 X85.995 Y87.311
G1 X87.359 Y88.641 E13.4711
G1 X87.359 Y88.105
G1 X85.995 Y86.775 E13.5028
G1 X85.995 Y86.240
G1 X87.359 Y87.569 E13.5345
G1 X87.359 Y87.034
G1 X85.995 Y85.704 E13.5661
G1 X85.995 Y85.168
G1 X87.359 Y86.498 E13.5978
G1 X87.359 Y85.962
G1 X85.995 Y84.632 E13.6295
G1 X86.068 Y84.168
G1 X87.359 Y85.426 E13.6595
G1 X87.359 Y84.890
G1 X86.618 Y84.168 E13.6767
G1 X87.168 Y84.168
G1 X87.359 Y84.355 E13.6811
G0 F4800 E12.6811
G0 X169.114 Y80.315 F10800
G0 X169.785 Y81.009
G0 X170.959 Y94.196
G0 F4800 E13.6811
;segType:Support
G1 X170.259 Y94.196 E13.6910 F5400
G1 X170.259 Y93.496 E13.7009
G1 X170.959 Y93.496 E13.7108
G0 F4800 E12.7108
G0 X170.292 Y91.238 F10800
G0 F4800 E13.7108
G1 X170.992 Y91.238 E13.7207 F5400
G1 X170.292 Y90.538 E13.7347
G1 X170.992 Y90.538 E13.7446
G0 F4800 E12.7446
G0 X170.207 Y87.652 F10800
G0 F4800 E13.7446
G1 X170.907 Y87.652 E13.7545 F5400
G1 X170.907 Y86.952 E13.7644
G1 X170.207 Y86.952 E13.7743
;segType:HShell
G0 F4800 E12.7743
G0 X168.608 Y84.793 F10800
G0 F4800 E13.7743
G1 X167.244 Y83.463 E13.8059 F3600
G1 X167.244 Y82.927
G1 X168.608 Y84.257 E13.8376
G1 X168.608 Y83.721
G1 X167.244 Y82.392 E13.8693
G1 X167.244 Y81.856
G1 X168.608 Y83.185 E13.9010
G1 X168.608 Y82.650
G1 X167.381 Y81.454 E13.9295
G1 X167.930 Y81.453
G1 X168.608 Y82.114 E13.9452
G1 X168.608 Y81.578
G1 X168.479 Y81.452 E13.9482
;segType:Perimeter
G0 X168.491 Y81.090 F10800
G1 X169.187 Y81.022 E13.9598 F2159
G1 X169.207 Y81.090 E13.9610
G1 X169.209 Y107.091 E14.3934
G1 X169.210 Y111.842 E14.4724
G1 X169.253 Y112.077 E14.4764
G1 X169.374 Y112.299 E14.4806
G1 X169.558 Y112.474 E14.4848
G1 X169.787 Y112.584 E14.4891
G1 X170.006 Y112.617 E14.4927
G1 X178.547 Y112.617 E14.6348
G1 X178.784 Y112.579 E14.6388
G1 X179.012 Y112.463 E14.6430
G1 X179.192 Y112.283 E14.6473
G1 X179.307 Y112.058 E14.6515
G1 X179.344 Y111.824 E14.6554
G1 X179.344 Y81.109 E15.1662
G1 X179.407 Y80.936 E15.1693
G1 X179.525 Y80.870 E15.1715
G1 X181.675 Y80.867 E15.2073
G1 X181.871 Y80.967 E15.2109
G1 X181.907 Y81.090 E15.2130
G1 X181.909 Y112.312 E15.7323
G1 X181.867 Y113.116 E15.7456
G1 X181.742 Y113.906 E15.7589
G1 X181.535 Y114.679 E15.7723
G1 X181.248 Y115.425 E15.7856
G1 X180.885 Y116.137 E15.7988
G1 X180.450 Y116.808 E15.8121
G1 X179.947 Y117.429 E15.8254
G1 X179.381 Y117.994 E15.8387
G1 X178.760 Y118.497 E15.8520
G1 X178.090 Y118.932 E15.8653
G1 X177.379 Y119.295 E15.8786
G1 X176.633 Y119.581 E15.8919
G1 X175.862 Y119.788 E15.9051
G1 X175.074 Y119.912 E15.9184
G1 X174.276 Y119.954 E15.9317
G1 X173.479 Y119.912 E15.9450
G1 X172.691 Y119.788 E15.9582
G1 X171.919 Y119.581 E15.9715
G1 X171.174 Y119.295 E15.9848
G1 X170.462 Y118.932 E15.9981
G1 X169.792 Y118.497 E16.0114
G1 X169.171 Y117.994 E16.0247
G1 X168.606 Y117.429 E16.0380
G1 X168.103 Y116.808 E16.0512
G1 X167.668 Y116.137 E16.0645
G1 X167.305 Y115.425 E16.0778
G1 X167.018 Y114.679 E16.0911
G1 X166.811 Y113.906 E16.1044
G1 X166.686 Y113.116 E16.1177
G1 X166.644 Y112.312 E16.1311
G1 X166.644 Y81.109 E16.6500
G1 X166.707 Y80.936 E16.6531
G1 X166.825 Y80.870 E16.6553
G1 X168.975 Y80.867 E16.6911
G1 X169.119 Y80.941 E16.6938
G1 X168.912 Y81.592
;segType:Loop
G0 X168.808 Y82.004 F10800
G1 X168.809 Y107.091 E17.1110 F3600
G1 X168.810 Y111.877 E17.1906
G1 X168.871 Y112.206 E17.1961
G1 X169.050 Y112.536 E17.2024
G1 X169.325 Y112.797 E17.2087
G1 X169.666 Y112.960 E17.2150
G1 X169.975 Y113.007 E17.2202
G1 X178.579 Y113.007 E17.3633
G1 X178.912 Y112.954 E17.3689
G1 X179.254 Y112.780 E17.3752
G1 X179.522 Y112.511 E17.3816
G1 X179.693 Y112.177 E17.3878
G1 X179.744 Y111.853 E17.3932
G1 X179.744 Y81.260 E17.9020
G1 X181.507 Y81.257 E17.9314
G1 X181.509 Y112.302 E18.4476
G1 X181.468 Y113.076 E18.4605
G1 X181.349 Y113.826 E18.4732
G1 X181.153 Y114.561 E18.4858
G1 X180.880 Y115.270 E18.4984
G1 X180.536 Y115.946 E18.5111
G1 X180.123 Y116.582 E18.5237
G1 X179.645 Y117.171 E18.5363
G1 X179.110 Y117.707 E18.5489
G1 X178.521 Y118.184 E18.5615
G1 X177.886 Y118.596 E18.5741
G1 X177.213 Y118.940 E18.5866
G1 X176.507 Y119.211 E18.5992
G1 X175.777 Y119.406 E18.6118
G1 X175.031 Y119.524 E18.6243
G1 X174.276 Y119.564 E18.6369
G1 X173.522 Y119.524 E18.6495
G1 X172.776 Y119.406 E18.6620
G1 X172.046 Y119.211 E18.6746
G1 X171.340 Y118.940 E18.6872
G1 X170.666 Y118.596 E18.6998
G1 X170.032 Y118.184 E18.7123
G1 X169.443 Y117.707 E18.7249
G1 X168.907 Y117.171 E18.7375
G1 X168.430 Y116.582 E18.7501
G1 X168.017 Y115.946 E18.7628
G1 X167.672 Y115.269 E18.7754
G1 X167.400 Y114.561 E18.7880
G1 X167.203 Y113.827 E18.8007
G1 X167.084 Y113.076 E18.8133
G1 X167.044 Y112.302 E18.8262
G1 X167.044 Y81.260 E19.3424
G1 X168.808 Y81.257 E19.3718
G1 X168.808 Y81.814 E19.3810
;segType:HShell
G0 X168.608 Y85.329 F10800
G1 X167.244 Y83.999 E19.4127 F3600
G1 X167.244 Y84.535
G1 X168.608 Y85.864 E19.4444
G1 X168.608 Y86.400
G1 X167.244 Y85.070 E19.4761
G1 X167.244 Y85.606
G1 X168.608 Y86.936 E19.5078
G1 X168.608 Y87.472
G1 X167.244 Y86.142 E19.5394
G1 X167.244 Y86.678
G1 X168.608 Y88.007 E19.5711
G1 X168.608 Y88.543
G1 X167.244 Y87.213 E19.6028
G1 X167.244 Y87.749
G1 X168.608 Y89.079 E19.6345
G1 X168.608 Y89.615
G1 X167.244 Y88.285 E19.6662
G1 X167.244 Y88.820
G1 X168.608 Y90.150 E19.6979
G1 X168.608 Y90.686
G1 X167.244 Y89.356 E19.7295
G1 X167.244 Y89.892
G1 X168.608 Y91.222 E19.7612
G1 X168.608 Y91.758
G1 X167.244 Y90.428 E19.7929
G1 X167.244 Y90.963
G1 X168.608 Y92.294 E19.8246
G1 X168.608 Y92.829
G1 X167.244 Y91.499 E19.8563
G1 X167.244 Y92.035
G1 X168.608 Y93.365 E19.8880
G1 X168.608 Y93.901
G1 X167.244 Y92.571 E19.9197
G1 X167.244 Y93.106
G1 X168.608 Y94.437 E19.9514
G1 X168.608 Y94.972
G1 X167.244 Y93.642 E19.9831
G1 X167.244 Y94.178
G1 X168.608 Y95.508 E20.0148
G1 X168.608 Y96.044
G1 X167.244 Y94.714 E20.0465
G1 X167.244 Y95.249
G1 X168.608 Y96.580 E20.0782
G1 X168.608 Y97.115
G1 X167.244 Y95.785 E20.1098
G1 X167.244 Y96.321
G1 X168.608 Y97.651 E20.1415
G1 X168.608 Y98.187
G1 X167.244 Y96.857 E20.1732
G1 X167.244 Y97.392
G1 X168.609 Y98.723 E20.2049
G1 X168.609 Y99.258
G1 X167.244 Y97.928 E20.2366
G1 X167.244 Y98.464
G1 X168.609 Y99.794 E20.2683
G1 X168.609 Y100.330
G1 X167.244 Y99.000 E20.3000
G1 X167.244 Y99.535
G1 X168.609 Y100.866 E20.3317
G1 X168.609 Y101.402
G1 X167.244 Y100.071 E20.3634
G1 X167.244 Y100.607
G1 X168.609 Y101.937 E20.3951
G1 X168.609 Y102.473
G1 X167.244 Y101.143 E20.4268
G1 X167.244 Y101.678
G1 X168.609 Y103.009 E20.4585
G1 X168.609 Y103.545
G1 X167.244 Y102.214 E20.4902
G1 X167.244 Y102.750
G1 X168.609 Y104.080 E20.5219
G1 X168.609 Y104.616
G1 X167.244 Y103.286 E20.5536
G1 X167.244 Y103.821
G1 X168.609 Y105.152 E20.5853
G1 X168.609 Y105.688
G1 X167.244 Y104.357 E20.6170
G1 X167.244 Y104.893
G1 X168.609 Y106.223 E20.6488
G1 X168.609 Y106.759
G1 X167.244 Y105.428 E20.6805
G1 X167.244 Y105.964
G1 X168.609 Y107.295 E20.7122
G1 X168.609 Y107.831
G1 X167.244 Y106.500 E20.7439
G1 X167.244 Y107.036
G1 X168.609 Y108.367 E20.7756
G1 X168.609 Y108.903
G1 X167.244 Y107.571 E20.8073
G1 X167.244 Y108.107
G1 X168.610 Y109.439 E20.8390
G1 X168.610 Y109.974
G1 X167.244 Y108.643 E20.8708
G1 X167.244 Y109.179
G1 X168.610 Y110.510 E20.9025
G1 X168.610 Y111.046
G1 X167.244 Y109.714 E20.9342
G1 X167.244 Y110.250
G1 X168.610 Y111.582 E20.9659
G1 X168.660 Y112.167
G1 X167.244 Y110.786 E20.9988
G1 X167.244 Y111.322
G1 X175.397 Y119.269 E21.1882
G1 X174.915 Y119.335
G1 X167.244 Y111.857 E21.3664
G1 X167.249 Y112.398
G1 X174.394 Y119.362 E21.5323
G1 X173.826 Y119.345
G1 X167.279 Y112.963 E21.6843
G1 X167.368 Y113.585
G1 X173.207 Y119.277 E21.8199
G1 X172.509 Y119.132
G1 X167.532 Y114.281 E21.9355
G1 X167.820 Y115.098
G1 X171.680 Y118.861 E22.0252
G0 X170.526 Y118.271 F10800
G1 X168.448 Y116.246 E22.0734 F3600
G0 X169.678 Y113.159 F10800
G1 X175.858 Y119.182 E22.2169 F3600
G1 X176.289 Y119.067
G1 X170.272 Y113.201 E22.3567
G1 X170.821 Y113.201
G1 X176.697 Y118.928 E22.4931
G1 X177.091 Y118.777
G1 X171.371 Y113.201 E22.6259
G1 X171.921 Y113.201
G1 X177.455 Y118.596 E22.7545
G1 X177.813 Y118.409
G1 X172.470 Y113.201 E22.8786
G1 X173.020 Y113.201
G1 X178.143 Y118.195 E22.9975
G1 X178.467 Y117.975
G1 X173.569 Y113.201 E23.1113
G1 X174.119 Y113.201
G1 X178.767 Y117.731 E23.2192
G1 X179.058 Y117.480
G1 X174.669 Y113.201 E23.3211
G1 X175.218 Y113.201
G1 X179.329 Y117.208 E23.4166
G1 X179.589 Y116.926
G1 X175.768 Y113.201 E23.5053
G1 X176.318 Y113.201
G1 X179.832 Y116.627 E23.5869
G1 X180.061 Y116.314
G1 X176.867 Y113.201 E23.6611
G1 X177.417 Y113.201
G1 X180.274 Y115.986 E23.7274
G1 X180.469 Y115.640
G1 X177.967 Y113.201 E23.7855
G1 X178.516 Y113.201
G1 X180.651 Y115.282 E23.8351
G1 X180.809 Y114.900
G1 X178.995 Y113.132 E23.8772
G1 X179.356 Y112.948
G1 X180.959 Y114.510 E23.9144
G1 X181.073 Y114.086
G1 X179.632 Y112.681 E23.9479
G1 X179.832 Y112.341
G1 X181.175 Y113.650 E23.9791
G1 X181.249 Y113.186
G1 X179.937 Y111.908 E24.0096
G1 X179.943 Y111.378
G1 X181.288 Y112.689 E24.0408
G1 X181.309 Y112.173
G1 X179.943 Y110.842 E24.0725
G1 X179.943 Y110.307
G1 X181.309 Y111.637 E24.1042
G1 X181.309 Y111.102
G1 X179.943 Y109.771 E24.1359
G1 X179.943 Y109.235
G1 X181.309 Y110.566 E24.1676
G1 X181.309 Y110.030
G1 X179.943 Y108.699 E24.1993
G1 X179.943 Y108.164
G1 X181.309 Y109.494 E24.2310
G1 X181.309 Y108.959
G1 X179.943 Y107.628 E24.2627
G1 X179.943 Y107.092
G1 X181.309 Y108.423 E24.2945
G1 X181.309 Y107.887
G1 X179.943 Y106.556 E24.3262
G1 X179.943 Y106.021
G1 X181.309 Y107.351 E24.3579
G1 X181.309 Y106.815
G1 X179.943 Y105.485 E24.3896
G1 X179.943 Y104.949
G1 X181.309 Y106.280 E24.4213
G1 X181.309 Y105.744
G1 X179.943 Y104.413 E24.4530
G1 X179.943 Y103.878
G1 X181.309 Y105.208 E24.4847
G1 X181.309 Y104.672
G1 X179.943 Y103.342 E24.5164
G1 X179.943 Y102.806
G1 X181.309 Y104.137 E24.5481
G1 X181.309 Y103.601
G1 X179.943 Y102.270 E24.5798
G1 X179.943 Y101.735
G1 X181.309 Y103.065 E24.6115
G1 X181.309 Y102.529
G1 X179.943 Y101.199 E24.6432
G1 X179.943 Y100.663
G1 X181.309 Y101.994 E24.6749
G1 X181.308 Y101.458
G1 X179.943 Y100.127 E24.7066
G1 X179.943 Y99.592
G1 X181.308 Y100.922 E24.7383
G1 X181.308 Y100.386
G1 X179.943 Y99.056 E24.7700
G1 X179.943 Y98.520
G1 X181.308 Y99.851 E24.8017
G1 X181.308 Y99.315
G1 X179.943 Y97.984 E24.8334
G1 X179.943 Y97.449
G1 X181.308 Y98.779 E24.8651
G1 X181.308 Y98.243
G1 X179.943 Y96.913 E24.8968
G1 X179.943 Y96.377
G1 X181.308 Y97.707 E24.9285
G1 X181.308 Y97.172
G1 X179.943 Y95.841 E24.9601
G1 X179.943 Y95.306
G1 X181.308 Y96.636 E24.9918
G1 X181.308 Y96.100
G1 X179.943 Y94.770 E25.0235
G1 X179.943 Y94.234
G1 X181.308 Y95.564 E25.0552
G1 X181.308 Y95.029
G1 X179.943 Y93.699 E25.0869
G1 X179.943 Y93.163
G1 X181.308 Y94.493 E25.1186
G1 X181.308 Y93.957
G1 X179.943 Y92.627 E25.1503
G1 X179.944 Y92.091
G1 X181.308 Y93.421 E25.1820
G1 X181.308 Y92.886
G1 X179.943 Y91.556 E25.2137
G1 X179.944 Y91.020
G1 X181.308 Y92.350 E25.2454
G1 X181.308 Y91.814
G1 X179.943 Y90.484 E25.2771
G1 X179.944 Y89.948
G1 X181.308 Y91.278 E25.3087
G1 X181.308 Y90.743
G1 X179.943 Y89.413 E25.3404
G1 X179.944 Y88.877
G1 X181.308 Y90.207 E25.3721
G1 X181.308 Y89.671
G1 X179.943 Y88.341 E25.4038
G1 X179.944 Y87.805
G1 X181.308 Y89.135 E25.4355
G1 X181.308 Y88.599
G1 X179.943 Y87.270 E25.4672
G1 X179.944 Y86.734
G1 X181.308 Y88.064 E25.4989
G1 X181.308 Y87.528
G1 X179.943 Y86.198 E25.5305
G1 X179.944 Y85.662
G1 X181.308 Y86.992 E25.5622
G1 X181.308 Y86.456
G1 X179.943 Y85.127 E25.5939
G1 X179.944 Y84.591
G1 X181.308 Y85.921 E25.6256
G1 X181.308 Y85.385
G1 X179.943 Y84.055 E25.6573
G1 X179.944 Y83.519
G1 X181.308 Y84.849 E25.6889
G1 X181.308 Y84.313
G1 X179.943 Y82.984 E25.7206
G1 X179.944 Y82.448
G1 X181.308 Y83.778 E25.7523
G1 X181.308 Y83.242
G1 X179.943 Y81.912 E25.7840
G1 X180.023 Y81.454
G1 X181.308 Y82.706 E25.8138
G1 X181.308 Y82.170
G1 X180.572 Y81.453 E25.8309
G1 X181.121 Y81.453
G1 X181.308 Y81.634 E25.8352
; ------------------------------------
; Layer #2
; ------------------------------------
G21 ; mm
G90 ; abs
G92 E0 ; reset extr
M106 S255
;segType:Support
G0 F4800 E-1.0000
G0 F300 Z1.800
G0 X178.485 Y82.173 F10800
G0 F4800 E0.0000
G1 X177.921 Y82.173 E0.0080 F5400
G1 X178.485 Y82.873 E0.0207
G1 X177.921 Y82.873 E0.0287
G1 X177.328 Y83.413 E0.0400
G1 X176.628 Y83.413 E0.0499
G0 F4800 E-0.9501
G0 X175.785 Y81.378 F10800
G0 F4800 E0.0499
G1 X175.085 Y81.378 E0.0598 F5400
G1 X175.785 Y82.078 E0.0738
G1 X175.085 Y82.078 E0.0837
G1 X174.721 Y82.411 E0.0906
G1 X174.021 Y82.411 E0.1005
G0 F4800 E-0.8995
G0 X173.198 Y81.343 F10800
G0 F4800 E0.1005
G1 X172.498 Y81.343 E0.1104 F5400
G1 X172.498 Y82.043 E0.1203
G1 X173.198 Y82.043 E0.1302
G0 F4800 E-0.8698
G0 X174.021 Y83.111 F10800
G0 F4800 E0.1302
G1 X174.721 Y83.111 E0.1401 F5400
G0 F4800 E-0.8599
G0 X176.628 Y84.113 F10800
G0 F4800 E0.1401
G1 X177.328 Y84.113 E0.1500 F5400
G0 F4800 E-0.8500
G0 X178.357 Y87.193 F10800
G0 F4800 E0.1500
G1 X177.657 Y87.193 E0.1599 F5400
G1 X177.657 Y87.893 E0.1698
G1 X178.357 Y87.893 E0.1797
G0 F4800 E-0.8203
G0 X178.321 Y90.799 F10800
G0 F4800 E0.1797
G1 X177.621 Y90.799 E0.1896 F5400
G1 X177.621 Y91.499 E0.1995
G1 X178.321 Y91.499 E0.2094
G0 F4800 E-0.7906
G0 X177.697 Y93.433 F10800
G0 F4800 E0.2094
G1 X178.397 Y93.433 E0.2193 F5400
G1 X178.397 Y94.133 E0.2292
G1 X177.697 Y94.133 E0.2391
G0 F4800 E-0.7609
G0 X177.717 Y96.717 F10800
G0 F4800 E0.2391
G1 X178.417 Y96.717 E0.2490 F5400
G1 X178.417 Y97.417 E0.2589
G1 X177.717 Y97.417 E0.2688
G0 F4800 E-0.7312
G0 X178.267 Y99.564 F10800
G0 F4800 E0.2688
G1 X177.567 Y99.564 E0.2786 F5400
G1 X177.567 Y100.264 E0.2885
G1 X178.267 Y100.264 E0.2984
G0 F4800 E-0.7016
G0 X177.678 Y102.191 F10800
G0 F4800 E0.2984
G1 X178.378 Y102.191 E0.3083 F5400
G1 X178.378 Y102.891 E0.3182
G1 X177.678 Y102.891 E0.3281
G0 F4800 E-0.6719
G0 X178.485 Y104.975 F10800
G0 F4800 E0.3281
G1 X177.811 Y104.975 E0.3376 F5400
G1 X177.811 Y105.675 E0.3475
G1 X178.485 Y105.675 E0.3571
G0 F4800 E-0.6429
G0 X177.671 Y107.464 F10800
G0 F4800 E0.3571
G1 X178.371 Y107.464 E0.3669 F5400
G1 X178.371 Y108.164 E0.3768
G1 X177.671 Y108.164 E0.3867
G1 X176.941 Y108.871 E0.4011
G1 X176.241 Y108.871 E0.4110
G1 X176.241 Y109.571 E0.4209
G1 X176.941 Y109.571 E0.4308
G0 F4800 E-0.5692
G0 X177.619 Y110.480 F10800
G0 F4800 E0.4308
G1 X178.319 Y110.480 E0.4407 F5400
G1 X177.619 Y111.180 E0.4547
G1 X178.319 Y111.180 E0.4646
G0 F4800 E-0.5354
G0 X176.085 Y110.612 F10800
G0 F4800 E0.4646
G1 X175.385 Y110.612 E0.4745 F5400
G1 X176.085 Y111.312 E0.4885
G1 X175.385 Y111.312 E0.4984
G0 F4800 E-0.5016
G0 X173.472 Y110.593 F10800
G0 F4800 E0.4984
G1 X172.772 Y110.593 E0.5083 F5400
G1 X173.472 Y111.293 E0.5222
G1 X172.772 Y111.293 E0.5321
G0 F4800 E-0.4679
G0 X172.601 Y109.538 F10800
G0 F4800 E0.5321
G1 X171.901 Y109.538 E0.5420 F5400
G1 X172.601 Y108.838 E0.5560
G1 X170.176 Y108.778 E0.5903
G1 X170.176 Y108.078 E0.6002
G1 X170.876 Y108.078 E0.6101
G0 F4800 E-0.3899
G0 X170.081 Y105.693 F10800
G0 F4800 E0.6101
G1 X170.781 Y105.693 E0.6200 F5400
G1 X170.781 Y104.993 E0.6299
G1 X170.081 Y104.993 E0.6398
G0 F4800 E-0.3602
G0 X171.217 Y110.598 F10800
G0 F4800 E0.6398
G1 X170.517 Y110.598 E0.6497 F5400
G1 X170.517 Y111.298 E0.6596
G1 X171.217 Y111.298 E0.6695
G0 F4800 E-0.3305
G0 X169.457 Y81.048 F10800
G0 X169.280 Y80.716
G0 X166.639 Y80.674
G0 X87.770 Y83.338
G0 X84.337 Y100.297
G0 F4800 E0.6695
G1 X83.637 Y100.297 E0.6794 F5400
G1 X83.637 Y100.997 E0.6893
G1 X84.337 Y100.997 E0.6992
G0 F4800 E-0.3008
G0 X84.131 Y103.539 F10800
G0 F4800 E0.6992
G1 X83.431 Y103.539 E0.7091 F5400
G1 X83.431 Y104.239 E0.7190
G1 X84.131 Y104.239 E0.7288
G0 F4800 E-0.2712
G0 X84.355 Y107.275 F10800
G0 F4800 E0.7288
G1 X83.655 Y107.275 E0.7387 F5400
G1 X84.355 Y107.975 E0.7527
G1 X83.655 Y107.975 E0.7626
G0 F4800 E-0.2374
G0 X84.508 Y109.878 F10800
G0 F4800 E0.7626
G1 X83.808 Y109.878 E0.7725 F5400
G1 X84.508 Y110.578 E0.7865
