; GCode generated by CraftWare

G28 X0 Y0
G28 Z0

M190 S60 ;set bed temp (wait)
M109 S215 ;set head temp (wait)

; ------------------------------------
; Raft Layer #0
; ------------------------------------
G21 ; mm
G90 ; abs
G92 E0 ; reset extr
M106 S0
;segType:Raft
G0 F4800 E-1.0000
G0 F300 Z0.300
G0 X0.000 Y0.000 F10800
G0 F4800 E0.0000
G1 X132.975 Y120.628 E8.9571 F600
G1 X132.975 Y79.493 E11.0094
G1 X136.615 Y77.673 E11.2125
G1 X136.615 Y122.570 E13.4524
G1 X140.256 Y122.570 E13.6340
G1 X140.256 Y77.673 E15.8739
G1 X143.896 Y77.673 E16.0556
G1 X143.896 Y122.570 E18.2955
G1 X147.537 Y122.570 E18.4771
G1 X147.537 Y77.673 E20.7171
G1 X151.178 Y77.673 E20.8987
G1 X151.178 Y122.570 E23.1386
G1 X154.818 Y122.570 E23.3203
G1 X154.818 Y77.673 E25.5602
G1 X158.459 Y77.673 E25.7418
G1 X158.459 Y122.570 E27.9817
G1 X162.099 Y122.570 E28.1634
G1 X162.099 Y77.673 E30.4033
G1 X165.740 Y77.673 E30.5849
G1 X165.740 Y122.570 E32.8249
G1 X169.380 Y122.570 E33.0065
G1 X169.380 Y77.673 E35.2464
G1 X173.021 Y77.673 E35.4280
G1 X173.021 Y122.570 E37.6680
G1 X176.662 Y120.871 E37.8684
G1 X176.662 Y79.250 E39.9449



; ------------------------------------
; Raft Layer #1
; ------------------------------------
G21 ; mm
G90 ; abs
G92 E0 ; reset extr
M106 S0
;segType:Raft
G0 F4800 E-1.0000
G0 F300 Z0.600
G0 X176.943 Y79.533 F10800
G0 F4800 E0.0000
G1 X132.815 Y79.533 E2.2016 F3600
G1 X134.027 Y78.318 E2.2872
G1 X175.731 Y78.318 E4.3678
G1 X177.307 Y80.748 E4.5123
G1 X132.451 Y80.748 E6.7501
G1 X132.451 Y81.962 E6.8107
G1 X177.307 Y81.962 E9.0486
G1 X177.307 Y83.177 E9.1092
G1 X132.451 Y83.177 E11.3470
G1 X132.451 Y84.392 E11.4076
G1 X177.307 Y84.392 E13.6455
G1 X177.307 Y85.606 E13.7061
G1 X132.451 Y85.606 E15.9439
G1 X132.451 Y86.821 E16.0045
G1 X177.307 Y86.821 E18.2424
G1 X177.307 Y88.035 E18.3030
G1 X132.451 Y88.035 E20.5408
G1 X132.451 Y89.250 E20.6014
G1 X177.307 Y89.250 E22.8393
G1 X177.307 Y90.465 E22.8999
G1 X132.451 Y90.465 E25.1377
G1 X132.451 Y91.679 E25.1983
G1 X177.307 Y91.679 E27.4362
G1 X177.307 Y92.894 E27.4968
G1 X132.451 Y92.894 E29.7347
G1 X132.451 Y94.109 E29.7953
G1 X177.307 Y94.109 E32.0331
G1 X177.307 Y95.323 E32.0937
G1 X132.451 Y95.323 E34.3316
G1 X132.451 Y96.538 E34.3922
G1 X177.307 Y96.538 E36.6300
G1 X177.307 Y97.753 E36.6906
G1 X132.451 Y97.753 E38.9285
G1 X132.451 Y98.967 E38.9891
G1 X177.307 Y98.967 E41.2269
G1 X177.307 Y100.182 E41.2875
G1 X132.451 Y100.182 E43.5254
G1 X132.451 Y101.397 E43.5860
G1 X177.307 Y101.397 E45.8238
G1 X177.307 Y102.611 E45.8844
G1 X132.451 Y102.611 E48.1223
G1 X132.451 Y103.826 E48.1829
G1 X177.307 Y103.826 E50.4207
G1 X177.307 Y105.041 E50.4813
G1 X132.451 Y105.041 E52.7192
G1 X132.451 Y106.255 E52.7798
G1 X177.307 Y106.255 E55.0177
G1 X177.307 Y107.470 E55.0783
G1 X132.451 Y107.470 E57.3161
G1 X132.451 Y108.685 E57.3767
G1 X177.307 Y108.685 E59.6146
G1 X177.307 Y109.899 E59.6752
G1 X132.451 Y109.899 E61.9130
G1 X132.451 Y111.114 E61.9736
G1 X177.307 Y111.114 E64.2115
G1 X177.307 Y112.329 E64.2721
G1 X132.451 Y112.329 E66.5099
G1 X132.451 Y113.543 E66.5705
G1 X177.307 Y113.543 E68.8084
G1 X177.307 Y114.758 E68.8690
G1 X132.451 Y114.758 E71.1068
G1 X132.451 Y115.972 E71.1674
G1 X177.307 Y115.972 E73.4053
G1 X177.307 Y117.187 E73.4659
G1 X132.451 Y117.187 E75.7037
G1 X132.451 Y118.402 E75.7643
G1 X177.307 Y118.402 E78.0022
G1 X177.307 Y119.616 E78.0628
G1 X132.451 Y119.616 E80.3007
G1 X133.178 Y120.831 E80.3713
G1 X176.579 Y120.831 E82.5366
G1 X175.367 Y122.046 E82.6222
G1 X134.391 Y122.046 E84.6665



; ------------------------------------
; Raft Layer #2
; ------------------------------------
G21 ; mm
G90 ; abs
G92 E0 ; reset extr
M106 S0
;segType:Raft
G0 F4800 E-1.0000
G0 F300 Z0.900
G0 X132.611 Y79.857 F10800
G0 F4800 E0.0000
G1 X132.611 Y120.264 E2.0159 F3600
G1 X132.975 Y120.628 E2.0416
G1 X132.975 Y79.493 E4.0939
G1 X133.339 Y79.129 E4.1196
G1 X133.339 Y120.992 E6.2082
G1 X133.703 Y121.357 E6.2338
G1 X133.703 Y78.765 E8.3587
G1 X134.067 Y78.401 E8.3844
G1 X134.067 Y121.721 E10.5457
G1 X134.431 Y122.085 E10.5713
G1 X134.431 Y78.037 E12.7689
G1 X134.795 Y77.673 E12.7946
G1 X134.795 Y122.449 E15.0285
G1 X135.159 Y122.570 E15.0476
G1 X135.159 Y77.673 E17.2875
G1 X135.523 Y77.673 E17.3057
G1 X135.523 Y122.570 E19.5456
G1 X135.887 Y122.570 E19.5638
G1 X135.887 Y77.673 E21.8037
G1 X136.251 Y77.673 E21.8219
G1 X136.251 Y122.570 E24.0618
G1 X136.615 Y122.570 E24.0800
G1 X136.615 Y77.673 E26.3199
G1 X136.979 Y77.673 E26.3381
G1 X136.979 Y122.570 E28.5780
G1 X137.343 Y122.570 E28.5962
G1 X137.343 Y77.673 E30.8361
G1 X137.708 Y77.673 E30.8543
G1 X137.708 Y122.570 E33.0942
G1 X138.072 Y122.570 E33.1124
G1 X138.072 Y77.673 E35.3523
G1 X138.436 Y77.673 E35.3704
G1 X138.436 Y122.570 E37.6104
G1 X138.800 Y122.570 E37.6285
G1 X138.800 Y77.673 E39.8685
G1 X139.164 Y77.673 E39.8866
G1 X139.164 Y122.570 E42.1266
G1 X139.528 Y122.570 E42.1447
G1 X139.528 Y77.673 E44.3846
G1 X139.892 Y77.673 E44.4028
G1 X139.892 Y122.570 E46.6427
G1 X140.256 Y122.570 E46.6609
G1 X140.256 Y77.673 E48.9008
G1 X140.620 Y77.673 E48.9190
G1 X140.620 Y122.570 E51.1589
G1 X140.984 Y122.570 E51.1771
G1 X140.984 Y77.673 E53.4170
G1 X141.348 Y77.673 E53.4352
G1 X141.348 Y122.570 E55.6751
G1 X141.712 Y122.570 E55.6933
G1 X141.712 Y77.673 E57.9332
G1 X142.076 Y77.673 E57.9514
G1 X142.076 Y122.570 E60.1913
G1 X142.440 Y122.570 E60.2094
G1 X142.440 Y77.673 E62.4494
G1 X142.804 Y77.673 E62.4675
G1 X142.804 Y122.570 E64.7075
G1 X143.168 Y122.570 E64.7256
G1 X143.168 Y77.673 E66.9656
G1 X143.532 Y77.673 E66.9837
G1 X143.532 Y122.570 E69.2237
G1 X143.897 Y122.570 E69.2418
G1 X143.897 Y77.673 E71.4818
G1 X144.261 Y77.673 E71.4999
G1 X144.261 Y122.570 E73.7398
G1 X144.625 Y122.570 E73.7580
G1 X144.625 Y77.673 E75.9979
G1 X144.989 Y77.673 E76.0161
G1 X144.989 Y122.570 E78.2560
G1 X145.353 Y122.570 E78.2742
G1 X145.353 Y77.673 E80.5141
G1 X145.717 Y77.673 E80.5323
G1 X145.717 Y122.570 E82.7722
G1 X146.081 Y122.570 E82.7904
G1 X146.081 Y77.673 E85.0303
G1 X146.445 Y77.673 E85.0485
G1 X146.445 Y122.570 E87.2884
G1 X146.809 Y122.570 E87.3066
G1 X146.809 Y77.673 E89.5465
G1 X147.173 Y77.673 E89.5647
G1 X147.173 Y122.570 E91.8046
G1 X147.537 Y122.570 E91.8228
G1 X147.537 Y77.673 E94.0627
G1 X147.901 Y77.673 E94.0809
G1 X147.901 Y122.570 E96.3208
G1 X148.265 Y122.570 E96.3390
G1 X148.265 Y77.673 E98.5789
G1 X148.629 Y77.673 E98.5971
G1 X148.629 Y122.570 E100.8370
G1 X148.993 Y122.570 E100.8552
G1 X148.993 Y77.673 E103.0951
G1 X149.357 Y77.673 E103.1132
G1 X149.357 Y122.570 E105.3532
G1 X149.721 Y122.570 E105.3713
G1 X149.721 Y77.673 E107.6113
G1 X150.086 Y77.673 E107.6294
G1 X150.086 Y122.570 E109.8694
G1 X150.450 Y122.570 E109.8875
G1 X150.450 Y77.673 E112.1275
G1 X150.814 Y77.673 E112.1456
G1 X150.814 Y122.570 E114.3856
G1 X151.178 Y122.570 E114.4037
G1 X151.178 Y77.673 E116.6437
G1 X151.542 Y77.673 E116.6618
G1 X151.542 Y122.570 E118.9017
G1 X151.906 Y122.570 E118.9199
G1 X151.906 Y77.673 E121.1598
G1 X152.270 Y77.673 E121.1780
G1 X152.270 Y122.570 E123.4179
G1 X152.634 Y122.570 E123.4361
G1 X152.634 Y77.673 E125.6760
G1 X152.998 Y77.673 E125.6942
G1 X152.998 Y122.570 E127.9341
G1 X153.362 Y122.570 E127.9523
G1 X153.362 Y77.673 E130.1922
G1 X153.726 Y77.673 E130.2104
G1 X153.726 Y122.570 E132.4503
G1 X154.090 Y122.570 E132.4685
G1 X154.090 Y77.673 E134.7084
G1 X154.454 Y77.673 E134.7266
G1 X154.454 Y122.570 E136.9665
G1 X154.818 Y122.570 E136.9846
G1 X154.818 Y77.673 E139.2246
G1 X155.182 Y77.673 E139.2427
G1 X155.182 Y122.570 E141.4827
G1 X155.546 Y122.570 E141.5008
G1 X155.546 Y77.673 E143.7407
G1 X155.910 Y77.673 E143.7589
G1 X155.910 Y122.570 E145.9988
G1 X156.275 Y122.570 E146.0170
G1 X156.275 Y77.673 E148.2569
G1 X156.639 Y77.673 E148.2751
G1 X156.639 Y122.570 E150.5150
G1 X157.003 Y122.570 E150.5332
G1 X157.003 Y77.673 E152.7731
G1 X157.367 Y77.673 E152.7913
G1 X157.367 Y122.570 E155.0312
G1 X157.731 Y122.570 E155.0493
G1 X157.731 Y77.673 E157.2893
G1 X158.095 Y77.673 E157.3074
G1 X158.095 Y122.570 E159.5474
G1 X158.459 Y122.570 E159.5655
G1 X158.459 Y77.673 E161.8054
G1 X158.823 Y77.673 E161.8236
G1 X158.823 Y122.570 E164.0635
G1 X159.187 Y122.570 E164.0817
G1 X159.187 Y77.673 E166.3216
G1 X159.551 Y77.673 E166.3398
G1 X159.551 Y122.570 E168.5797
G1 X159.915 Y122.570 E168.5979
G1 X159.915 Y77.673 E170.8378
G1 X160.279 Y77.673 E170.8559
G1 X160.279 Y122.570 E173.0959
G1 X160.643 Y122.570 E173.1140
G1 X160.643 Y77.673 E175.3540
G1 X161.007 Y77.673 E175.3721
G1 X161.007 Y122.570 E177.6121
G1 X161.371 Y122.570 E177.6302
G1 X161.371 Y77.673 E179.8701
G1 X161.735 Y77.673 E179.8883
G1 X161.735 Y122.570 E182.1282
G1 X162.099 Y122.570 E182.1464
G1 X162.099 Y77.673 E184.3863
G1 X162.464 Y77.673 E184.4045
G1 X162.464 Y122.570 E186.6444
G1 X162.828 Y122.570 E186.6626
G1 X162.828 Y77.673 E188.9025
G1 X163.192 Y77.673 E188.9206
G1 X163.192 Y122.570 E191.1606
G1 X163.556 Y122.570 E191.1787
G1 X163.556 Y77.673 E193.4187
G1 X163.920 Y77.673 E193.4368
G1 X163.920 Y122.570 E195.6767
G1 X164.284 Y122.570 E195.6949
G1 X164.284 Y77.673 E197.9348
G1 X164.648 Y77.673 E197.9530
G1 X164.648 Y122.570 E200.1929
G1 X165.012 Y122.570 E200.2111
G1 X165.012 Y77.673 E202.4510
G1 X165.376 Y77.673 E202.4692
G1 X165.376 Y122.570 E204.7091
G1 X165.740 Y122.570 E204.7273
G1 X165.740 Y77.673 E206.9672
G1 X166.104 Y77.673 E206.9853
G1 X166.104 Y122.570 E209.2253
G1 X166.468 Y122.570 E209.2434
G1 X166.468 Y77.673 E211.4834
G1 X166.832 Y77.673 E211.5015
G1 X166.832 Y122.570 E213.7415
G1 X167.196 Y122.570 E213.7596
G1 X167.196 Y77.673 E215.9995
G1 X167.560 Y77.673 E216.0177
G1 X167.560 Y122.570 E218.2576
G1 X167.924 Y122.570 E218.2758
G1 X167.924 Y77.673 E220.5157
G1 X168.288 Y77.673 E220.5339
G1 X168.288 Y122.570 E222.7738
G1 X168.652 Y122.570 E222.7920
G1 X168.652 Y77.673 E225.0319
G1 X169.017 Y77.673 E225.0500
G1 X169.017 Y122.570 E227.2900
G1 X169.381 Y122.570 E227.3081
G1 X169.381 Y77.673 E229.5481
G1 X169.745 Y77.673 E229.5662
G1 X169.745 Y122.570 E231.8061
G1 X170.109 Y122.570 E231.8243
G1 X170.109 Y77.673 E234.0642
G1 X170.473 Y77.673 E234.0824
G1 X170.473 Y122.570 E236.3223
G1 X170.837 Y122.570 E236.3405
G1 X170.837 Y77.673 E238.5804
G1 X171.201 Y77.673 E238.5986
G1 X171.201 Y122.570 E240.8385
G1 X171.565 Y122.570 E240.8567
G1 X171.565 Y77.673 E243.0966
G1 X171.929 Y77.673 E243.1147
G1 X171.929 Y122.570 E245.3547
G1 X172.293 Y122.570 E245.3728
G1 X172.293 Y77.673 E247.6128
G1 X172.657 Y77.673 E247.6309
G1 X172.657 Y122.570 E249.8708
G1 X173.021 Y122.570 E249.8890
G1 X173.021 Y77.673 E252.1289
G1 X173.385 Y77.673 E252.1471
G1 X173.385 Y122.570 E254.3870
G1 X173.749 Y122.570 E254.4052
G1 X173.749 Y77.673 E256.6451
G1 X174.113 Y77.673 E256.6633
G1 X174.113 Y122.570 E258.9032
G1 X174.477 Y122.570 E258.9214
G1 X174.477 Y77.673 E261.1613
G1 X174.841 Y77.673 E261.1795
G1 X174.841 Y122.570 E263.4194
G1 X175.205 Y122.327 E263.4412
G1 X175.205 Y77.794 E265.6630
G1 X175.570 Y78.158 E265.6887
G1 X175.570 Y121.963 E267.8741
G1 X175.934 Y121.599 E267.8998
G1 X175.934 Y78.522 E270.0489
G1 X176.298 Y78.886 E270.0746
G1 X176.298 Y121.235 E272.1874
G1 X176.662 Y120.871 E272.2131
G1 X176.662 Y79.250 E274.2896
G1 X177.026 Y79.614 E274.3153
G1 X177.026 Y120.507 E276.3555



; ------------------------------------
; Raft Layer #3
; ------------------------------------
G21 ; mm
G90 ; abs
G92 E0 ; reset extr
M106 S0
;segType:Raft
G0 F4800 E-1.0000
G0 F300 Z1.200
G0 X134.754 Y122.410 F10800
G0 F4800 E0.0000
G1 X175.003 Y122.410 E2.0080 F3600
G1 X175.367 Y122.046 E2.0337
G1 X134.391 Y122.046 E4.0780
G1 X134.027 Y121.681 E4.1037
G1 X175.731 Y121.681 E6.1843
G1 X176.094 Y121.317 E6.2100
G1 X133.663 Y121.317 E8.3269
G1 X133.300 Y120.953 E8.3526
G1 X176.458 Y120.953 E10.5057
G1 X176.822 Y120.588 E10.5314
G1 X132.936 Y120.588 E12.7209
G1 X132.572 Y120.224 E12.7466
G1 X177.185 Y120.224 E14.9723
G1 X177.307 Y119.859 E14.9915
G1 X132.451 Y119.859 E17.2294
G1 X132.451 Y119.495 E17.2475
G1 X177.307 Y119.495 E19.4854
G1 X177.307 Y119.131 E19.5036
G1 X132.451 Y119.131 E21.7414
G1 X132.451 Y118.766 E21.7596
G1 X177.307 Y118.766 E23.9975
G1 X177.307 Y118.402 E24.0156
G1 X132.451 Y118.402 E26.2535
G1 X132.451 Y118.037 E26.2717
G1 X177.307 Y118.037 E28.5095
G1 X177.307 Y117.673 E28.5277
G1 X132.451 Y117.673 E30.7656
G1 X132.451 Y117.309 E30.7837
G1 X177.307 Y117.309 E33.0216
G1 X177.307 Y116.944 E33.0398
G1 X132.451 Y116.944 E35.2776
G1 X132.451 Y116.580 E35.2958
G1 X177.307 Y116.580 E37.5337
G1 X177.307 Y116.215 E37.5519
G1 X132.451 Y116.215 E39.7897
G1 X132.451 Y115.851 E39.8079
G1 X177.307 Y115.851 E42.0457
G1 X177.307 Y115.487 E42.0639
G1 X132.451 Y115.487 E44.3018
G1 X132.451 Y115.122 E44.3200
G1 X177.307 Y115.122 E46.5578
G1 X177.307 Y114.758 E46.5760
G1 X132.451 Y114.758 E48.8139
G1 X132.451 Y114.393 E48.8320
G1 X177.307 Y114.393 E51.0699
G1 X177.307 Y114.029 E51.0881
G1 X132.451 Y114.029 E53.3259
G1 X132.451 Y113.665 E53.3441
G1 X177.307 Y113.665 E55.5820
G1 X177.307 Y113.300 E55.6001
G1 X132.451 Y113.300 E57.8380
G1 X132.451 Y112.936 E57.8562
G1 X177.307 Y112.936 E60.0940
G1 X177.307 Y112.571 E60.1122
G1 X132.451 Y112.571 E62.3501
G1 X132.451 Y112.207 E62.3682
G1 X177.307 Y112.207 E64.6061
G1 X177.307 Y111.843 E64.6243
G1 X132.451 Y111.843 E66.8621
G1 X132.451 Y111.478 E66.8803
G1 X177.307 Y111.478 E69.1182
G1 X177.307 Y111.114 E69.1363
G1 X132.451 Y111.114 E71.3742
G1 X132.451 Y110.749 E71.3924
G1 X177.307 Y110.749 E73.6302
G1 X177.307 Y110.385 E73.6484
G1 X132.451 Y110.385 E75.8863
G1 X132.451 Y110.021 E75.9045
G1 X177.307 Y110.021 E78.1423
G1 X177.307 Y109.656 E78.1605
G1 X132.451 Y109.656 E80.3983
G1 X132.451 Y109.292 E80.4165
G1 X177.307 Y109.292 E82.6544
G1 X177.307 Y108.928 E82.6726
G1 X132.451 Y108.928 E84.9104
G1 X132.451 Y108.563 E84.9286
G1 X177.307 Y108.563 E87.1664
G1 X177.307 Y108.199 E87.1846
G1 X132.451 Y108.199 E89.4225
G1 X132.451 Y107.834 E89.4407
G1 X177.307 Y107.834 E91.6785
G1 X177.307 Y107.470 E91.6967
G1 X132.451 Y107.470 E93.9346
G1 X132.451 Y107.106 E93.9527
G1 X177.307 Y107.106 E96.1906
G1 X177.307 Y106.741 E96.2088
G1 X132.451 Y106.741 E98.4466
G1 X132.451 Y106.377 E98.4648
G1 X177.307 Y106.377 E100.7027
G1 X177.307 Y106.012 E100.7208
G1 X132.451 Y106.012 E102.9587
G1 X132.451 Y105.648 E102.9769
G1 X177.307 Y105.648 E105.2147
G1 X177.307 Y105.284 E105.2329
G1 X132.451 Y105.284 E107.4708
G1 X132.451 Y104.919 E107.4889
G1 X177.307 Y104.919 E109.7268
G1 X177.307 Y104.555 E109.7450
G1 X132.451 Y104.555 E111.9828
G1 X132.451 Y104.190 E112.0010
G1 X177.307 Y104.190 E114.2389
G1 X177.307 Y103.826 E114.2570
G1 X132.451 Y103.826 E116.4949
G1 X132.451 Y103.462 E116.5131
G1 X177.307 Y103.462 E118.7509
G1 X177.307 Y103.097 E118.7691
G1 X132.451 Y103.097 E121.0070
G1 X132.451 Y102.733 E121.0252
G1 X177.307 Y102.733 E123.2630
G1 X177.307 Y102.368 E123.2812
G1 X132.451 Y102.368 E125.5190
G1 X132.451 Y102.004 E125.5372
G1 X177.307 Y102.004 E127.7751
G1 X177.307 Y101.640 E127.7933
G1 X132.451 Y101.640 E130.0311
G1 X132.451 Y101.275 E130.0493
G1 X177.307 Y101.275 E132.2871
G1 X177.307 Y100.911 E132.3053
G1 X132.451 Y100.911 E134.5432
G1 X132.451 Y100.546 E134.5613
G1 X177.307 Y100.546 E136.7992
G1 X177.307 Y100.182 E136.8174
G1 X132.451 Y100.182 E139.0552
G1 X132.451 Y99.818 E139.0734
G1 X177.307 Y99.818 E141.3113
G1 X177.307 Y99.453 E141.3294
G1 X132.451 Y99.453 E143.5673
G1 X132.451 Y99.089 E143.5855
G1 X177.307 Y99.089 E145.8233
G1 X177.307 Y98.724 E145.8415
G1 X132.451 Y98.724 E148.0793
G1 X132.451 Y98.360 E148.0975
G1 X177.307 Y98.360 E150.3354
G1 X177.307 Y97.996 E150.3535
G1 X132.451 Y97.996 E152.5914
G1 X132.451 Y97.631 E152.6096
G1 X177.307 Y97.631 E154.8474
G1 X177.307 Y97.267 E154.8656
G1 X132.451 Y97.267 E157.1034
G1 X132.451 Y96.902 E157.1216
G1 X177.307 Y96.902 E159.3595
G1 X177.307 Y96.538 E159.3776
G1 X132.451 Y96.538 E161.6155
G1 X132.451 Y96.174 E161.6337
G1 X177.307 Y96.174 E163.8715
G1 X177.307 Y95.809 E163.8897
G1 X132.451 Y95.809 E166.1276
G1 X132.451 Y95.445 E166.1457
G1 X177.307 Y95.445 E168.3836
G1 X177.307 Y95.080 E168.4018
G1 X132.451 Y95.080 E170.6396
G1 X132.451 Y94.716 E170.6578
G1 X177.307 Y94.716 E172.8956
G1 X177.307 Y94.352 E172.9138
G1 X132.451 Y94.352 E175.1517
G1 X132.451 Y93.987 E175.1698
G1 X177.307 Y93.987 E177.4077
G1 X177.307 Y93.623 E177.4259
G1 X132.451 Y93.623 E179.6637
G1 X132.451 Y93.258 E179.6819
G1 X177.307 Y93.258 E181.9197
G1 X177.307 Y92.894 E181.9379
G1 X132.451 Y92.894 E184.1758
G1 X132.451 Y92.530 E184.1939
G1 X177.307 Y92.530 E186.4318
G1 X177.307 Y92.165 E186.4500
G1 X132.451 Y92.165 E188.6878
G1 X132.451 Y91.801 E188.7060
G1 X177.307 Y91.801 E190.9439
G1 X177.307 Y91.437 E190.9620
G1 X132.451 Y91.437 E193.1999
G1 X132.451 Y91.072 E193.2181
G1 X177.307 Y91.072 E195.4559
G1 X177.307 Y90.708 E195.4741
G1 X132.451 Y90.708 E197.7119
G1 X132.451 Y90.343 E197.7301
G1 X177.307 Y90.343 E199.9680
G1 X177.307 Y89.979 E199.9861
G1 X132.451 Y89.979 E202.2240
G1 X132.451 Y89.615 E202.2422
G1 X177.307 Y89.615 E204.4800
G1 X177.307 Y89.250 E204.4982
G1 X132.451 Y89.250 E206.7360
G1 X132.451 Y88.886 E206.7542
G1 X177.307 Y88.886 E208.9921
G1 X177.307 Y88.521 E209.0102
G1 X132.451 Y88.521 E211.2481
G1 X132.451 Y88.157 E211.2663
G1 X177.307 Y88.157 E213.5041
G1 X177.307 Y87.793 E213.5223
G1 X132.451 Y87.793 E215.7602
G1 X132.451 Y87.428 E215.7783
G1 X177.307 Y87.428 E218.0162
G1 X177.307 Y87.064 E218.0344
G1 X132.451 Y87.064 E220.2722
G1 X132.451 Y86.699 E220.2904
G1 X177.307 Y86.699 E222.5282
G1 X177.307 Y86.335 E222.5464
G1 X132.451 Y86.335 E224.7843
G1 X132.451 Y85.971 E224.8024
G1 X177.307 Y85.971 E227.0403
G1 X177.307 Y85.606 E227.0585
G1 X132.451 Y85.606 E229.2963
G1 X132.451 Y85.242 E229.3145
G1 X177.307 Y85.242 E231.5524
G1 X177.307 Y84.877 E231.5705
G1 X132.451 Y84.877 E233.8084
G1 X132.451 Y84.513 E233.8266
G1 X177.307 Y84.513 E236.0644
G1 X177.307 Y84.149 E236.0826
G1 X132.451 Y84.149 E238.3204
G1 X132.451 Y83.784 E238.3386
G1 X177.307 Y83.784 E240.5765
G1 X177.307 Y83.420 E240.5946
G1 X132.451 Y83.420 E242.8325
G1 X132.451 Y83.055 E242.8507
G1 X177.307 Y83.055 E245.0885
G1 X177.307 Y82.691 E245.1067
G1 X132.451 Y82.691 E247.3445
G1 X132.451 Y82.327 E247.3627
G1 X177.307 Y82.327 E249.6006
G1 X177.307 Y81.962 E249.6187
G1 X132.451 Y81.962 E251.8566
G1 X132.451 Y81.598 E251.8748
G1 X177.307 Y81.598 E254.1126
G1 X177.307 Y81.233 E254.1308
G1 X132.451 Y81.233 E256.3687
G1 X132.451 Y80.869 E256.3869
G1 X177.307 Y80.869 E258.6247
G1 X177.307 Y80.505 E258.6429
G1 X132.451 Y80.505 E260.8807
G1 X132.451 Y80.140 E260.8989
G1 X177.307 Y80.140 E263.1368
G1 X177.185 Y79.776 E263.1560
G1 X132.572 Y79.776 E265.3817
G1 X132.936 Y79.412 E265.4074
G1 X176.822 Y79.412 E267.5969
G1 X176.458 Y79.047 E267.6226
G1 X133.300 Y79.047 E269.7758
G1 X133.663 Y78.683 E269.8015
G1 X176.094 Y78.683 E271.9183
G1 X175.731 Y78.318 E271.9440
G1 X134.027 Y78.318 E274.0246
G1 X134.391 Y77.954 E274.0503
G1 X175.367 Y77.954 E276.0946



; ------------------------------------
; Raft Layer #4
; ------------------------------------
G21 ; mm
G90 ; abs
G92 E0 ; reset extr
M106 S255
;segType:Raft
G0 F4800 E-1.0000
G0 F300 Z1.500
G0 X177.026 Y120.507 F10800
G0 F4800 E0.0000
G1 X177.026 Y79.614 E2.0402 F3600
G1 X176.662 Y79.250 E2.0658
G1 X176.662 Y120.871 E4.1423
G1 X176.298 Y121.235 E4.1680
G1 X176.298 Y78.886 E6.2808
G1 X175.934 Y78.522 E6.3065
G1 X175.934 Y121.599 E8.4556
G1 X175.570 Y121.963 E8.4813
G1 X175.570 Y78.158 E10.6667
G1 X175.205 Y77.794 E10.6924
G1 X175.205 Y122.327 E12.9142
G1 X174.841 Y122.570 E12.9360
G1 X174.841 Y77.673 E15.1759
G1 X174.477 Y77.673 E15.1941
G1 X174.477 Y122.570 E17.4340
G1 X174.113 Y122.570 E17.4522
G1 X174.113 Y77.673 E19.6921
G1 X173.749 Y77.673 E19.7103
G1 X173.749 Y122.570 E21.9502
G1 X173.385 Y122.570 E21.9684
G1 X173.385 Y77.673 E24.2083
G1 X173.021 Y77.673 E24.2265
G1 X173.021 Y122.570 E26.4664
G1 X172.657 Y122.570 E26.4846
G1 X172.657 Y77.673 E28.7245
G1 X172.293 Y77.673 E28.7427
G1 X172.293 Y122.570 E30.9826
G1 X171.929 Y122.570 E31.0008
G1 X171.929 Y77.673 E33.2407
G1 X171.565 Y77.673 E33.2589
G1 X171.565 Y122.570 E35.4988
G1 X171.201 Y122.570 E35.5170
G1 X171.201 Y77.673 E37.7569
G1 X170.837 Y77.673 E37.7750
G1 X170.837 Y122.570 E40.0150
G1 X170.473 Y122.570 E40.0331
G1 X170.473 Y77.673 E42.2731
G1 X170.109 Y77.673 E42.2912
G1 X170.109 Y122.570 E44.5312
G1 X169.745 Y122.570 E44.5493
G1 X169.745 Y77.673 E46.7892
G1 X169.381 Y77.673 E46.8074
G1 X169.381 Y122.570 E49.0473
G1 X169.017 Y122.570 E49.0655
G1 X169.017 Y77.673 E51.3054
G1 X168.652 Y77.673 E51.3236
G1 X168.652 Y122.570 E53.5635
G1 X168.288 Y122.570 E53.5817
G1 X168.288 Y77.673 E55.8216
G1 X167.924 Y77.673 E55.8398
G1 X167.924 Y122.570 E58.0797
G1 X167.560 Y122.570 E58.0979
G1 X167.560 Y77.673 E60.3378
G1 X167.196 Y77.673 E60.3560
G1 X167.196 Y122.570 E62.5959
G1 X166.832 Y122.570 E62.6140
G1 X166.832 Y77.673 E64.8540
G1 X166.468 Y77.673 E64.8721
G1 X166.468 Y122.570 E67.1121
G1 X166.104 Y122.570 E67.1302
G1 X166.104 Y77.673 E69.3702
G1 X165.740 Y77.673 E69.3883
G1 X165.740 Y122.570 E71.6283
G1 X165.376 Y122.570 E71.6464
G1 X165.376 Y77.673 E73.8864
G1 X165.012 Y77.673 E73.9045
G1 X165.012 Y122.570 E76.1445
G1 X164.648 Y122.570 E76.1626
G1 X164.648 Y77.673 E78.4025
G1 X164.284 Y77.673 E78.4207
G1 X164.284 Y122.570 E80.6606
G1 X163.920 Y122.570 E80.6788
G1 X163.920 Y77.673 E82.9187
G1 X163.556 Y77.673 E82.9369
G1 X163.556 Y122.570 E85.1768
G1 X163.192 Y122.570 E85.1950
G1 X163.192 Y77.673 E87.4349
G1 X162.828 Y77.673 E87.4531
G1 X162.828 Y122.570 E89.6930
G1 X162.464 Y122.570 E89.7112
G1 X162.464 Y77.673 E91.9511
G1 X162.099 Y77.673 E91.9693
G1 X162.099 Y122.570 E94.2092
G1 X161.735 Y122.570 E94.2274
G1 X161.735 Y77.673 E96.4673
G1 X161.371 Y77.673 E96.4855
G1 X161.371 Y122.570 E98.7254
G1 X161.007 Y122.570 E98.7436
G1 X161.007 Y77.673 E100.9835
G1 X160.643 Y77.673 E101.0017
G1 X160.643 Y122.570 E103.2416
G1 X160.279 Y122.570 E103.2598
G1 X160.279 Y77.673 E105.4997
G1 X159.915 Y77.673 E105.5179
G1 X159.915 Y122.570 E107.7578
G1 X159.551 Y122.570 E107.7759
G1 X159.551 Y77.673 E110.0159
G1 X159.187 Y77.673 E110.0340
G1 X159.187 Y122.570 E112.2740
G1 X158.823 Y122.570 E112.2921
G1 X158.823 Y77.673 E114.5321
G1 X158.459 Y77.673 E114.5502
G1 X158.459 Y122.570 E116.7902
G1 X158.095 Y122.570 E116.8083
G1 X158.095 Y77.673 E119.0483
G1 X157.731 Y77.673 E119.0664
G1 X157.731 Y122.570 E121.3063
G1 X157.367 Y122.570 E121.3245
G1 X157.367 Y77.673 E123.5644
G1 X157.003 Y77.673 E123.5826
G1 X157.003 Y122.570 E125.8225
G1 X156.639 Y122.570 E125.8407
G1 X156.639 Y77.673 E128.0806
G1 X156.275 Y77.673 E128.0988
G1 X156.275 Y122.570 E130.3387
G1 X155.910 Y122.570 E130.3569
G1 X155.910 Y77.673 E132.5968
G1 X155.546 Y77.673 E132.6150
G1 X155.546 Y122.570 E134.8549
G1 X155.182 Y122.570 E134.8731
G1 X155.182 Y77.673 E137.1130
G1 X154.818 Y77.673 E137.1311
G1 X154.818 Y122.570 E139.3711
G1 X154.454 Y122.570 E139.3892
G1 X154.454 Y77.673 E141.6292
G1 X154.090 Y77.673 E141.6473
G1 X154.090 Y122.570 E143.8872
G1 X153.726 Y122.570 E143.9054
G1 X153.726 Y77.673 E146.1453
G1 X153.362 Y77.673 E146.1635
G1 X153.362 Y122.570 E148.4034
G1 X152.998 Y122.570 E148.4216
G1 X152.998 Y77.673 E150.6615
G1 X152.634 Y77.673 E150.6797
G1 X152.634 Y122.570 E152.9196
G1 X152.270 Y122.570 E152.9378
G1 X152.270 Y77.673 E155.1777
G1 X151.906 Y77.673 E155.1958
G1 X151.906 Y122.570 E157.4358
G1 X151.542 Y122.570 E157.4539
G1 X151.542 Y77.673 E159.6939
G1 X151.178 Y77.673 E159.7120
G1 X151.178 Y122.570 E161.9519
G1 X150.814 Y122.570 E161.9701
G1 X150.814 Y77.673 E164.2100
G1 X150.450 Y77.673 E164.2282
G1 X150.450 Y122.570 E166.4681
G1 X150.086 Y122.570 E166.4863
G1 X150.086 Y77.673 E168.7262
G1 X149.721 Y77.673 E168.7444
G1 X149.721 Y122.570 E170.9843
G1 X149.357 Y122.570 E171.0024
G1 X149.357 Y77.673 E173.2424
G1 X148.993 Y77.673 E173.2605
G1 X148.993 Y122.570 E175.5005
G1 X148.629 Y122.570 E175.5186
G1 X148.629 Y77.673 E177.7586
G1 X148.265 Y77.673 E177.7767
G1 X148.265 Y122.570 E180.0166
G1 X147.901 Y122.570 E180.0348
G1 X147.901 Y77.673 E182.2747
G1 X147.537 Y77.673 E182.2929
G1 X147.537 Y122.570 E184.5328
G1 X147.173 Y122.570 E184.5510
G1 X147.173 Y77.673 E186.7909
G1 X146.809 Y77.673 E186.8091
G1 X146.809 Y122.570 E189.0490
G1 X146.445 Y122.570 E189.0671
G1 X146.445 Y77.673 E191.3071
G1 X146.081 Y77.673 E191.3252
G1 X146.081 Y122.570 E193.5652
G1 X145.717 Y122.570 E193.5833
G1 X145.717 Y77.673 E195.8232
G1 X145.353 Y77.673 E195.8414
G1 X145.353 Y122.570 E198.0813
G1 X144.989 Y122.570 E198.0995
G1 X144.989 Y77.673 E200.3394
G1 X144.625 Y77.673 E200.3576
G1 X144.625 Y122.570 E202.5975
G1 X144.261 Y122.570 E202.6157
G1 X144.261 Y77.673 E204.8556
G1 X143.897 Y77.673 E204.8738
G1 X143.897 Y122.570 E207.1137
G1 X143.532 Y122.570 E207.1318
G1 X143.532 Y77.673 E209.3718
G1 X143.168 Y77.673 E209.3899
G1 X143.168 Y122.570 E211.6299
G1 X142.804 Y122.570 E211.6480
G1 X142.804 Y77.673 E213.8880
G1 X142.440 Y77.673 E213.9061
G1 X142.440 Y122.570 E216.1460
G1 X142.076 Y122.570 E216.1642
G1 X142.076 Y77.673 E218.4041
G1 X141.712 Y77.673 E218.4223
G1 X141.712 Y122.570 E220.6622
G1 X141.348 Y122.570 E220.6804
G1 X141.348 Y77.673 E222.9203
G1 X140.984 Y77.673 E222.9385
G1 X140.984 Y122.570 E225.1784
G1 X140.620 Y122.570 E225.1965
G1 X140.620 Y77.673 E227.4365
G1 X140.256 Y77.673 E227.4546
G1 X140.256 Y122.570 E229.6946
G1 X139.892 Y122.570 E229.7127
G1 X139.892 Y77.673 E231.9526
G1 X139.528 Y77.673 E231.9708
G1 X139.528 Y122.570 E234.2107
G1 X139.164 Y122.570 E234.2289
G1 X139.164 Y77.673 E236.4688
G1 X138.800 Y77.673 E236.4870
G1 X138.800 Y122.570 E238.7269
G1 X138.436 Y122.570 E238.7451
G1 X138.436 Y77.673 E240.9850
G1 X138.072 Y77.673 E241.0032
G1 X138.072 Y122.570 E243.2431
G1 X137.708 Y122.570 E243.2612
G1 X137.708 Y77.673 E245.5012
G1 X137.343 Y77.673 E245.5193
G1 X137.343 Y122.570 E247.7593
G1 X136.979 Y122.570 E247.7774
G1 X136.979 Y77.673 E250.0173
G1 X136.615 Y77.673 E250.0355
G1 X136.615 Y122.570 E252.2754
G1 X136.251 Y122.570 E252.2936
G1 X136.251 Y77.673 E254.5335
G1 X135.887 Y77.673 E254.5517
G1 X135.887 Y122.570 E256.7916
G1 X135.523 Y122.570 E256.8098
G1 X135.523 Y77.673 E259.0497
G1 X135.159 Y77.673 E259.0679
G1 X135.159 Y122.570 E261.3078
G1 X134.795 Y122.449 E261.3269
G1 X134.795 Y77.673 E263.5608
G1 X134.431 Y78.037 E263.5865
G1 X134.431 Y122.085 E265.7840
G1 X134.067 Y121.721 E265.8097
G1 X134.067 Y78.401 E267.9710
G1 X133.703 Y78.765 E267.9967
G1 X133.703 Y121.357 E270.1216
G1 X133.339 Y120.992 E270.1473
G1 X133.339 Y79.129 E272.2359
G1 X132.975 Y79.493 E272.2615
G1 X132.975 Y120.628 E274.3138
G1 X132.611 Y120.264 E274.3395
G1 X132.611 Y79.857 E276.3554


; ------------------------------------
; Layer #0
; ------------------------------------
G21 ; mm
G90 ; abs
G92 E0 ; reset extr
M106 S255
;segType:Support
G0 F4800 E-1.0000
G0 F300 Z1.850
G0 X143.800 Y88.800 F10800
G0 F4800 E0.0000
G1 X151.017 Y88.800 E0.1020 F900
G1 X151.500 Y89.500 E0.1140
G1 X143.183 Y89.500 E0.2316
G1 X142.779 Y90.200 E0.2430
G1 X151.500 Y90.200 E0.3663
G0 F4800 E-0.6337
G0 X149.400 Y91.600 F10800
G0 F4800 E0.3663
G1 X152.425 Y91.600 E0.4091 F900
G1 X152.477 Y92.300 E0.4190
G1 X149.400 Y92.300 E0.4625
G1 X149.400 Y93.000 E0.4724
G1 X152.438 Y93.000 E0.5153
G0 F4800 E-0.4847
G0 X152.068 Y94.400 F10800
G0 F4800 E0.5153
G1 X142.706 Y94.400 E0.6477 F900
G0 F4800 E-0.3523
G0 X142.500 Y90.900 F10800
G0 F4800 E0.6477
G1 X145.900 Y90.900 E0.6957 F900
G0 F4800 E-0.3043
G0 X145.900 Y92.300 F10800
G0 F4800 E0.6957
G1 X142.400 Y92.300 E0.7452 F900
G1 X142.400 Y91.600 E0.7551
G1 X145.900 Y91.600 E0.8046
G0 F4800 E-0.1954
G0 X145.900 Y93.000 F10800
G0 F4800 E0.8046
G1 X142.400 Y93.000 E0.8540 F900
G1 X142.470 Y93.700 E0.8640
G1 X152.305 Y93.700 E1.0030
G0 F4800 E0.0030
G0 X151.500 Y95.100 F10800
G0 F4800 E1.0030
G1 X143.068 Y95.100 E1.1222 F900
G1 X143.598 Y95.800 E1.1346
G1 X151.175 Y95.800 E1.2417
G0 F4800 E0.2417
G0 X150.100 Y96.500 F10800
G0 F4800 E1.2417
G1 X144.390 Y96.500 E1.3224 F900
G0 F4800 E0.3224
G0 X145.688 Y97.200 F10800
G0 F4800 E1.3224
G1 X149.084 Y97.200 E1.3704 F900
G0 F4800 E0.3704
G0 X145.742 Y102.800 F10800
G0 F4800 E1.3704
G1 X149.032 Y102.800 E1.4169 F900
G0 F4800 E0.4169
G0 X150.389 Y103.500 F10800
G0 F4800 E1.4169
G1 X144.385 Y103.500 E1.5018 F900
G1 X143.800 Y104.200 E1.5147
G1 X151.158 Y104.200 E1.6187
G1 X151.690 Y104.900 E1.6311
G1 X143.085 Y104.900 E1.7528
G1 X142.715 Y105.600 E1.7639
G1 X152.060 Y105.600 E1.8961
G0 F4800 E0.8961
G0 X157.800 Y106.300 F10800
G0 F4800 E1.8961
G1 X161.300 Y106.300 E1.9455 F900
G0 F4800 E0.9455
G0 X164.100 Y102.800 F10800
G0 F4800 E1.9455
G1 X160.968 Y102.800 E1.9898 F900
G0 F4800 E0.9898
G0 X159.610 Y103.500 F10800
G0 F4800 E1.9898
G1 X165.614 Y103.500 E2.0747 F900
G0 F4800 E1.0747
G0 X164.800 Y106.300 F10800
G0 F4800 E2.0747
G1 X167.533 Y106.300 E2.1133 F900
G1 X166.900 Y105.600 E2.1266
G1 X157.940 Y105.600 E2.2533
G1 X158.310 Y104.900 E2.2645
G1 X166.900 Y104.900 E2.3859
G1 X166.383 Y104.200 E2.3982
G1 X159.200 Y104.200 E2.4998
G0 F4800 E1.4998
G0 X161.300 Y107.700 F10800
G0 F4800 E2.4998
G1 X157.800 Y107.700 E2.5492 F900
G1 X157.800 Y107.000 E2.5591
G1 X161.300 Y107.000 E2.6086
G0 F4800 E1.6086
G0 X161.300 Y108.400 F10800
G0 F4800 E2.6086
G1 X157.800 Y108.400 E2.6581 F900
G1 X157.800 Y109.100 E2.6680
G1 X167.481 Y109.100 E2.8048
G1 X167.643 Y108.400 E2.8150
G1 X164.800 Y108.400 E2.8552
G1 X164.800 Y107.700 E2.8650
G1 X167.709 Y107.700 E2.9062
G1 X167.678 Y107.000 E2.9161
G1 X164.800 Y107.000 E2.9568
G0 F4800 E1.9568
G0 X167.213 Y109.800 F10800
G0 F4800 E2.9568
G1 X158.012 Y109.800 E3.0868 F900
G1 X158.412 Y110.500 E3.0982
G1 X166.813 Y110.500 E3.2170
G1 X166.234 Y111.200 E3.2298
G1 X158.990 Y111.200 E3.3322
G0 F4800 E2.3322
G0 X161.528 Y112.600 F10800
G0 F4800 E3.3322
G1 X163.699 Y112.600 E3.3629 F900
G0 F4800 E2.3629
G0 X165.373 Y111.900 F10800
G0 F4800 E3.3629
G1 X159.853 Y111.900 E3.4409 F900
G0 F4800 E2.4409
G0 X152.484 Y107.700 F10800
G0 F4800 E3.4409
G1 X149.400 Y107.700 E3.4845 F900
G1 X149.400 Y107.000 E3.4944
G1 X152.453 Y107.000 E3.5376
G1 X152.308 Y106.300 E3.5477
G1 X149.400 Y106.300 E3.5888
G0 F4800 E2.5888
G0 X149.400 Y108.400 F10800
G0 F4800 E3.5888
G1 X152.418 Y108.400 E3.6314 F900
G1 X152.256 Y109.100 E3.6416
G1 X142.519 Y109.100 E3.7792
G1 X142.400 Y108.400 E3.7893
G1 X145.900 Y108.400 E3.8388
G1 X145.900 Y107.700 E3.8486
G1 X142.400 Y107.700 E3.8981
G0 F4800 E2.8981
G0 X145.900 Y106.300 F10800
G0 F4800 E3.8981
G1 X142.466 Y106.300 E3.9467 F900
G1 X142.400 Y107.000 E3.9566
G1 X145.900 Y107.000 E4.0061
G0 F4800 E3.0061
G0 X146.303 Y112.600 F10800
G0 F4800 E4.0061
G1 X148.474 Y112.600 E4.0368 F900
G0 F4800 E3.0368
G0 X144.627 Y111.900 F10800
G0 F4800 E4.0368
G1 X150.100 Y111.900 E4.1141 F900
G0 F4800 E3.1141
G0 X151.987 Y109.800 F10800
G0 F4800 E4.1141
G1 X142.787 Y109.800 E4.2442 F900
G1 X143.187 Y110.500 E4.2556
G1 X151.500 Y110.500 E4.3731
G1 X151.009 Y111.200 E4.3852
G1 X143.765 Y111.200 E4.4876
G0 F4800 E3.4876
G0 X141.804 Y112.186 F10800
G0 X138.678 Y113.732
G0 X138.130 Y114.824
G0 F4800 E4.4876
;segType:HShell
G1 X137.403 Y115.552 E4.5047 F600
G1 X137.403 Y116.067
G1 X138.158 Y115.312 E4.5224
G1 X138.266 Y115.718
G1 X137.403 Y116.583 E4.5428
G1 X137.403 Y117.098
G1 X138.443 Y116.057 E4.5672
G1 X138.683 Y116.333
G1 X137.403 Y117.613 E4.5973
;segType:Loop
G0 X137.203 Y117.213 F10800
G1 X137.203 Y82.185 E5.1798 F600
G1 X172.797 Y82.185 E5.7718
G1 X172.797 Y117.815 E6.3643
G1 X137.203 Y117.815 E6.9562
G1 X137.203 Y117.395 E6.9632
;segType:Perimeter
G0 X137.408 Y117.909 F10800
G1 X136.803 Y118.160 E6.9741 F359
G1 X136.803 Y81.785 E7.5790
G1 X173.197 Y81.785 E8.1843
G1 X173.197 Y118.215 E8.7901
G1 X136.858 Y118.215 E9.3944
G1 X137.108 Y117.609
G0 X140.160 Y116.477 F10800
G0 X141.055 Y116.058
G0 X144.966 Y113.651
;segType:HShell
G1 X141.006 Y117.614 E9.4876 F600
G1 X140.491 Y117.614
G1 X144.611 Y113.491 E9.5845
G1 X144.256 Y113.331
G1 X141.678 Y115.911 E9.6451
;segType:Perimeter
G0 X141.536 Y115.909 F10800
G1 X140.882 Y115.959 E9.6560 F359
G1 X140.566 Y116.179 E9.6624
G1 X140.142 Y116.296 E9.6698
G1 X139.704 Y116.264 E9.6771
G1 X139.301 Y116.088 E9.6844
G1 X138.979 Y115.788 E9.6917
G1 X138.776 Y115.398 E9.6990
G1 X138.715 Y114.962 E9.7063
G1 X138.801 Y114.531 E9.7137
G1 X139.027 Y114.153 E9.7210
G1 X139.365 Y113.872 E9.7283
G1 X139.778 Y113.720 E9.7356
G1 X140.217 Y113.714 E9.7429
G1 X140.634 Y113.855 E9.7502
G1 X140.980 Y114.127 E9.7575
G1 X141.215 Y114.498 E9.7648
G1 X141.311 Y114.919 E9.7720
G1 X141.304 Y115.157 E9.7760
G1 X141.184 Y115.571 E9.7831
G1 X140.959 Y115.884 E9.7896
G1 X140.898 Y116.537
;segType:Loop
G0 X139.992 Y116.686 F10800
G1 X139.607 Y116.658 E9.7960 F600
G1 X139.078 Y116.428 E9.8056
G1 X138.656 Y116.034 E9.8152
G1 X138.390 Y115.522 E9.8248
G1 X138.309 Y114.950 E9.8344
G1 X138.423 Y114.384 E9.8440
G1 X138.719 Y113.889 E9.8536
G1 X139.162 Y113.520 E9.8632
G1 X139.704 Y113.320 E9.8728
G1 X140.281 Y113.313 E9.8823
G1 X140.827 Y113.498 E9.8919
G1 X141.281 Y113.855 E9.9015
G1 X141.590 Y114.342 E9.9111
G1 X141.713 Y114.879 E9.9203
G1 X141.703 Y115.219 E9.9260
G1 X141.549 Y115.749 E9.9351
G1 X141.212 Y116.218 E9.9447
G1 X140.738 Y116.547 E9.9543
G1 X140.182 Y116.700 E9.9639
G1 X140.173 Y116.699 E9.9641
G0 X149.425 Y113.366 F10800
G0 X151.966 Y111.642
G0 X161.379 Y98.769
;segType:HShell
G1 X153.761 Y106.394 E10.1433 F600
;segType:Perimeter
G0 X153.628 Y106.378 F10800
G1 X153.250 Y106.915 E10.1542 F359
G1 X153.292 Y107.862 E10.1700
G1 X153.166 Y108.858 E10.1867
G1 X152.874 Y109.817 E10.2034
G1 X152.424 Y110.714 E10.2200
G1 X151.829 Y111.521 E10.2367
G1 X151.107 Y112.217 E10.2534
G1 X150.277 Y112.780 E10.2701
G1 X149.364 Y113.194 E10.2867
G1 X148.395 Y113.449 E10.3034
G1 X147.396 Y113.535 E10.3201
G1 X146.397 Y113.452 E10.3367
G1 X145.427 Y113.200 E10.3534
G1 X144.513 Y112.789 E10.3701
G1 X143.682 Y112.228 E10.3868
G1 X142.957 Y111.535 E10.4034
G1 X142.360 Y110.729 E10.4201
G1 X141.907 Y109.834 E10.4368
G1 X141.613 Y108.875 E10.4535
G1 X141.484 Y107.880 E10.4702
G1 X141.525 Y106.877 E10.4868
G1 X141.734 Y105.896 E10.5035
G1 X142.107 Y104.965 E10.5202
G1 X142.631 Y104.110 E10.5369
G1 X143.292 Y103.356 E10.5536
G1 X144.071 Y102.724 E10.5702
G1 X144.945 Y102.233 E10.5869
G1 X145.890 Y101.898 E10.6036
G1 X146.873 Y101.728 E10.6202
G1 X147.383 Y101.705 E10.6287
G1 X147.889 Y101.726 E10.6371
G1 X148.868 Y101.893 E10.6536
G1 X149.814 Y102.226 E10.6703
G1 X150.689 Y102.714 E10.6870
G1 X151.470 Y103.343 E10.7036
G1 X152.134 Y104.096 E10.7203
G1 X152.660 Y104.949 E10.7370
G1 X153.035 Y105.880 E10.7537
G1 X153.236 Y106.807 E10.7694
G1 X153.738 Y107.229
;segType:Loop
G0 X153.691 Y107.844 F10800
G1 X153.693 Y107.879 E10.7700 F600
G1 X153.559 Y108.942 E10.7878
G1 X153.247 Y109.967 E10.8057
G1 X152.766 Y110.924 E10.8235
G1 X152.131 Y111.786 E10.8413
G1 X151.360 Y112.529 E10.8591
G1 X150.473 Y113.130 E10.8769
G1 X149.499 Y113.573 E10.8947
G1 X148.463 Y113.845 E10.9125
G1 X147.397 Y113.937 E10.9303
G1 X146.330 Y113.848 E10.9481
G1 X145.294 Y113.579 E10.9659
G1 X144.318 Y113.139 E10.9837
G1 X143.430 Y112.541 E11.0015
G1 X142.656 Y111.800 E11.0193
G1 X142.019 Y110.940 E11.0371
G1 X141.535 Y109.984 E11.0550
G1 X141.220 Y108.960 E11.0728
G1 X141.083 Y107.898 E11.0906
G1 X141.127 Y106.827 E11.1084
G1 X141.350 Y105.779 E11.1262
G1 X141.748 Y104.785 E11.1440
G1 X142.308 Y103.871 E11.1619
G1 X143.014 Y103.066 E11.1797
G1 X143.846 Y102.392 E11.1975
G1 X144.779 Y101.868 E11.2153
G1 X145.788 Y101.509 E11.2331
G1 X146.830 Y101.329 E11.2507
G1 X147.382 Y101.304 E11.2599
G1 X147.931 Y101.327 E11.2690
G1 X148.969 Y101.504 E11.2865
G1 X149.978 Y101.860 E11.3043
G1 X150.914 Y102.381 E11.3221
G1 X151.747 Y103.053 E11.3399
G1 X152.456 Y103.856 E11.3577
G1 X153.018 Y104.768 E11.3755
G1 X153.419 Y105.761 E11.3934
G1 X153.646 Y106.808 E11.4112
G1 X153.683 Y107.662 E11.4254
G0 X159.650 Y112.948 F10800
G0 X161.592 Y113.631
G0 X163.651 Y113.628
G0 X166.133 Y113.077
;segType:HShell
G1 X161.600 Y117.614 E11.5320 F600
G1 X161.085 Y117.614
G1 X165.052 Y113.644 E11.6254
;segType:Perimeter
G0 X165.140 Y113.465 F10800
G1 X164.537 Y113.208 E11.6363 F359
G1 X163.620 Y113.449 E11.6520
G1 X162.621 Y113.535 E11.6687
G1 X161.623 Y113.452 E11.6854
G1 X160.652 Y113.200 E11.7020
G1 X159.738 Y112.789 E11.7187
G1 X158.907 Y112.228 E11.7354
G1 X158.182 Y111.535 E11.7521
G1 X157.585 Y110.729 E11.7687
G1 X157.133 Y109.834 E11.7854
G1 X156.838 Y108.875 E11.8021
G1 X156.709 Y107.880 E11.8188
G1 X156.750 Y106.877 E11.8355
G1 X156.960 Y105.896 E11.8522
G1 X157.332 Y104.965 E11.8688
G1 X157.856 Y104.110 E11.8855
G1 X158.517 Y103.356 E11.9022
G1 X159.296 Y102.724 E11.9189
G1 X160.171 Y102.233 E11.9355
G1 X161.115 Y101.898 E11.9522
G1 X162.103 Y101.727 E11.9689
G1 X163.105 Y101.725 E11.9855
G1 X164.093 Y101.893 E12.0022
G1 X165.039 Y102.226 E12.0189
G1 X165.915 Y102.714 E12.0356
G1 X166.695 Y103.343 E12.0522
G1 X167.359 Y104.096 E12.0689
G1 X167.885 Y104.949 E12.0856
G1 X168.260 Y105.880 E12.1023
G1 X168.473 Y106.860 E12.1190
G1 X168.517 Y107.862 E12.1356
G1 X168.391 Y108.858 E12.1523
G1 X168.099 Y109.817 E12.1690
G1 X167.649 Y110.714 E12.1857
G1 X167.054 Y111.521 E12.2024
G1 X166.332 Y112.217 E12.2190
G1 X165.502 Y112.780 E12.2357
G1 X164.639 Y113.172 E12.2515
G1 X164.333 Y113.752
;segType:Loop
G0 X163.722 Y113.836 F10800
G1 X163.688 Y113.845 E12.2521 F600
G1 X162.622 Y113.937 E12.2699
G1 X161.555 Y113.848 E12.2877
G1 X160.519 Y113.579 E12.3055
G1 X159.543 Y113.139 E12.3233
G1 X158.655 Y112.541 E12.3411
G1 X157.881 Y111.800 E12.3589
G1 X157.244 Y110.940 E12.3767
G1 X156.760 Y109.984 E12.3945
G1 X156.445 Y108.960 E12.4123
G1 X156.308 Y107.898 E12.4302
G1 X156.352 Y106.827 E12.4480
G1 X156.576 Y105.779 E12.4658
G1 X156.973 Y104.785 E12.4836
G1 X157.533 Y103.871 E12.5014
G1 X158.239 Y103.066 E12.5192
G1 X159.071 Y102.392 E12.5370
G1 X160.005 Y101.868 E12.5548
G1 X161.013 Y101.509 E12.5726
G1 X162.068 Y101.326 E12.5904
G1 X163.138 Y101.325 E12.6082
G1 X164.194 Y101.504 E12.6260
G1 X165.204 Y101.860 E12.6438
G1 X166.139 Y102.381 E12.6617
G1 X166.973 Y103.053 E12.6795
G1 X167.681 Y103.856 E12.6973
G1 X168.243 Y104.768 E12.7151
G1 X168.644 Y105.761 E12.7329
G1 X168.871 Y106.808 E12.7507
G1 X168.918 Y107.879 E12.7685
G1 X168.784 Y108.942 E12.7864
G1 X168.472 Y109.967 E12.8042
G1 X167.991 Y110.924 E12.8220
G1 X167.356 Y111.786 E12.8398
G1 X166.584 Y112.529 E12.8576
G1 X165.699 Y113.130 E12.8754
G1 X164.724 Y113.573 E12.8932
G1 X163.898 Y113.789 E12.9074
G0 X170.147 Y113.532 F10800
G0 X171.264 Y113.610
;segType:HShell
G1 X172.597 Y112.276 E12.9388 F600
G1 X172.597 Y111.761
G1 X170.976 Y113.383 E12.9769
G1 X170.619 Y113.226
G1 X172.597 Y111.245 E13.0235
G1 X172.597 Y110.730
G1 X170.217 Y113.113 E13.0795
;segType:Perimeter
G0 X169.811 Y113.236 F10800
G1 X170.240 Y113.731 E13.0904 F359
G1 X170.605 Y113.855 E13.0968
G1 X170.950 Y114.127 E13.1041
G1 X171.186 Y114.498 E13.1114
G1 X171.284 Y114.927 E13.1187
G1 X171.234 Y115.365 E13.1260
G1 X171.041 Y115.760 E13.1334
G1 X170.728 Y116.069 E13.1407
G1 X170.334 Y116.254 E13.1479
G1 X169.995 Y116.302 E13.1536
G1 X169.670 Y116.262 E13.1590
G1 X169.271 Y116.088 E13.1663
G1 X168.950 Y115.788 E13.1736
G1 X168.747 Y115.398 E13.1809
G1 X168.685 Y114.962 E13.1882
G1 X168.772 Y114.531 E13.1955
G1 X168.998 Y114.153 E13.2029
G1 X169.336 Y113.872 E13.2102
G1 X169.749 Y113.720 E13.2175
G1 X170.134 Y113.714 E13.2239
G1 X170.694 Y113.375
;segType:Loop
G0 X171.353 Y114.015 F10800
G1 X171.560 Y114.342 E13.2303 F600
G1 X171.689 Y114.905 E13.2399
G1 X171.624 Y115.478 E13.2495
G1 X171.371 Y115.997 E13.2591
G1 X170.960 Y116.403 E13.2687
G1 X170.449 Y116.642 E13.2781
G1 X169.999 Y116.705 E13.2857
G1 X169.564 Y116.653 E13.2930
G1 X169.049 Y116.428 E13.3023
G1 X168.627 Y116.034 E13.3119
G1 X168.361 Y115.522 E13.3215
G1 X168.280 Y114.950 E13.3311
G1 X168.393 Y114.384 E13.3407
G1 X168.689 Y113.889 E13.3503
G1 X169.133 Y113.520 E13.3599
G1 X169.674 Y113.320 E13.3695
G1 X170.252 Y113.313 E13.3791
G1 X170.798 Y113.498 E13.3887
G1 X171.251 Y113.854 E13.3983
G1 X171.256 Y113.862 E13.3984
G0 X168.048 Y104.867 F10800
G0 X166.821 Y103.212
G0 X158.793 Y97.130
G0 X157.430 Y95.584
G0 X156.660 Y93.674
G0 X156.569 Y91.615
G0 X157.169 Y89.643
G0 X157.515 Y88.661
G1 X157.533 Y88.631 E13.3990 F600
G1 X158.239 Y87.826 E13.4168
G1 X159.071 Y87.152 E13.4346
G1 X160.005 Y86.628 E13.4524
G1 X161.013 Y86.269 E13.4702
G1 X162.055 Y86.089 E13.4878
G1 X162.607 Y86.064 E13.4970
G1 X163.156 Y86.087 E13.5061
G1 X164.194 Y86.264 E13.5236
G1 X165.204 Y86.620 E13.5414
G1 X166.139 Y87.141 E13.5592
G1 X166.973 Y87.813 E13.5771
G1 X167.681 Y88.616 E13.5949
G1 X168.243 Y89.528 E13.6127
G1 X168.644 Y90.521 E13.6305
G1 X168.871 Y91.568 E13.6483
G1 X168.918 Y92.639 E13.6661
G1 X168.784 Y93.702 E13.6839
G1 X168.472 Y94.727 E13.7018
G1 X167.991 Y95.684 E13.7196
G1 X167.356 Y96.546 E13.7374
G1 X166.584 Y97.289 E13.7552
G1 X165.699 Y97.890 E13.7730
G1 X164.724 Y98.333 E13.7908
G1 X163.688 Y98.605 E13.8086
G1 X162.622 Y98.697 E13.8264
G1 X161.555 Y98.608 E13.8442
G1 X160.519 Y98.339 E13.8620
G1 X159.543 Y97.899 E13.8798
G1 X158.655 Y97.301 E13.8976
G1 X157.881 Y96.560 E13.9154
G1 X157.244 Y95.700 E13.9332
G1 X156.760 Y94.744 E13.9511
G1 X156.445 Y93.720 E13.9689
G1 X156.308 Y92.658 E13.9867
G1 X156.352 Y91.587 E14.0045
G1 X156.576 Y90.539 E14.0223
G1 X156.973 Y89.544 E14.0401
G1 X157.420 Y88.816 E14.0543
;segType:Perimeter
G0 X156.748 Y89.911 F10800
G1 X157.360 Y89.678 E14.0652 F359
G1 X157.856 Y88.870 E14.0810
G1 X158.517 Y88.116 E14.0977
G1 X159.296 Y87.484 E14.1144
G1 X160.171 Y86.993 E14.1310
G1 X161.115 Y86.658 E14.1477
G1 X162.098 Y86.488 E14.1643
G1 X162.608 Y86.465 E14.1728
G1 X163.114 Y86.486 E14.1812
G1 X164.093 Y86.653 E14.1977
G1 X165.039 Y86.986 E14.2144
G1 X165.915 Y87.474 E14.2311
G1 X166.695 Y88.103 E14.2477
G1 X167.359 Y88.856 E14.2644
G1 X167.885 Y89.709 E14.2811
G1 X168.260 Y90.640 E14.2978
G1 X168.473 Y91.620 E14.3145
G1 X168.517 Y92.622 E14.3312
G1 X168.391 Y93.618 E14.3478
G1 X168.099 Y94.577 E14.3645
G1 X167.649 Y95.474 E14.3812
G1 X167.054 Y96.281 E14.3979
G1 X166.332 Y96.977 E14.4146
G1 X165.502 Y97.540 E14.4312
G1 X164.590 Y97.954 E14.4479
G1 X163.620 Y98.209 E14.4646
G1 X162.621 Y98.295 E14.4812
G1 X161.623 Y98.212 E14.4979
G1 X160.652 Y97.960 E14.5146
G1 X159.738 Y97.548 E14.5313
G1 X158.907 Y96.988 E14.5479
G1 X158.182 Y96.295 E14.5646
G1 X157.585 Y95.489 E14.5813
G1 X157.133 Y94.594 E14.5980
G1 X156.838 Y93.635 E14.6146
G1 X156.709 Y92.640 E14.6313
G1 X156.750 Y91.637 E14.6480
G1 X156.960 Y90.656 E14.6647
G1 X157.312 Y89.775 E14.6805
G1 X157.132 Y89.145
;segType:HShell
G0 X162.816 Y82.386 F10800
G1 X153.813 Y91.396 E14.8923 F600
;segType:Perimeter
G0 X153.628 Y91.138 F10800
G1 X153.250 Y91.675 E14.9032 F359
G1 X153.292 Y92.622 E14.9190
G1 X153.166 Y93.618 E14.9357
G1 X152.874 Y94.577 E14.9523
G1 X152.424 Y95.474 E14.9690
G1 X151.829 Y96.281 E14.9857
G1 X151.107 Y96.977 E15.0024
G1 X150.277 Y97.540 E15.0191
G1 X149.364 Y97.954 E15.0357
G1 X148.395 Y98.209 E15.0524
G1 X147.396 Y98.295 E15.0691
G1 X146.397 Y98.212 E15.0857
G1 X145.427 Y97.960 E15.1024
G1 X144.513 Y97.548 E15.1191
G1 X143.682 Y96.988 E15.1357
G1 X142.957 Y96.295 E15.1524
G1 X142.360 Y95.489 E15.1691
G1 X141.907 Y94.594 E15.1858
G1 X141.613 Y93.635 E15.2025
G1 X141.484 Y92.640 E15.2192
G1 X141.525 Y91.637 E15.2358
G1 X141.734 Y90.656 E15.2525
G1 X142.107 Y89.725 E15.2692
G1 X142.631 Y88.870 E15.2859
G1 X143.292 Y88.116 E15.3026
G1 X144.071 Y87.484 E15.3192
G1 X144.945 Y86.993 E15.3359
G1 X145.890 Y86.658 E15.3526
G1 X146.878 Y86.487 E15.3692
G1 X147.880 Y86.485 E15.3859
G1 X148.868 Y86.653 E15.4026
G1 X149.814 Y86.986 E15.4193
G1 X150.689 Y87.474 E15.4359
G1 X151.470 Y88.103 E15.4526
G1 X152.134 Y88.856 E15.4693
G1 X152.660 Y89.709 E15.4860
G1 X153.035 Y90.640 E15.5026
G1 X153.236 Y91.567 E15.5184
G1 X153.738 Y91.989
;segType:Loop
G0 X153.691 Y92.604 F10800
G1 X153.693 Y92.639 E15.5190 F600
G1 X153.559 Y93.702 E15.5368
G1 X153.247 Y94.727 E15.5546
G1 X152.766 Y95.684 E15.5725
G1 X152.131 Y96.546 E15.5903
G1 X151.360 Y97.289 E15.6081
G1 X150.473 Y97.890 E15.6259
G1 X149.499 Y98.333 E15.6437
G1 X148.463 Y98.605 E15.6615
G1 X147.397 Y98.697 E15.6793
G1 X146.330 Y98.608 E15.6971
G1 X145.294 Y98.339 E15.7149
G1 X144.318 Y97.899 E15.7327
G1 X143.430 Y97.301 E15.7505
G1 X142.656 Y96.560 E15.7683
G1 X142.019 Y95.700 E15.7861
G1 X141.535 Y94.744 E15.8039
G1 X141.220 Y93.720 E15.8217
G1 X141.083 Y92.658 E15.8396
G1 X141.127 Y91.587 E15.8574
G1 X141.350 Y90.539 E15.8752
G1 X141.748 Y89.544 E15.8930
G1 X142.308 Y88.631 E15.9108
G1 X143.014 Y87.826 E15.9286
G1 X143.846 Y87.152 E15.9465
G1 X144.779 Y86.628 E15.9643
G1 X145.788 Y86.269 E15.9821
G1 X146.843 Y86.086 E15.9999
G1 X147.913 Y86.085 E16.0177
G1 X148.969 Y86.264 E16.0355
G1 X149.978 Y86.620 E16.0533
G1 X150.914 Y87.141 E16.0711
G1 X151.747 Y87.813 E16.0889
G1 X152.456 Y88.616 E16.1067
G1 X153.018 Y89.528 E16.1245
G1 X153.419 Y90.521 E16.1423
G1 X153.646 Y91.568 E16.1601
G1 X153.683 Y92.422 E16.1743
G0 X152.823 Y89.627 F10800
G0 X151.596 Y87.972
G0 X144.281 Y82.386
;segType:HShell
G1 X141.894 Y84.775 E16.2305 F600
G1 X141.798 Y84.356
G1 X143.766 Y82.386 E16.2768
G1 X143.251 Y82.386
G1 X141.621 Y84.018 E16.3152
G1 X141.417 Y83.707
G1 X142.736 Y82.386 E16.3462
G1 X142.221 Y82.386
G1 X141.128 Y83.480 E16.3719
;segType:Perimeter
G0 X140.986 Y83.517 F10800
G1 X141.009 Y84.173 E16.3828 F359
G1 X141.215 Y84.499 E16.3893
G1 X141.313 Y84.927 E16.3966
G1 X141.263 Y85.365 E16.4039
G1 X141.071 Y85.760 E16.4112
G1 X140.757 Y86.069 E16.4185
G1 X140.363 Y86.254 E16.4258
G1 X140.024 Y86.302 E16.4315
G1 X139.699 Y86.262 E16.4369
G1 X139.301 Y86.088 E16.4441
G1 X138.979 Y85.788 E16.4514
G1 X138.776 Y85.398 E16.4588
G1 X138.715 Y84.962 E16.4661
G1 X138.801 Y84.531 E16.4734
G1 X139.027 Y84.153 E16.4807
G1 X139.365 Y83.872 E16.4880
G1 X139.778 Y83.720 E16.4953
G1 X140.217 Y83.714 E16.5027
G1 X140.634 Y83.855 E16.5100
G1 X140.937 Y84.093 E16.5164
G1 X141.586 Y84.182
;segType:Loop
G0 X141.697 Y85.094 F10800
G1 X141.653 Y85.478 E16.5228 F600
G1 X141.400 Y85.997 E16.5324
G1 X140.989 Y86.402 E16.5420
G1 X140.479 Y86.642 E16.5514
G1 X140.028 Y86.706 E16.5589
G1 X139.593 Y86.653 E16.5662
G1 X139.078 Y86.428 E16.5756
G1 X138.656 Y86.034 E16.5852
G1 X138.390 Y85.522 E16.5948
G1 X138.309 Y84.950 E16.6044
G1 X138.423 Y84.384 E16.6140
G1 X138.719 Y83.889 E16.6236
G1 X139.162 Y83.520 E16.6332
G1 X139.704 Y83.320 E16.6428
G1 X140.280 Y83.313 E16.6524
G1 X140.827 Y83.497 E16.6620
G1 X141.281 Y83.854 E16.6716
G1 X141.590 Y84.342 E16.6812
G1 X141.719 Y84.905 E16.6907
G1 X141.718 Y84.913 E16.6909
G0 X170.131 Y86.477 F10800
G0 X171.025 Y86.058
G0 X171.875 Y85.171
;segType:HShell
G1 X172.597 Y84.448 E16.7079 F600
G1 X172.597 Y83.933
G1 X171.844 Y84.686 E16.7256
G1 X171.748 Y84.267
G1 X172.597 Y83.417 E16.7456
G1 X172.597 Y82.902
G1 X171.549 Y83.951 E16.7702
;segType:Loop
G0 X171.566 Y85.588 F10800
G1 X171.519 Y85.749 E16.7730 F600
G1 X171.183 Y86.217 E16.7826
G1 X170.709 Y86.547 E16.7922
G1 X170.153 Y86.700 E16.8018
G1 X169.577 Y86.659 E16.8114
G1 X169.048 Y86.428 E16.8210
G1 X168.627 Y86.034 E16.8306
G1 X168.361 Y85.522 E16.8402
G1 X168.280 Y84.950 E16.8498
G1 X168.393 Y84.384 E16.8594
G1 X168.689 Y83.889 E16.8690
G1 X169.133 Y83.520 E16.8786
G1 X169.675 Y83.320 E16.8882
G1 X170.251 Y83.313 E16.8977
G1 X170.798 Y83.498 E16.9073
G1 X171.251 Y83.854 E16.9169
G1 X171.560 Y84.342 E16.9265
G1 X171.683 Y84.879 E16.9357
G1 X171.673 Y85.219 E16.9414
G1 X171.617 Y85.413 E16.9447
;segType:Perimeter
G0 X171.395 Y83.926 F10800
G1 X171.198 Y84.552 E16.9556 F359
G1 X171.282 Y84.919 E16.9619
G1 X171.275 Y85.156 E16.9658
G1 X171.154 Y85.571 E16.9730
G1 X170.898 Y85.928 E16.9803
G1 X170.537 Y86.179 E16.9876
G1 X170.113 Y86.296 E16.9950
G1 X169.674 Y86.264 E17.0023
G1 X169.271 Y86.088 E17.0096
G1 X168.950 Y85.788 E17.0169
G1 X168.747 Y85.398 E17.0242
G1 X168.685 Y84.962 E17.0315
G1 X168.772 Y84.531 E17.0388
G1 X168.998 Y84.153 E17.0462
G1 X169.336 Y83.872 E17.0535
G1 X169.749 Y83.720 E17.0608
G1 X170.188 Y83.714 E17.0681
G1 X170.605 Y83.855 E17.0754
G1 X170.950 Y84.127 E17.0827
G1 X171.157 Y84.452 E17.0891
G1 X171.739 Y84.753
;segType:HShell
G0 X171.646 Y85.916 F10800
G1 X172.597 Y84.963 E17.1115 F600
G1 X172.597 Y85.479
G1 X168.486 Y89.594 E17.2083
G1 X168.634 Y89.961
G1 X172.597 Y85.994 E17.3015
G1 X172.597 Y86.509
G1 X168.782 Y90.328 E17.3913
G1 X168.894 Y90.731
G1 X172.597 Y87.025 E17.4784
G1 X172.597 Y87.540
G1 X168.986 Y91.154 E17.5634
G1 X169.072 Y91.584
G1 X172.597 Y88.055 E17.6463
G1 X172.597 Y88.571
G1 X169.094 Y92.077 E17.7288
G1 X169.115 Y92.571
G1 X172.597 Y89.086 E17.8107
G1 X172.597 Y89.601
G1 X169.056 Y93.146 E17.8940
G1 X168.981 Y93.736
G1 X172.597 Y90.117 E17.9791
G1 X172.597 Y90.632
G1 X168.757 Y94.475 E18.0694
G0 X168.367 Y95.381 F10800
G1 X172.597 Y91.147 E18.1690 F600
G1 X172.597 Y91.663
G1 X163.144 Y101.125 E18.3914
G1 X163.586 Y101.198
G1 X172.597 Y92.178 E18.6034
G1 X172.597 Y92.693
G1 X164.026 Y101.273 E18.8051
G1 X164.436 Y101.377
G1 X172.597 Y93.209 E18.9971
G1 X172.597 Y93.724
G1 X164.817 Y101.512 E19.1802
G1 X165.198 Y101.646
G1 X172.597 Y94.239 E19.3543
G1 X172.597 Y94.755
G1 X165.540 Y101.818 E19.5204
G1 X165.871 Y102.003
G1 X172.597 Y95.270 E19.6786
G1 X172.597 Y95.785
G1 X166.201 Y102.187 E19.8291
G1 X166.494 Y102.410
G1 X172.597 Y96.301 E19.9727
G1 X172.597 Y96.816
G1 X166.779 Y102.640 E20.1096
G1 X167.064 Y102.869
G1 X172.597 Y97.331 E20.2398
G1 X172.597 Y97.847
G1 X167.313 Y103.136 E20.3641
G1 X167.554 Y103.410
G1 X172.597 Y98.362 E20.4828
G1 X172.597 Y98.877
G1 X167.795 Y103.683 E20.5958
G1 X168.001 Y103.993
G1 X172.597 Y99.393 E20.7039
G1 X172.597 Y99.908
G1 X168.197 Y104.312 E20.8075
G1 X168.394 Y104.631
G1 X172.597 Y100.423 E20.9064
G1 X172.597 Y100.939
G1 X168.549 Y104.991 E21.0016
G1 X168.697 Y105.358
G1 X172.597 Y101.454 E21.0934
G1 X172.597 Y101.969
G1 X168.841 Y105.728 E21.1817
G1 X168.933 Y106.152
G1 X172.597 Y102.485 E21.2679
G1 X172.597 Y103.000
G1 X169.025 Y106.575 E21.3520
G1 X169.081 Y107.034
G1 X172.597 Y103.515 E21.4347
G1 X172.597 Y104.031
G1 X169.103 Y107.528 E21.5169
G1 X169.098 Y108.048
G1 X172.597 Y104.546 E21.5992
G1 X172.597 Y105.061
G1 X169.024 Y108.638 E21.6833
G1 X168.887 Y109.290
G1 X172.597 Y105.577 E21.7706
G1 X172.597 Y106.092
G1 X168.661 Y110.031 E21.8632
G0 X168.114 Y111.094 F10800
G1 X172.597 Y106.607 E21.9687 F600
G1 X172.597 Y107.123
G1 X162.115 Y117.614 E22.2153
G1 X162.630 Y117.614
G1 X172.597 Y107.638 E22.4499
G1 X172.597 Y108.153
G1 X163.145 Y117.614 E22.6723
G1 X163.660 Y117.614
G1 X172.597 Y108.669 E22.8826
G1 X172.597 Y109.184
G1 X164.175 Y117.614 E23.0807
G1 X164.689 Y117.614
G1 X168.522 Y113.778 E23.1709
G1 X168.586 Y113.714
G1 X172.597 Y109.699 E23.2653
G1 X172.597 Y110.215
G1 X169.695 Y113.120 E23.3336
G0 X171.506 Y113.883 F10800
G1 X172.597 Y112.791 E23.3592 F600
G1 X172.597 Y113.307
G1 X171.706 Y114.198 E23.3802
G1 X171.824 Y114.596
G1 X172.597 Y113.822 E23.3984
G1 X172.597 Y114.337
G1 X171.873 Y115.062 E23.4154
G0 X172.412 Y117.614 F10800
G1 X172.597 Y117.429 E23.4198 F600
G1 X172.597 Y116.914
G1 X171.897 Y117.614 E23.4363
G1 X171.383 Y117.614
G1 X172.597 Y116.399 E23.4648
G1 X172.597 Y115.883
G1 X170.868 Y117.614 E23.5055
G1 X170.353 Y117.614
G1 X172.597 Y115.368 E23.5583
G1 X172.597 Y114.853
G1 X171.727 Y115.724 E23.5788
G0 X170.712 Y116.740 F10800
G1 X169.838 Y117.614 E23.5994 F600
G1 X169.323 Y117.614
G1 X170.034 Y116.903 E23.6161
G1 X169.567 Y116.855
G1 X168.808 Y117.614 E23.6340
G1 X168.293 Y117.614
G1 X169.196 Y116.711 E23.6552
G1 X168.863 Y116.528
G1 X167.779 Y117.614 E23.6807
G1 X167.264 Y117.614
G1 X168.597 Y116.280 E23.7121
G1 X168.376 Y115.985
G1 X166.749 Y117.614 E23.7504
G1 X166.234 Y117.614
G1 X168.200 Y115.647 E23.7966
G1 X168.115 Y115.216
G1 X165.719 Y117.614 E23.8530
G1 X165.204 Y117.614
G1 X168.128 Y114.687 E23.9218
G0 X164.287 Y113.895 F10800
G1 X160.571 Y117.614 E24.0093 F600
G1 X160.056 Y117.614
G1 X163.615 Y114.052 E24.0930
G1 X163.051 Y114.101
G1 X159.541 Y117.614 E24.1756
G1 X159.026 Y117.614
G1 X162.509 Y114.128 E24.2576
G1 X162.034 Y114.089
G1 X158.511 Y117.614 E24.3404
G1 X157.996 Y117.614
G1 X161.558 Y114.049 E24.4242
G1 X161.144 Y113.948
G1 X157.481 Y117.614 E24.5104
G1 X156.967 Y117.614
G1 X160.735 Y113.842 E24.5991
G1 X160.343 Y113.720
G1 X156.452 Y117.614 E24.6907
G1 X155.937 Y117.614
G1 X159.988 Y113.560 E24.7860
G1 X159.633 Y113.400
G1 X155.422 Y117.614 E24.8851
G1 X154.907 Y117.614
G1 X159.300 Y113.217 E24.9884
G1 X158.993 Y113.010
G1 X154.392 Y117.614 E25.0967
G1 X153.877 Y117.614
G1 X158.685 Y112.802 E25.2098
G1 X158.399 Y112.573
G1 X153.363 Y117.614 E25.3283
G1 X152.848 Y117.614
G1 X158.136 Y112.321 E25.4527
G1 X157.873 Y112.069
G1 X152.333 Y117.614 E25.5831
G1 X151.818 Y117.614
G1 X157.630 Y111.797 E25.7198
G1 X157.410 Y111.501
G1 X151.303 Y117.614 E25.8635
G1 X150.788 Y117.614
G1 X157.191 Y111.205 E26.0142
G1 X156.993 Y110.888
G1 X150.273 Y117.614 E26.1723
G1 X149.759 Y117.614
G1 X156.820 Y110.546 E26.3384
G1 X156.647 Y110.204
G1 X149.244 Y117.614 E26.5127
G1 X148.729 Y117.614
G1 X156.504 Y109.832 E26.6956
G1 X156.383 Y109.438
G1 X148.214 Y117.614 E26.8878
G1 X147.699 Y117.614
G1 X156.262 Y109.044 E27.0893
G1 X156.196 Y108.594
G1 X147.184 Y117.614 E27.3013
G1 X146.669 Y117.614
G1 X156.137 Y108.138 E27.5241
G1 X156.118 Y107.642
G1 X153.143 Y110.619 E27.5941
G0 X150.366 Y113.399 F10800
G1 X146.155 Y117.614 E27.6932 F600
G1 X145.640 Y117.614
G1 X149.460 Y113.790 E27.7831
G1 X148.763 Y113.973
G1 X145.125 Y117.614 E27.8687
G1 X144.610 Y117.614
G1 X148.148 Y114.073 E27.9520
G1 X147.585 Y114.122
G1 X144.095 Y117.614 E28.0341
G1 X143.580 Y117.614
G1 X147.080 Y114.111 E28.1164
G1 X146.605 Y114.072
G1 X143.065 Y117.614 E28.1997
G1 X142.551 Y117.614
G1 X146.153 Y114.009 E28.2844
G1 X145.744 Y113.903
G1 X142.036 Y117.614 E28.3717
G1 X141.521 Y117.614
G1 X145.335 Y113.797 E28.4614
G0 X148.426 Y113.628 F10800
G0 X150.366 Y112.939
G0 X152.579 Y110.809
G0 X153.533 Y109.714
G1 X156.140 Y107.104 E28.5228 F600
G1 X156.214 Y106.515
G1 X153.756 Y108.975 E28.5806
G1 X153.831 Y108.385
G1 X156.354 Y105.860 E28.6400
G1 X156.654 Y105.044
G1 X153.890 Y107.810 E28.7050
G1 X153.869 Y107.316
G1 X157.279 Y103.903 E28.7853
G0 X153.847 Y106.823 F10800
G1 X161.831 Y98.832 E28.9731 F600
G1 X162.306 Y98.871
G1 X158.943 Y102.237 E29.0522
G0 X160.059 Y101.636 F10800
G1 X162.810 Y98.882 E29.1170 F600
G1 X163.374 Y98.833
G1 X160.857 Y101.352 E29.1762
G1 X161.503 Y101.221
G1 X163.989 Y98.733 E29.2347
G1 X164.686 Y98.550
G1 X162.113 Y101.126 E29.2953
G1 X162.628 Y101.125
G1 X165.593 Y98.158 E29.3650
G0 X160.970 Y98.663 F10800
G1 X153.669 Y105.970 E29.5368 F600
G1 X153.556 Y105.568
G1 X160.561 Y98.557 E29.7016
G1 X160.191 Y98.411
G1 X153.408 Y105.200 E29.8612
G1 X153.260 Y104.833
G1 X159.836 Y98.251 E30.0159
G1 X159.481 Y98.091
G1 X153.085 Y104.494 E30.1664
G1 X152.888 Y104.175
G1 X159.169 Y97.889 E30.3142
G1 X158.861 Y97.681
G1 X152.691 Y103.857 E30.4594
G1 X152.467 Y103.566
G1 X158.554 Y97.474 E30.6026
G1 X158.287 Y97.225
G1 X152.226 Y103.292 E30.7452
G1 X151.984 Y103.019
G1 X158.024 Y96.974 E30.8873
G1 X157.760 Y96.722
G1 X151.717 Y102.771 E31.0295
G1 X151.431 Y102.541
G1 X157.536 Y96.431 E31.1732
G1 X157.317 Y96.135
G1 X151.146 Y102.311 E31.3184
G1 X150.835 Y102.108
G1 X157.098 Y95.839 E31.4657
G1 X156.920 Y95.502
G1 X150.504 Y101.924 E31.6167
G1 X150.173 Y101.739
G1 X156.747 Y95.160 E31.7714
G1 X156.574 Y94.817
G1 X149.809 Y101.588 E31.9305
G1 X149.428 Y101.454
G1 X156.453 Y94.423 E32.0958
G1 X156.331 Y94.029
G1 X149.048 Y101.320 E32.2672
G1 X148.612 Y101.240
G1 X156.230 Y93.615 E32.4464
G1 X156.171 Y93.159
G1 X148.173 Y101.165 E32.6346
G1 X147.706 Y101.117
G1 X151.139 Y97.681 E32.7154
G0 X149.964 Y98.342 F10800
G1 X147.196 Y101.112 E32.7805 F600
G1 X146.633 Y101.160
G1 X149.163 Y98.628 E32.8401
G1 X148.471 Y98.805
G1 X146.011 Y101.268 E32.8980
G1 X145.290 Y101.474
G1 X147.908 Y98.854 E32.9595
G1 X147.352 Y98.894
G1 X144.396 Y101.853 E33.0291
G0 X142.485 Y104.001 F10800
G0 X141.560 Y105.843
G0 X139.113 Y113.325
G1 X141.694 Y110.742 E33.0898 F600
G1 X141.872 Y111.079
G1 X139.834 Y113.118 E33.1378
G1 X140.345 Y113.123
G1 X142.091 Y111.374 E33.1789
G1 X142.311 Y111.670
G1 X140.729 Y113.253 E33.2161
G1 X141.066 Y113.431
G1 X142.535 Y111.961 E33.2506
G1 X142.798 Y112.213
G1 X141.355 Y113.658 E33.2846
G1 X141.578 Y113.950
G1 X143.061 Y112.465 E33.3195
G1 X143.328 Y112.713
G1 X141.777 Y114.266 E33.3560
G1 X141.873 Y114.685
G1 X143.636 Y112.921 E33.3975
G1 X143.943 Y113.128
G1 X141.904 Y115.169 E33.4454
G0 X140.938 Y116.651 F10800
G1 X139.976 Y117.614 E33.4681 F600
G1 X139.461 Y117.614
G1 X140.175 Y116.900 E33.4849
G1 X139.695 Y116.865
G1 X138.947 Y117.614 E33.5025
G1 X138.432 Y117.614
G1 X139.301 Y116.744 E33.5229
G1 X138.949 Y116.581
G1 X137.917 Y117.614 E33.5472
G0 X138.390 Y114.049 F10800
G1 X137.403 Y115.037 E33.5704 F600
G1 X137.403 Y114.521
G1 X141.521 Y110.399 E33.6673
G1 X141.349 Y110.057
G1 X137.403 Y114.006 E33.7602
G1 X137.403 Y113.491
G1 X141.227 Y109.663 E33.8502
G1 X141.106 Y109.269
G1 X137.403 Y112.975 E33.9373
G1 X137.403 Y112.460
G1 X141.005 Y108.855 E34.0220
G1 X140.946 Y108.399
G1 X137.403 Y111.945 E34.1054
G1 X137.403 Y111.429
G1 X140.887 Y107.942 E34.1874
G1 X140.902 Y107.411
G1 X137.403 Y110.914 E34.2697
G1 X137.403 Y110.399
G1 X140.924 Y106.874 E34.3526
G1 X141.049 Y106.234
G1 X137.403 Y109.883 E34.4384
G1 X137.403 Y109.368
G1 X141.233 Y105.535 E34.5285
G0 X141.586 Y104.666 F10800
G1 X137.403 Y108.853 E34.6269 F600
G1 X137.403 Y108.337
G1 X146.877 Y98.854 E34.8498
G1 X146.402 Y98.815
G1 X137.403 Y107.822 E35.0616
G1 X137.403 Y107.307
G1 X145.978 Y98.723 E35.2633
G1 X145.569 Y98.617
G1 X137.403 Y106.791 E35.4555
G1 X137.403 Y106.276
G1 X145.169 Y98.503 E35.6382
G1 X144.814 Y98.343
G1 X137.403 Y105.761 E35.8126
G1 X137.403 Y105.245
G1 X144.459 Y98.183 E35.9786
G1 X144.120 Y98.007
G1 X137.403 Y104.730 E36.1366
G1 X137.403 Y104.215
G1 X143.812 Y97.800 E36.2874
G1 X143.504 Y97.592
G1 X137.403 Y103.699 E36.4310
G1 X137.403 Y103.184
G1 X143.212 Y97.369 E36.5677
G1 X142.949 Y97.118
G1 X137.403 Y102.669 E36.6982
G1 X137.403 Y102.153
G1 X142.686 Y96.866 E36.8225
G1 X142.436 Y96.600
G1 X137.403 Y101.638 E36.9409
G1 X137.403 Y101.123
G1 X142.217 Y96.304 E37.0542
G1 X141.998 Y96.008
G1 X137.403 Y100.607 E37.1623
G1 X137.403 Y100.092
G1 X141.793 Y95.698 E37.2656
G1 X141.620 Y95.355
G1 X137.403 Y99.577 E37.3648
G1 X137.403 Y99.061
G1 X141.447 Y95.013 E37.4600
G1 X141.297 Y94.649
G1 X137.403 Y98.546 E37.5516
G1 X137.403 Y98.031
G1 X141.176 Y94.255 E37.6404
G1 X141.054 Y93.861
G1 X137.403 Y97.515 E37.7263
G1 X137.403 Y97.000
G1 X140.980 Y93.420 E37.8105
G1 X140.921 Y92.964
G1 X137.403 Y96.485 E37.8932
G1 X137.403 Y95.969
G1 X140.890 Y92.479 E37.9753
G1 X140.912 Y91.942
G1 X137.403 Y95.454 E38.0578
G1 X137.403 Y94.939
G1 X140.968 Y91.370 E38.1417
G1 X141.108 Y90.714
G1 X137.403 Y94.423 E38.2289
G1 X137.403 Y93.908
G1 X141.379 Y89.928 E38.3225
G0 X141.935 Y88.856 F10800
G1 X137.403 Y93.393 E38.4291 F600
G1 X137.403 Y92.877
G1 X147.885 Y82.386 E38.6757
G1 X147.370 Y82.386
G1 X137.403 Y92.362 E38.9103
G1 X137.403 Y91.847
G1 X146.855 Y82.386 E39.1327
G1 X146.340 Y82.386
G1 X137.403 Y91.331 E39.3429
G1 X137.403 Y90.816
G1 X145.825 Y82.386 E39.5411
G1 X145.311 Y82.386
G1 X137.403 Y90.301 E39.7272
G1 X137.403 Y89.785
G1 X140.319 Y86.867 E39.7958
G1 X139.792 Y86.879
G1 X137.403 Y89.270 E39.8520
G1 X137.403 Y88.755
G1 X139.378 Y86.777 E39.8985
G1 X139.020 Y86.621
G1 X137.403 Y88.239 E39.9365
G1 X137.403 Y87.724
G1 X138.740 Y86.386 E39.9680
G1 X138.481 Y86.130
G1 X137.403 Y87.209 E39.9933
G1 X137.403 Y86.693
G1 X138.304 Y85.791 E40.0146
G1 X138.172 Y85.409
G1 X137.403 Y86.178 E40.0326
G1 X137.403 Y85.663
G1 X138.108 Y84.957 E40.0492
G1 X138.232 Y84.317
G1 X137.403 Y85.147 E40.0687
G1 X137.403 Y84.632
G1 X139.647 Y82.386 E40.1215
G1 X139.132 Y82.386
G1 X137.403 Y84.117 E40.1622
G1 X137.403 Y83.601
G1 X138.617 Y82.386 E40.1908
G1 X138.103 Y82.386
G1 X137.403 Y83.086 E40.2073
G1 X137.403 Y82.571
G1 X137.588 Y82.386 E40.2116
G0 X139.288 Y83.260 F10800
G1 X140.162 Y82.386 E40.2322 F600
G1 X140.677 Y82.386
G1 X139.946 Y83.117 E40.2494
G1 X140.427 Y83.151
G1 X141.192 Y82.386 E40.2674
G1 X141.707 Y82.386
G1 X140.812 Y83.281 E40.2884
G0 X141.873 Y85.311 F10800
G1 X144.796 Y82.386 E40.3572 F600
G0 X143.896 Y86.894 F10800
G1 X148.400 Y82.386 E40.4631 F600
G1 X148.915 Y82.386
G1 X144.949 Y86.355 E40.5564
G1 X145.745 Y86.073
G1 X149.429 Y82.386 E40.6431
G1 X149.944 Y82.386
G1 X146.368 Y85.966 E40.7273
G1 X146.962 Y85.886
G1 X150.459 Y82.386 E40.8096
G1 X150.974 Y82.386
G1 X147.478 Y85.885 E40.8918
G1 X147.984 Y85.894
G1 X151.489 Y82.386 E40.9743
G1 X152.004 Y82.386
G1 X148.424 Y85.969 E41.0585
G1 X148.864 Y86.044
G1 X152.519 Y82.386 E41.1445
G1 X153.033 Y82.386
G1 X149.266 Y86.157 E41.2331
G1 X149.647 Y86.291
G1 X153.548 Y82.386 E41.3249
G1 X154.063 Y82.386
G1 X150.028 Y86.425 E41.4199
G1 X150.363 Y86.605
G1 X154.578 Y82.386 E41.5191
G1 X155.093 Y82.386
G1 X150.693 Y86.789 E41.6226
G1 X151.024 Y86.974
G1 X155.608 Y82.386 E41.7305
G1 X156.123 Y82.386
G1 X151.310 Y87.203 E41.8437
G1 X151.595 Y87.433
G1 X156.637 Y82.386 E41.9623
G1 X157.152 Y82.386
G1 X151.880 Y87.663 E42.0864
G1 X152.123 Y87.936
G1 X157.667 Y82.386 E42.2169
G1 X158.182 Y82.386
G1 X152.364 Y88.209 E42.3538
G1 X152.605 Y88.483
G1 X158.697 Y82.386 E42.4971
G1 X159.212 Y82.386
G1 X152.804 Y88.799 E42.6479
G1 X153.001 Y89.118
G1 X159.727 Y82.386 E42.8061
G1 X160.241 Y82.386
G1 X153.197 Y89.437 E42.9719
G1 X153.345 Y89.804
G1 X160.756 Y82.386 E43.1462
G1 X161.271 Y82.386
G1 X153.493 Y90.171 E43.3292
G1 X153.630 Y90.550
G1 X161.786 Y82.386 E43.5212
G1 X162.301 Y82.386
G1 X153.722 Y90.973 E43.7230
G0 X153.201 Y93.555 F10800
G0 X152.681 Y96.137
G1 X156.112 Y92.703 E43.8038 F600
G1 X156.127 Y92.172
G1 X153.365 Y94.937 E43.8688
G1 X153.629 Y94.158
G1 X156.149 Y91.635 E43.9281
G1 X156.274 Y90.995
G1 X153.788 Y93.483 E43.9866
G1 X153.862 Y92.893
G1 X156.457 Y90.296 E44.0476
G0 X158.391 Y87.984 F10800
G0 X160.516 Y86.233
G1 X164.360 Y82.386 E44.1381 F600
G1 X163.845 Y82.386
G1 X159.623 Y86.612 E44.2374
G0 X156.809 Y89.428 F10800
G1 X153.881 Y92.359 E44.3063 F600
G1 X153.859 Y91.866
G1 X163.331 Y82.386 E44.5292
G0 X161.237 Y86.027 F10800
G1 X164.875 Y82.386 E44.6148 F600
G1 X165.390 Y82.386
G1 X161.859 Y85.920 E44.6978
G1 X162.422 Y85.872
G1 X165.905 Y82.386 E44.7798
G1 X166.420 Y82.386
G1 X162.931 Y85.877 E44.8619
G1 X163.398 Y85.925
G1 X166.935 Y82.386 E44.9451
G1 X167.449 Y82.386
G1 X163.838 Y86.000 E45.0301
G1 X164.273 Y86.080
G1 X167.964 Y82.386 E45.1169
G1 X168.479 Y82.386
G1 X164.654 Y86.214 E45.2069
G1 X165.035 Y86.348
G1 X168.994 Y82.386 E45.3001
G1 X169.509 Y82.386
G1 X165.399 Y86.500 E45.3968
G1 X165.730 Y86.684
G1 X168.358 Y84.053 E45.4586
G1 X168.101 Y84.826
G1 X166.060 Y86.868 E45.5066
G1 X166.372 Y87.072
G1 X168.129 Y85.313 E45.5480
G1 X168.238 Y85.719
G1 X166.657 Y87.302 E45.5852
G1 X166.942 Y87.531
G1 X168.414 Y86.058 E45.6198
G1 X168.654 Y86.333
G1 X167.210 Y87.779 E45.6538
G1 X167.451 Y88.053
G1 X168.920 Y86.582 E45.6884
G1 X169.273 Y86.744
G1 X167.692 Y88.327 E45.7255
G1 X167.917 Y88.617
G1 X169.667 Y86.866 E45.7667
G1 X170.147 Y86.900
G1 X168.113 Y88.936 E45.8146
G1 X168.310 Y89.255
G1 X170.913 Y86.649 E45.8758
G0 X171.463 Y84.901 F10800
G0 X171.085 Y84.005
G0 X170.216 Y83.534
G0 X169.087 Y83.324
G1 X170.024 Y82.386 E45.8979 F600
G1 X170.539 Y82.386
G1 X169.807 Y83.118 E45.9151
G1 X170.317 Y83.123
G1 X171.053 Y82.386 E45.9324
G1 X171.568 Y82.386
G1 X170.701 Y83.254 E45.9528
G1 X171.038 Y83.432
G1 X172.083 Y82.386 E45.9774
G1 X172.597 Y82.387
G1 X171.326 Y83.659 E46.0073
G0 F4800 E45.0073
G0 X171.814 Y85.242 F10800
G0 X170.769 Y86.674
G0 X169.053 Y86.589
G0 X166.242 Y88.800
G0 F4800 E46.0073
;segType:Support
G1 X159.200 Y88.800 E46.1069 F900
G1 X159.835 Y88.100 E46.1202
G1 X165.393 Y88.100 E46.1988
G0 F4800 E45.1988
G0 X161.522 Y87.400 F10800
G0 F4800 E46.1988
G1 X163.708 Y87.400 E46.2297 F900
G0 F4800 E45.2297
G0 X164.800 Y90.900 F10800
G0 F4800 E46.2297
G1 X167.498 Y90.900 E46.2679 F900
G0 F4800 E45.2679
G0 X166.816 Y89.500 F10800
G0 F4800 E46.2679
G1 X158.408 Y89.500 E46.3867 F900
G1 X158.004 Y90.200 E46.3981
G1 X166.900 Y90.200 E46.5239
G0 F4800 E45.5239
G0 X167.650 Y91.600 F10800
G0 F4800 E46.5239
G1 X164.800 Y91.600 E46.5642 F900
G1 X164.800 Y92.300 E46.5741
G1 X167.702 Y92.300 E46.6151
G1 X167.663 Y93.000 E46.6250
G1 X164.800 Y93.000 E46.6655
G0 F4800 E45.6655
G0 X167.530 Y93.700 F10800
G0 F4800 E46.6655
G1 X163.400 Y93.700 E46.7238 F900
G0 F4800 E45.7238
G0 X161.300 Y94.400 F10800
G0 F4800 E46.7238
G1 X157.931 Y94.400 E46.7715 F900
G1 X157.800 Y93.700 E46.7815
G1 X161.300 Y93.700 E46.8310
G0 F4800 E45.8310
G0 X159.900 Y92.300 F10800
G0 F4800 E46.8310
G1 X157.800 Y92.300 E46.8607 F900
G1 X157.800 Y93.000 E46.8706
G1 X159.900 Y93.000 E46.9003
G0 F4800 E45.9003
G0 X158.823 Y95.800 F10800
G0 F4800 E46.9003
G1 X166.400 Y95.800 E47.0074 F900
G0 F4800 E46.0074
G0 X165.500 Y96.500 F10800
G0 F4800 E47.0074
G1 X159.615 Y96.500 E47.0906 F900
G0 F4800 E46.0906
G0 X160.914 Y97.200 F10800
G0 F4800 E47.0906
G1 X164.309 Y97.200 E47.1386 F900
G0 F4800 E46.1386
G0 X163.400 Y94.400 F10800
G0 F4800 E47.1386
G1 X167.293 Y94.400 E47.1936 F900
G1 X166.900 Y95.100 E47.2049
G1 X158.293 Y95.100 E47.3266
G0 F4800 E46.3266
G0 X157.800 Y91.600 F10800
G0 F4800 E47.3266
G1 X161.300 Y91.600 E47.3761 F900
G1 X161.300 Y90.900 E47.3860
G1 X157.800 Y90.900 E47.4354
G0 F4800 E46.4354
G0 X152.273 Y90.900 F10800
G0 F4800 E47.4354
G1 X149.400 Y90.900 E47.4760 F900
G0 F4800 E46.4760
G0 X146.297 Y87.400 F10800
G0 F4800 E47.4760
G1 X148.482 Y87.400 E47.5069 F900
G0 F4800 E46.5069
G0 X150.168 Y88.100 F10800
G0 F4800 E47.5069
G1 X144.609 Y88.100 E47.5855 F900
; ------------------------------------
; Layer #1
; ------------------------------------
G21 ; mm
G90 ; abs
G92 E0 ; reset extr
M106 S255
;segType:Support
G0 F4800 E-1.0000
G0 F300 Z1.700
G0 X144.612 Y88.100 F10800
G0 F4800 E0.0000
G1 X150.167 Y88.100 E0.0785 F5400
G0 F4800 E-0.9215
G0 X151.016 Y88.800 F10800
G0 F4800 E0.0785
G1 X143.800 Y88.800 E0.1805 F5400
G1 X143.184 Y89.500 E0.1937
G1 X151.500 Y89.500 E0.3113
G1 X151.500 Y90.200 E0.3212
G1 X142.779 Y90.200 E0.4444
G0 F4800 E-0.5556
G0 X142.470 Y93.700 F10800
G0 F4800 E0.4444
G1 X152.304 Y93.700 E0.5835 F5400
G1 X152.067 Y94.400 E0.5939
G1 X142.706 Y94.400 E0.7262
G1 X143.068 Y95.100 E0.7373
G1 X151.500 Y95.100 E0.8565
G0 F4800 E-0.1435
G0 X149.400 Y92.300 F10800
G0 F4800 E0.8565
G1 X152.477 Y92.300 E0.9000 F5400
G1 X152.437 Y93.000 E0.9099
G1 X149.400 Y93.000 E0.9529
G0 F4800 E-0.0471
G0 X151.173 Y95.800 F10800
G0 F4800 E0.9529
G1 X143.598 Y95.800 E1.0599 F5400
G0 F4800 E0.0599
G0 X144.391 Y96.500 F10800
G0 F4800 E1.0599
G1 X150.100 Y96.500 E1.1406 F5400
G0 F4800 E0.1406
G0 X149.080 Y97.200 F10800
G0 F4800 E1.1406
G1 X145.692 Y97.200 E1.1885 F5400
G0 F4800 E0.1885
G0 X145.900 Y93.000 F10800
G0 F4800 E1.1885
G1 X142.400 Y93.000 E1.2380 F5400
G1 X142.400 Y92.300 E1.2479
G1 X145.900 Y92.300 E1.2974
G1 X145.900 Y91.600 E1.3073
G1 X142.400 Y91.600 E1.3568
G1 X142.501 Y90.900 E1.3667
G1 X145.900 Y90.900 E1.4148
G0 F4800 E0.4148
G0 X149.400 Y91.600 F10800
G0 F4800 E1.4148
G1 X152.425 Y91.600 E1.4576 F5400
G0 F4800 E0.4576
G0 X157.800 Y92.300 F10800
G0 F4800 E1.4576
G1 X159.900 Y92.300 E1.4872 F5400
G1 X159.900 Y93.000 E1.4971
G1 X157.800 Y93.000 E1.5268
G1 X157.800 Y93.700 E1.5367
G1 X161.300 Y93.700 E1.5862
G1 X161.300 Y94.400 E1.5961
G1 X157.932 Y94.400 E1.6437
G0 F4800 E0.6437
G0 X159.616 Y96.500 F10800
G0 F4800 E1.6437
G1 X165.500 Y96.500 E1.7269 F5400
G0 F4800 E0.7269
G0 X166.399 Y95.800 F10800
G0 F4800 E1.7269
G1 X158.823 Y95.800 E1.8340 F5400
G1 X158.293 Y95.100 E1.8464
G1 X166.900 Y95.100 E1.9680
G0 F4800 E0.9680
G0 X164.305 Y97.200 F10800
G0 F4800 E1.9680
G1 X160.917 Y97.200 E2.0159 F5400
G0 F4800 E1.0159
G0 X164.100 Y102.800 F10800
G0 F4800 E2.0159
G1 X160.969 Y102.800 E2.0602 F5400
G0 F4800 E1.0602
G0 X159.200 Y104.200 F10800
G0 F4800 E2.0602
G1 X166.383 Y104.200 E2.1617 F5400
G1 X166.900 Y104.900 E2.1740
G1 X158.311 Y104.900 E2.2954
G0 F4800 E1.2954
G0 X159.611 Y103.500 F10800
G0 F4800 E2.2954
G1 X165.612 Y103.500 E2.3803 F5400
G0 F4800 E1.3803
G0 X166.900 Y105.600 F10800
G0 F4800 E2.3803
G1 X157.940 Y105.600 E2.5069 F5400
G0 F4800 E1.5069
G0 X158.991 Y111.200 F10800
G0 F4800 E2.5069
G1 X166.233 Y111.200 E2.6093 F5400
G0 F4800 E1.6093
G0 X165.372 Y111.900 F10800
G0 F4800 E2.6093
G1 X159.854 Y111.900 E2.6873 F5400
G0 F4800 E1.6873
G0 X161.532 Y112.600 F10800
G0 F4800 E2.6873
G1 X163.698 Y112.600 E2.7179 F5400
G0 F4800 E1.7179
G0 X166.812 Y110.500 F10800
G0 F4800 E2.7179
G1 X158.412 Y110.500 E2.8366 F5400
G1 X158.013 Y109.800 E2.8480
G1 X167.211 Y109.800 E2.9780
G1 X167.480 Y109.100 E2.9886
G1 X157.800 Y109.100 E3.1255
G1 X157.800 Y108.400 E3.1354
G1 X161.300 Y108.400 E3.1849
G0 F4800 E2.1849
G0 X164.800 Y106.300 F10800
G0 F4800 E3.1849
G1 X167.532 Y106.300 E3.2235 F5400
G1 X167.677 Y107.000 E3.2336
G1 X164.800 Y107.000 E3.2742
G1 X164.800 Y107.700 E3.2841
G1 X167.709 Y107.700 E3.3253
G1 X167.642 Y108.400 E3.3352
G1 X164.800 Y108.400 E3.3754
G0 F4800 E2.3754
G0 X161.300 Y106.300 F10800
G0 F4800 E3.3754
G1 X157.800 Y106.300 E3.4248 F5400
G1 X157.800 Y107.000 E3.4347
G1 X161.300 Y107.000 E3.4842
G1 X161.300 Y107.700 E3.4941
G1 X157.800 Y107.700 E3.5436
G0 F4800 E2.5436
G0 X152.484 Y107.700 F10800
G0 F4800 E3.5436
G1 X149.400 Y107.700 E3.5872 F5400
G1 X149.400 Y108.400 E3.5971
G1 X152.417 Y108.400 E3.6397
G1 X152.255 Y109.100 E3.6499
G1 X142.520 Y109.100 E3.7875
G1 X142.400 Y108.400 E3.7975
G1 X145.900 Y108.400 E3.8470
G0 F4800 E2.8470
G0 X149.400 Y107.000 F10800
G0 F4800 E3.8470
G1 X152.452 Y107.000 E3.8901 F5400
G1 X152.307 Y106.300 E3.9002
G1 X149.400 Y106.300 E3.9413
G0 F4800 E2.9413
G0 X149.030 Y102.800 F10800
G0 F4800 E3.9413
G1 X145.744 Y102.800 E3.9878 F5400
G0 F4800 E2.9878
G0 X144.385 Y103.500 F10800
G0 F4800 E3.9878
G1 X150.387 Y103.500 E4.0726 F5400
G1 X151.157 Y104.200 E4.0873
G1 X143.800 Y104.200 E4.1913
G1 X143.086 Y104.900 E4.2055
G1 X151.689 Y104.900 E4.3271
G1 X152.059 Y105.600 E4.3383
G1 X142.715 Y105.600 E4.4704
G1 X142.467 Y106.300 E4.4809
G1 X145.900 Y106.300 E4.5294
G1 X145.900 Y107.000 E4.5393
G1 X142.400 Y107.000 E4.5888
G1 X142.400 Y107.700 E4.5987
G1 X145.900 Y107.700 E4.6481
G0 F4800 E3.6481
G0 X142.788 Y109.800 F10800
G0 F4800 E4.6481
G1 X151.987 Y109.800 E4.7782 F5400
G1 X151.500 Y110.500 E4.7902
G1 X143.187 Y110.500 E4.9077
G1 X143.766 Y111.200 E4.9206
G1 X151.008 Y111.200 E5.0229
G0 F4800 E4.0229
G0 X150.100 Y111.900 F10800
G0 F4800 E5.0229
G1 X144.629 Y111.900 E5.1003 F5400
G0 F4800 E4.1003
G0 X148.473 Y112.600 F10800
G0 F4800 E5.1003
G1 X146.307 Y112.600 E5.1309 F5400
G0 F4800 E4.1309
G0 X144.079 Y113.871 F10800
G0 X140.221 Y116.836
G0 X137.203 Y117.213
G0 F4800 E5.1309
;segType:Loop
G1 X137.203 Y82.185 E5.7134 F3600
G1 X172.797 Y82.185 E6.3053
G1 X172.797 Y117.815 E6.8978
G1 X137.203 Y117.815 E7.4898
G1 X137.203 Y117.395 E7.4967
;segType:Perimeter
G0 X137.408 Y117.909 F10800
G1 X136.803 Y118.160 E7.5076 F2159
G1 X136.803 Y81.785 E8.1126
G1 X173.197 Y81.785 E8.7178
G1 X173.197 Y118.215 E9.3236
G1 X136.858 Y118.215 E9.9280
G1 X137.108 Y117.609
G0 X140.180 Y116.474 F10800
G0 X141.068 Y116.043
G0 X141.486 Y115.165
G0 X141.768 Y114.248
;segType:HShell
G1 X145.131 Y117.614 E10.0071 F3600
G1 X144.616 Y117.614
G1 X141.909 Y114.905 E10.0708
G1 X141.863 Y115.374
G1 X144.101 Y117.614 E10.1234
G1 X143.586 Y117.614
G1 X141.751 Y115.777 E10.1666
;segType:Perimeter
G0 X141.547 Y115.888 F10800
G1 X140.894 Y115.947 E10.1775 F2159
G1 X140.582 Y116.171 E10.1839
G1 X140.160 Y116.293 E10.1912
G1 X139.721 Y116.267 E10.1985
G1 X139.316 Y116.097 E10.2058
G1 X138.991 Y115.801 E10.2131
G1 X138.783 Y115.414 E10.2204
G1 X138.715 Y114.980 E10.2278
G1 X138.796 Y114.547 E10.2351
G1 X139.016 Y114.167 E10.2424
G1 X139.351 Y113.882 E10.2497
G1 X139.761 Y113.724 E10.2570
G1 X140.200 Y113.712 E10.2643
G1 X140.618 Y113.848 E10.2716
G1 X140.967 Y114.115 E10.2789
G1 X141.207 Y114.483 E10.2862
G1 X141.309 Y114.902 E10.2934
G1 X141.306 Y115.139 E10.2973
G1 X141.190 Y115.555 E10.3045
G1 X140.970 Y115.870 E10.3109
G1 X140.918 Y116.524
;segType:Loop
G0 X140.014 Y116.686 F10800
G1 X139.629 Y116.663 E10.3173 F3600
G1 X139.097 Y116.439 E10.3269
G1 X138.671 Y116.051 E10.3365
G1 X138.398 Y115.543 E10.3461
G1 X138.309 Y114.973 E10.3557
G1 X138.416 Y114.406 E10.3653
G1 X138.705 Y113.907 E10.3749
G1 X139.144 Y113.532 E10.3845
G1 X139.682 Y113.326 E10.3941
G1 X140.258 Y113.310 E10.4037
G1 X140.806 Y113.488 E10.4132
G1 X141.264 Y113.838 E10.4228
G1 X141.580 Y114.321 E10.4324
G1 X141.710 Y114.857 E10.4416
G1 X141.705 Y115.197 E10.4472
G1 X141.557 Y115.728 E10.4564
G1 X141.227 Y116.201 E10.4660
G1 X140.759 Y116.536 E10.4756
G1 X140.205 Y116.697 E10.4852
G1 X140.196 Y116.696 E10.4853
G0 X150.374 Y112.934 F10800
G0 X156.320 Y109.231
;segType:HShell
G1 X153.837 Y106.746 E10.5437 F3600
;segType:Loop
G0 X153.691 Y107.834 F10800
G1 X153.693 Y107.869 E10.5443 F3600
G1 X153.560 Y108.932 E10.5621
G1 X153.250 Y109.958 E10.5799
G1 X152.770 Y110.916 E10.5978
G1 X152.137 Y111.779 E10.6156
G1 X151.366 Y112.523 E10.6334
G1 X150.481 Y113.125 E10.6512
G1 X149.507 Y113.569 E10.6690
G1 X148.472 Y113.842 E10.6868
G1 X147.406 Y113.936 E10.7046
G1 X146.339 Y113.849 E10.7224
G1 X145.303 Y113.582 E10.7402
G1 X144.326 Y113.143 E10.7580
G1 X143.438 Y112.546 E10.7758
G1 X142.663 Y111.807 E10.7936
G1 X142.024 Y110.948 E10.8114
G1 X141.539 Y109.992 E10.8292
G1 X141.223 Y108.969 E10.8470
G1 X141.084 Y107.907 E10.8649
G1 X141.126 Y106.836 E10.8827
G1 X141.348 Y105.788 E10.9005
G1 X141.745 Y104.793 E10.9183
G1 X142.303 Y103.879 E10.9361
G1 X143.008 Y103.073 E10.9539
G1 X143.838 Y102.397 E10.9717
G1 X144.771 Y101.872 E10.9895
G1 X145.779 Y101.512 E11.0073
G1 X146.820 Y101.331 E11.0249
G1 X147.377 Y101.304 E11.0342
G1 X147.926 Y101.326 E11.0433
G1 X148.960 Y101.503 E11.0607
G1 X149.970 Y101.857 E11.0785
G1 X150.906 Y102.376 E11.0963
G1 X151.740 Y103.047 E11.1141
G1 X152.450 Y103.849 E11.1319
G1 X153.014 Y104.760 E11.1498
G1 X153.416 Y105.752 E11.1676
G1 X153.644 Y106.799 E11.1854
G1 X153.683 Y107.652 E11.1996
;segType:Perimeter
G0 X153.626 Y106.369 F10800
G1 X153.249 Y106.906 E11.2105 F2159
G1 X153.292 Y107.853 E11.2263
G1 X153.167 Y108.849 E11.2430
G1 X152.877 Y109.809 E11.2596
G1 X152.428 Y110.706 E11.2763
G1 X151.834 Y111.514 E11.2930
G1 X151.113 Y112.211 E11.3097
G1 X150.285 Y112.775 E11.3263
G1 X149.372 Y113.191 E11.3430
G1 X148.403 Y113.446 E11.3597
G1 X147.405 Y113.535 E11.3763
G1 X146.406 Y113.452 E11.3930
G1 X145.436 Y113.203 E11.4097
G1 X144.521 Y112.792 E11.4263
G1 X143.689 Y112.233 E11.4430
G1 X142.964 Y111.541 E11.4597
G1 X142.365 Y110.736 E11.4764
G1 X141.911 Y109.841 E11.4930
G1 X141.615 Y108.883 E11.5097
G1 X141.485 Y107.888 E11.5264
G1 X141.524 Y106.886 E11.5431
G1 X141.733 Y105.905 E11.5598
G1 X142.104 Y104.973 E11.5765
G1 X142.627 Y104.117 E11.5931
G1 X143.287 Y103.362 E11.6098
G1 X144.064 Y102.730 E11.6265
G1 X144.938 Y102.238 E11.6432
G1 X145.882 Y101.901 E11.6598
G1 X146.864 Y101.729 E11.6764
G1 X147.378 Y101.705 E11.6850
G1 X147.884 Y101.726 E11.6934
G1 X148.860 Y101.892 E11.7098
G1 X149.805 Y102.224 E11.7265
G1 X150.682 Y102.710 E11.7432
G1 X151.463 Y103.338 E11.7598
G1 X152.128 Y104.089 E11.7765
G1 X152.656 Y104.942 E11.7932
G1 X153.032 Y105.871 E11.8099
G1 X153.235 Y106.798 E11.8257
G1 X153.737 Y107.219
G0 X158.052 Y111.661 F10800
G0 X159.658 Y112.951
G0 X161.601 Y113.632
G0 X163.660 Y113.626
G0 X165.265 Y113.546
;segType:HShell
G1 X169.329 Y117.614 E11.9213 F3600
G1 X169.844 Y117.614
G1 X165.619 Y113.385 E12.0207
;segType:Perimeter
G0 X165.148 Y113.460 F10800
G1 X164.545 Y113.205 E12.0316 F2159
G1 X163.629 Y113.446 E12.0474
G1 X162.630 Y113.535 E12.0640
G1 X161.631 Y113.452 E12.0807
G1 X160.661 Y113.203 E12.0974
G1 X159.746 Y112.792 E12.1140
G1 X158.914 Y112.233 E12.1307
G1 X158.188 Y111.541 E12.1474
G1 X157.590 Y110.736 E12.1641
G1 X157.136 Y109.841 E12.1807
G1 X156.840 Y108.883 E12.1974
G1 X156.710 Y107.889 E12.2141
G1 X156.750 Y106.886 E12.2308
G1 X156.958 Y105.905 E12.2475
G1 X157.329 Y104.973 E12.2641
G1 X157.852 Y104.117 E12.2808
G1 X158.511 Y103.362 E12.2975
G1 X159.289 Y102.730 E12.3142
G1 X160.163 Y102.238 E12.3308
G1 X161.107 Y101.901 E12.3475
G1 X162.094 Y101.728 E12.3642
G1 X163.096 Y101.725 E12.3808
G1 X164.085 Y101.892 E12.3975
G1 X165.030 Y102.224 E12.4142
G1 X165.907 Y102.710 E12.4308
G1 X166.688 Y103.338 E12.4475
G1 X167.353 Y104.089 E12.4642
G1 X167.881 Y104.942 E12.4809
G1 X168.257 Y105.871 E12.4976
G1 X168.471 Y106.851 E12.5142
G1 X168.517 Y107.853 E12.5309
G1 X168.392 Y108.849 E12.5476
G1 X168.102 Y109.809 E12.5643
G1 X167.653 Y110.706 E12.5810
G1 X167.060 Y111.514 E12.5976
G1 X166.338 Y112.211 E12.6143
G1 X165.509 Y112.775 E12.6310
G1 X164.647 Y113.168 E12.6467
G1 X164.341 Y113.748
;segType:Loop
G0 X163.731 Y113.833 F10800
G1 X163.698 Y113.842 E12.6473 F3600
G1 X162.631 Y113.936 E12.6651
G1 X161.564 Y113.849 E12.6829
G1 X160.528 Y113.582 E12.7007
G1 X159.552 Y113.143 E12.7185
G1 X158.663 Y112.546 E12.7363
G1 X157.888 Y111.807 E12.7541
G1 X157.249 Y110.948 E12.7720
G1 X156.764 Y109.992 E12.7898
G1 X156.448 Y108.969 E12.8076
G1 X156.309 Y107.907 E12.8254
G1 X156.351 Y106.836 E12.8432
G1 X156.573 Y105.788 E12.8610
G1 X156.970 Y104.793 E12.8788
G1 X157.528 Y103.879 E12.8967
G1 X158.233 Y103.073 E12.9145
G1 X159.064 Y102.397 E12.9323
G1 X159.997 Y101.872 E12.9501
G1 X161.005 Y101.512 E12.9679
G1 X162.059 Y101.328 E12.9857
G1 X163.129 Y101.325 E13.0035
G1 X164.185 Y101.503 E13.0213
G1 X165.195 Y101.857 E13.0391
G1 X166.131 Y102.376 E13.0569
G1 X166.965 Y103.047 E13.0747
G1 X167.675 Y103.849 E13.0925
G1 X168.239 Y104.760 E13.1103
G1 X168.641 Y105.752 E13.1281
G1 X168.869 Y106.799 E13.1459
G1 X168.918 Y107.869 E13.1637
G1 X168.785 Y108.932 E13.1816
G1 X168.475 Y109.958 E13.1994
G1 X167.995 Y110.916 E13.2172
G1 X167.362 Y111.779 E13.2350
G1 X166.591 Y112.523 E13.2528
G1 X165.706 Y113.125 E13.2706
G1 X164.732 Y113.569 E13.2884
G1 X163.907 Y113.787 E13.3026
;segType:HShell
G0 X167.109 Y112.301 F10800
G1 X168.554 Y113.747 E13.3366 F3600
G1 X168.832 Y113.510
G1 X167.371 Y112.048 E13.3710
G1 X167.613 Y111.774
G1 X169.144 Y113.306 E13.4070
G1 X169.516 Y113.164
G1 X167.831 Y111.477 E13.4466
G1 X168.049 Y111.180
G1 X169.984 Y113.117 E13.4922
;segType:Perimeter
G0 X169.787 Y113.239 F10800
G1 X170.223 Y113.729 E13.5031 F2159
G1 X170.589 Y113.848 E13.5094
G1 X170.938 Y114.115 E13.5168
G1 X171.178 Y114.483 E13.5241
G1 X171.282 Y114.910 E13.5314
G1 X171.238 Y115.348 E13.5387
G1 X171.051 Y115.746 E13.5460
G1 X170.742 Y116.058 E13.5533
G1 X170.350 Y116.248 E13.5606
G1 X170.004 Y116.301 E13.5664
G1 X169.686 Y116.265 E13.5717
G1 X169.286 Y116.097 E13.5789
G1 X168.962 Y115.801 E13.5862
G1 X168.753 Y115.414 E13.5935
G1 X168.686 Y114.980 E13.6008
G1 X168.767 Y114.547 E13.6082
G1 X168.987 Y114.167 E13.6155
G1 X169.321 Y113.882 E13.6228
G1 X169.732 Y113.724 E13.6301
G1 X170.116 Y113.714 E13.6365
G1 X170.672 Y113.367
;segType:Loop
G0 X171.340 Y113.998 F10800
G1 X171.550 Y114.321 E13.6429 F3600
G1 X171.687 Y114.882 E13.6525
G1 X171.629 Y115.456 E13.6621
G1 X171.383 Y115.978 E13.6717
G1 X170.978 Y116.389 E13.6813
G1 X170.470 Y116.635 E13.6907
G1 X170.012 Y116.705 E13.6984
G1 X169.584 Y116.657 E13.7055
G1 X169.068 Y116.439 E13.7148
G1 X168.642 Y116.051 E13.7244
G1 X168.369 Y115.543 E13.7340
G1 X168.280 Y114.973 E13.7436
G1 X168.386 Y114.406 E13.7532
G1 X168.675 Y113.907 E13.7628
G1 X169.114 Y113.532 E13.7724
G1 X169.653 Y113.326 E13.7820
G1 X170.229 Y113.310 E13.7916
G1 X170.777 Y113.488 E13.8012
G1 X171.235 Y113.838 E13.8107
G1 X171.240 Y113.846 E13.8109
G0 X168.043 Y104.859 F10800
G0 X166.814 Y103.206
G0 X165.105 Y102.057
G0 X158.052 Y96.421
G0 X156.968 Y94.670
G0 X149.579 Y82.386
;segType:HShell
G1 X156.750 Y89.564 E13.9796 F3600
;segType:Perimeter
G0 X156.745 Y89.920 F10800
G1 X157.357 Y89.686 E13.9905 F2159
G1 X157.852 Y88.877 E14.0063
G1 X158.511 Y88.122 E14.0230
G1 X159.289 Y87.490 E14.0397
G1 X160.163 Y86.998 E14.0563
G1 X161.107 Y86.661 E14.0730
G1 X162.090 Y86.489 E14.0896
G1 X162.603 Y86.465 E14.0981
G1 X163.109 Y86.486 E14.1066
G1 X164.085 Y86.652 E14.1230
G1 X165.030 Y86.984 E14.1397
G1 X165.907 Y87.470 E14.1563
G1 X166.688 Y88.098 E14.1730
G1 X167.353 Y88.849 E14.1897
G1 X167.881 Y89.702 E14.2064
G1 X168.257 Y90.631 E14.2231
G1 X168.471 Y91.611 E14.2397
G1 X168.517 Y92.613 E14.2564
G1 X168.392 Y93.609 E14.2731
G1 X168.102 Y94.569 E14.2898
G1 X167.653 Y95.466 E14.3065
G1 X167.060 Y96.274 E14.3231
G1 X166.338 Y96.971 E14.3398
G1 X165.509 Y97.535 E14.3565
G1 X164.597 Y97.951 E14.3732
G1 X163.629 Y98.206 E14.3898
G1 X162.630 Y98.295 E14.4065
G1 X161.631 Y98.212 E14.4232
G1 X160.661 Y97.963 E14.4398
G1 X159.746 Y97.552 E14.4565
G1 X158.914 Y96.993 E14.4732
G1 X158.188 Y96.301 E14.4898
G1 X157.590 Y95.496 E14.5065
G1 X157.136 Y94.601 E14.5232
G1 X156.840 Y93.643 E14.5399
G1 X156.710 Y92.649 E14.5566
G1 X156.750 Y91.646 E14.5732
G1 X156.958 Y90.665 E14.5899
G1 X157.309 Y89.784 E14.6057
G1 X157.128 Y89.153
;segType:Loop
G0 X157.510 Y88.669 F10800
G1 X157.528 Y88.639 E14.6063 F3600
G1 X158.233 Y87.833 E14.6241
G1 X159.063 Y87.157 E14.6419
G1 X159.997 Y86.632 E14.6597
G1 X161.005 Y86.272 E14.6775
G1 X162.046 Y86.090 E14.6951
G1 X162.602 Y86.064 E14.7043
G1 X163.151 Y86.086 E14.7135
G1 X164.185 Y86.263 E14.7309
G1 X165.195 Y86.617 E14.7487
G1 X166.131 Y87.136 E14.7665
G1 X166.965 Y87.807 E14.7843
G1 X167.675 Y88.609 E14.8021
G1 X168.239 Y89.520 E14.8199
G1 X168.641 Y90.512 E14.8378
G1 X168.869 Y91.559 E14.8556
G1 X168.918 Y92.629 E14.8734
G1 X168.785 Y93.692 E14.8912
G1 X168.475 Y94.718 E14.9090
G1 X167.995 Y95.676 E14.9268
G1 X167.362 Y96.539 E14.9446
G1 X166.591 Y97.283 E14.9624
G1 X165.706 Y97.885 E14.9803
G1 X164.732 Y98.329 E14.9981
G1 X163.698 Y98.602 E15.0158
G1 X162.631 Y98.696 E15.0336
G1 X161.564 Y98.609 E15.0515
G1 X160.528 Y98.342 E15.0692
G1 X159.552 Y97.903 E15.0870
G1 X158.663 Y97.306 E15.1049
G1 X157.888 Y96.567 E15.1227
G1 X157.249 Y95.708 E15.1405
G1 X156.764 Y94.752 E15.1583
G1 X156.448 Y93.729 E15.1761
G1 X156.309 Y92.667 E15.1939
G1 X156.351 Y91.596 E15.2117
G1 X156.573 Y90.548 E15.2295
G1 X156.970 Y89.553 E15.2474
G1 X157.415 Y88.825 E15.2616
G0 X156.910 Y90.775 F10800
G0 X156.242 Y93.693
;segType:HShell
G1 X153.776 Y91.225 E15.3196 F3600
;segType:Loop
G0 X153.691 Y92.594 F10800
G1 X153.693 Y92.629 E15.3202 F3600
G1 X153.560 Y93.692 E15.3380
G1 X153.250 Y94.718 E15.3558
G1 X152.770 Y95.676 E15.3736
G1 X152.137 Y96.539 E15.3914
G1 X151.366 Y97.283 E15.4092
G1 X150.481 Y97.885 E15.4270
G1 X149.507 Y98.329 E15.4448
G1 X148.472 Y98.602 E15.4626
G1 X147.406 Y98.696 E15.4804
G1 X146.339 Y98.609 E15.4982
G1 X145.303 Y98.342 E15.5160
G1 X144.326 Y97.903 E15.5338
G1 X143.438 Y97.306 E15.5516
G1 X142.663 Y96.567 E15.5694
G1 X142.024 Y95.708 E15.5872
G1 X141.539 Y94.752 E15.6051
G1 X141.223 Y93.729 E15.6229
G1 X141.084 Y92.667 E15.6407
G1 X141.126 Y91.596 E15.6585
G1 X141.348 Y90.548 E15.6763
G1 X141.745 Y89.553 E15.6941
G1 X142.303 Y88.639 E15.7119
G1 X143.008 Y87.833 E15.7297
G1 X143.838 Y87.157 E15.7476
G1 X144.771 Y86.632 E15.7654
G1 X145.779 Y86.272 E15.7832
G1 X146.834 Y86.088 E15.8010
G1 X147.904 Y86.085 E15.8188
G1 X148.959 Y86.263 E15.8366
G1 X149.970 Y86.617 E15.8544
G1 X150.906 Y87.136 E15.8722
G1 X151.740 Y87.807 E15.8900
G1 X152.450 Y88.609 E15.9078
G1 X153.014 Y89.520 E15.9256
G1 X153.416 Y90.512 E15.9434
G1 X153.644 Y91.559 E15.9612
G1 X153.683 Y92.412 E15.9754
;segType:Perimeter
G0 X153.626 Y91.129 F10800
G1 X153.249 Y91.666 E15.9863 F2159
G1 X153.292 Y92.613 E16.0021
G1 X153.167 Y93.609 E16.0188
G1 X152.877 Y94.569 E16.0355
G1 X152.428 Y95.466 E16.0521
G1 X151.834 Y96.274 E16.0688
G1 X151.113 Y96.971 E16.0855
G1 X150.285 Y97.535 E16.1022
G1 X149.372 Y97.951 E16.1188
G1 X148.403 Y98.206 E16.1355
G1 X147.405 Y98.295 E16.1522
G1 X146.406 Y98.212 E16.1688
G1 X145.436 Y97.963 E16.1855
G1 X144.521 Y97.552 E16.2022
G1 X143.689 Y96.993 E16.2188
G1 X142.964 Y96.301 E16.2355
G1 X142.365 Y95.496 E16.2522
G1 X141.911 Y94.601 E16.2689
G1 X141.615 Y93.643 E16.2856
G1 X141.485 Y92.648 E16.3022
G1 X141.524 Y91.646 E16.3189
G1 X141.733 Y90.665 E16.3356
G1 X142.104 Y89.733 E16.3523
G1 X142.627 Y88.877 E16.3690
G1 X143.287 Y88.122 E16.3856
G1 X144.064 Y87.490 E16.4023
G1 X144.938 Y86.998 E16.4190
G1 X145.882 Y86.661 E16.4357
G1 X146.869 Y86.488 E16.4523
G1 X147.871 Y86.485 E16.4690
G1 X148.859 Y86.652 E16.4857
G1 X149.805 Y86.983 E16.5023
G1 X150.682 Y87.470 E16.5190
G1 X151.463 Y88.098 E16.5357
G1 X152.128 Y88.849 E16.5523
G1 X152.656 Y89.702 E16.5690
G1 X153.032 Y90.631 E16.5857
G1 X153.235 Y91.558 E16.6015
G1 X153.737 Y91.979
G0 X152.274 Y88.740 F10800
G0 X150.783 Y87.319
G0 X140.826 Y82.386
;segType:HShell
G1 X144.834 Y86.397 E16.6958 F3600
G1 X144.485 Y86.564
G1 X140.311 Y82.386 E16.7940
G1 X139.796 Y82.386
G1 X140.631 Y83.221 E16.8136
;segType:Perimeter
G0 X140.965 Y83.505 F10800
G1 X140.997 Y84.160 E16.8245 F2159
G1 X141.207 Y84.483 E16.8309
G1 X141.311 Y84.910 E16.8382
G1 X141.267 Y85.348 E16.8456
G1 X141.080 Y85.745 E16.8529
G1 X140.771 Y86.058 E16.8602
G1 X140.379 Y86.248 E16.8674
G1 X140.033 Y86.301 E16.8732
G1 X139.716 Y86.265 E16.8786
G1 X139.316 Y86.097 E16.8858
G1 X138.991 Y85.801 E16.8931
G1 X138.783 Y85.414 E16.9004
G1 X138.715 Y84.980 E16.9077
G1 X138.796 Y84.547 E16.9150
G1 X139.016 Y84.167 E16.9223
G1 X139.351 Y83.881 E16.9296
G1 X139.761 Y83.724 E16.9369
G1 X140.200 Y83.712 E16.9443
G1 X140.618 Y83.848 E16.9516
G1 X140.924 Y84.081 E16.9580
G1 X141.574 Y84.161
;segType:Loop
G0 X141.697 Y85.072 F10800
G1 X141.658 Y85.456 E16.9644 F3600
G1 X141.412 Y85.978 E16.9740
G1 X141.007 Y86.388 E16.9836
G1 X140.500 Y86.635 E16.9929
G1 X140.041 Y86.705 E17.0007
G1 X139.614 Y86.656 E17.0078
G1 X139.098 Y86.440 E17.0171
G1 X138.671 Y86.051 E17.0267
G1 X138.398 Y85.543 E17.0363
G1 X138.309 Y84.973 E17.0459
G1 X138.416 Y84.406 E17.0555
G1 X138.705 Y83.907 E17.0651
G1 X139.143 Y83.532 E17.0747
G1 X139.682 Y83.325 E17.0843
G1 X140.258 Y83.310 E17.0939
G1 X140.806 Y83.488 E17.1034
G1 X141.264 Y83.838 E17.1130
G1 X141.580 Y84.321 E17.1226
G1 X141.716 Y84.882 E17.1322
G1 X141.715 Y84.891 E17.1324
G0 X170.150 Y86.474 F10800
G0 X171.039 Y86.043
G0 X171.572 Y85.568
G1 X171.528 Y85.728 E17.1351 F3600
G1 X171.198 Y86.200 E17.1447
G1 X170.729 Y86.536 E17.1543
G1 X170.175 Y86.697 E17.1639
G1 X169.600 Y86.663 E17.1735
G1 X169.068 Y86.440 E17.1831
G1 X168.642 Y86.051 E17.1927
G1 X168.369 Y85.544 E17.2023
G1 X168.280 Y84.973 E17.2118
G1 X168.386 Y84.406 E17.2214
G1 X168.675 Y83.907 E17.2310
G1 X169.114 Y83.532 E17.2406
G1 X169.653 Y83.325 E17.2502
G1 X170.229 Y83.310 E17.2598
G1 X170.777 Y83.488 E17.2694
G1 X171.235 Y83.838 E17.2790
G1 X171.550 Y84.321 E17.2886
G1 X171.680 Y84.857 E17.2977
G1 X171.675 Y85.197 E17.3034
G1 X171.621 Y85.392 E17.3068
;segType:Perimeter
G0 X171.379 Y83.908 F10800
G1 X171.191 Y84.536 E17.3177 F2159
G1 X171.280 Y84.902 E17.3239
G1 X171.276 Y85.139 E17.3279
G1 X171.161 Y85.554 E17.3351
G1 X170.909 Y85.915 E17.3424
G1 X170.552 Y86.171 E17.3497
G1 X170.130 Y86.293 E17.3570
G1 X169.692 Y86.267 E17.3643
G1 X169.286 Y86.097 E17.3716
G1 X168.962 Y85.801 E17.3789
G1 X168.753 Y85.414 E17.3862
G1 X168.686 Y84.980 E17.3935
G1 X168.767 Y84.547 E17.4008
G1 X168.987 Y84.167 E17.4082
G1 X169.321 Y83.881 E17.4155
G1 X169.732 Y83.724 E17.4228
G1 X170.171 Y83.712 E17.4301
G1 X170.589 Y83.848 E17.4374
G1 X170.938 Y84.115 E17.4447
G1 X171.148 Y84.437 E17.4511
G1 X171.735 Y84.729
;segType:HShell
G0 X171.809 Y84.539 F10800
G1 X172.597 Y85.327 E17.4696 F3600
G1 X172.597 Y85.843
G1 X171.877 Y85.122 E17.4866
G1 X171.786 Y85.546
G1 X172.597 Y86.358 E17.5057
G1 X172.597 Y86.873
G1 X171.641 Y85.916 E17.5282
G1 X171.429 Y86.219
G1 X172.597 Y87.389 E17.5557
G1 X172.597 Y87.904
G1 X171.165 Y86.470 E17.5894
G1 X170.865 Y86.685
G1 X172.597 Y88.419 E17.6301
G1 X172.597 Y88.935
G1 X170.481 Y86.817 E17.6799
G1 X170.039 Y86.889
G1 X172.597 Y89.450 E17.7401
G1 X172.597 Y89.965
G1 X169.453 Y86.818 E17.8141
G0 X168.742 Y90.229 F10800
G1 X172.597 Y94.088 E17.9048 F3600
G1 X172.597 Y93.573
G1 X168.354 Y89.326 E18.0046
G0 X168.939 Y90.942 F10800
G1 X172.597 Y94.603 E18.0907 F3600
G1 X172.597 Y95.119
G1 X169.071 Y91.589 E18.1737
G1 X169.095 Y92.129
G1 X172.597 Y95.634 E18.2561
G1 X172.597 Y96.149
G1 X169.115 Y92.664 E18.3380
G1 X169.058 Y93.122
G1 X172.597 Y96.665 E18.4213
G1 X172.597 Y97.180
G1 X169.000 Y93.580 E18.5059
G1 X168.902 Y93.997
G1 X172.597 Y97.695 E18.5928
G1 X172.597 Y98.211
G1 X168.782 Y94.392 E18.6826
G1 X168.663 Y94.788
G1 X172.597 Y98.726 E18.7752
G1 X172.597 Y99.241
G1 X168.491 Y95.132 E18.8718
G1 X168.319 Y95.475
G1 X172.597 Y99.757 E18.9724
G1 X172.597 Y100.272
G1 X168.142 Y95.813 E19.0772
G1 X167.924 Y96.110
G1 X172.597 Y100.787 E19.1872
G1 X172.597 Y101.303
G1 X167.706 Y96.407 E19.3023
G1 X167.483 Y96.700
G1 X172.597 Y101.818 E19.4226
G1 X172.597 Y102.333
G1 X167.221 Y96.953 E19.5491
G1 X166.959 Y97.206
G1 X172.597 Y102.849 E19.6817
G1 X172.597 Y103.364
G1 X166.694 Y97.455 E19.8206
G1 X166.387 Y97.664
G1 X172.597 Y103.879 E19.9667
G1 X172.597 Y104.395
G1 X166.081 Y97.872 E20.1201
G1 X165.770 Y98.076
G1 X172.597 Y104.910 E20.2807
G1 X172.597 Y105.425
G1 X165.416 Y98.238 E20.4497
G1 X165.062 Y98.399
G1 X172.597 Y105.941 E20.6270
G1 X172.597 Y106.456
G1 X164.694 Y98.546 E20.8129
G1 X164.287 Y98.654
G1 X172.597 Y106.971 E21.0084
G1 X172.597 Y107.487
G1 X163.880 Y98.761 E21.2136
G1 X163.430 Y98.827
G1 X172.597 Y108.002 E21.4292
G1 X172.597 Y108.517
G1 X167.873 Y103.789 E21.5404
G0 X168.541 Y104.973 F10800
G1 X172.597 Y109.033 E21.6358 F3600
G1 X172.597 Y109.548
G1 X168.857 Y105.804 E21.7238
G1 X169.001 Y106.464
G1 X172.597 Y110.063 E21.8085
G1 X172.597 Y110.579
G1 X169.081 Y107.060 E21.8912
G1 X169.106 Y107.599
G1 X172.597 Y111.094 E21.9733
G1 X172.597 Y111.609
G1 X169.090 Y108.100 E22.0558
G1 X169.033 Y108.558
G1 X172.597 Y112.125 E22.1397
G1 X172.597 Y112.640
G1 X168.970 Y109.010 E22.2250
G1 X168.851 Y109.406
G1 X172.597 Y113.155 E22.3132
G1 X172.597 Y113.671
G1 X168.731 Y109.801 E22.4041
G1 X168.590 Y110.175
G1 X172.597 Y114.186 E22.4984
G1 X172.597 Y114.701
G1 X168.418 Y110.518 E22.5967
G1 X168.246 Y110.862
G1 X170.603 Y113.221 E22.6522
G0 X171.774 Y114.392 F10800
G1 X172.597 Y115.217 E22.6716 F3600
G1 X172.597 Y115.732
G1 X171.875 Y115.009 E22.6886
G1 X171.828 Y115.478
G1 X172.597 Y116.247 E22.7067
G1 X172.597 Y116.763
G1 X171.671 Y115.836 E22.7285
G1 X171.483 Y116.162
G1 X172.597 Y117.278 E22.7547
G1 X172.418 Y117.614
G1 X171.226 Y116.422 E22.7827
G1 X170.926 Y116.636
G1 X171.903 Y117.614 E22.8057
G1 X171.388 Y117.614
G1 X170.579 Y116.804 E22.8247
G1 X170.147 Y116.887
G1 X170.874 Y117.614 E22.8418
G1 X170.359 Y117.614
G1 X169.606 Y116.861 E22.8596
G0 X168.226 Y114.707 F10800
G0 X166.847 Y112.554
G1 X168.354 Y114.062 E22.8950 F3600
G1 X168.183 Y114.406
G1 X166.563 Y112.784 E22.9331
G1 X166.256 Y112.993
G1 X168.101 Y114.840 E22.9766
G1 X168.143 Y115.397
G1 X165.950 Y113.201 E23.0282
G0 X164.911 Y113.708 F10800
G1 X168.814 Y117.614 E23.1200 F3600
G1 X168.299 Y117.614
G1 X164.521 Y113.832 E23.2089
G1 X164.113 Y113.940
G1 X167.784 Y117.614 E23.2953
G1 X167.270 Y117.614
G1 X163.701 Y114.043 E23.3793
G1 X163.228 Y114.085
G1 X166.755 Y117.614 E23.4622
G1 X166.240 Y117.614
G1 X162.755 Y114.126 E23.5442
G1 X162.217 Y114.103
G1 X165.725 Y117.614 E23.6268
G1 X165.210 Y117.614
G1 X161.656 Y114.057 E23.7104
G1 X160.992 Y113.908
G1 X164.695 Y117.614 E23.7975
G1 X164.180 Y117.614
G1 X160.243 Y113.673 E23.8902
G0 X159.211 Y113.155 F10800
G1 X163.666 Y117.614 E23.9950 F3600
G1 X163.151 Y117.614
G1 X153.841 Y108.296 E24.2140
G1 X153.784 Y108.754
G1 X162.636 Y117.614 E24.4223
G1 X162.121 Y117.614
G1 X153.694 Y109.179 E24.6206
G1 X153.574 Y109.575
G1 X161.606 Y117.614 E24.8096
G1 X161.091 Y117.614
G1 X153.455 Y109.971 E24.9893
G1 X153.291 Y110.322
G1 X160.576 Y117.614 E25.1607
G1 X160.062 Y117.614
G1 X153.119 Y110.666 E25.3240
G1 X152.947 Y111.009
G1 X159.547 Y117.614 E25.4793
G1 X159.032 Y117.614
G1 X152.731 Y111.307 E25.6276
G1 X152.513 Y111.605
G1 X158.517 Y117.614 E25.7689
G1 X158.002 Y117.614
G1 X152.295 Y111.902 E25.9031
G1 X152.034 Y112.156
G1 X157.487 Y117.614 E26.0315
G1 X156.972 Y117.614
G1 X151.772 Y112.409 E26.1538
G1 X151.510 Y112.662
G1 X156.458 Y117.614 E26.2702
G1 X155.943 Y117.614
G1 X151.206 Y112.874 E26.3817
G1 X150.900 Y113.082
G1 X155.428 Y117.614 E26.4882
G1 X154.913 Y117.614
G1 X150.594 Y113.291 E26.5898
G1 X150.242 Y113.454
G1 X154.398 Y117.614 E26.6876
G1 X153.883 Y117.614
G1 X149.888 Y113.615 E26.7816
G1 X149.528 Y113.771
G1 X153.368 Y117.614 E26.8720
G1 X152.854 Y117.614
G1 X149.121 Y113.878 E26.9598
G1 X148.713 Y113.986
G1 X152.339 Y117.614 E27.0451
G1 X151.824 Y117.614
G1 X148.274 Y114.061 E27.1287
G1 X147.801 Y114.102
G1 X151.309 Y117.614 E27.2112
G1 X150.794 Y117.614
G1 X147.313 Y114.130 E27.2931
G1 X146.752 Y114.083
G1 X150.279 Y117.614 E27.3761
G1 X149.764 Y117.614
G1 X146.164 Y114.010 E27.4609
G1 X145.470 Y113.832
G1 X149.250 Y117.614 E27.5498
G1 X148.735 Y117.614
G1 X144.618 Y113.493 E27.6467
G0 X143.315 Y112.704 F10800
G1 X148.220 Y117.614 E27.7621 F3600
G1 X147.705 Y117.614
G1 X137.403 Y107.303 E28.0045
G1 X137.403 Y107.818
G1 X147.190 Y117.614 E28.2348
G1 X146.675 Y117.614
G1 X137.403 Y108.333 E28.4529
G1 X137.403 Y108.849
G1 X146.160 Y117.614 E28.6590
G1 X145.646 Y117.614
G1 X137.403 Y109.364 E28.8529
G1 X137.403 Y109.879
G1 X140.794 Y113.273 E28.9327
G1 X140.120 Y113.114
G1 X137.403 Y110.395 E28.9966
G1 X137.403 Y110.910
G1 X139.625 Y113.134 E29.0489
G1 X139.252 Y113.276
G1 X137.403 Y111.425 E29.0924
G1 X137.403 Y111.941
G1 X138.920 Y113.459 E29.1281
G1 X138.643 Y113.697
G1 X137.403 Y112.456 E29.1573
G1 X137.403 Y112.971
G1 X138.424 Y113.993 E29.1813
G1 X138.235 Y114.319
G1 X137.403 Y113.487 E29.2009
G1 X137.403 Y114.002
G1 X138.148 Y114.748 E29.2184
G1 X138.153 Y115.268
G1 X137.403 Y114.517 E29.2361
G1 X137.403 Y115.033
G1 X138.470 Y116.101 E29.2612
G0 X137.923 Y117.614 F10800
G1 X137.403 Y117.094 E29.2734 F3600
G1 X137.403 Y116.579
G1 X138.438 Y117.614 E29.2977
G1 X138.952 Y117.614
G1 X137.403 Y116.063 E29.3342
G1 X137.403 Y115.548
G1 X139.467 Y117.614 E29.3828
G1 X139.982 Y117.614
G1 X138.894 Y116.525 E29.4084
G0 X139.755 Y116.871 F10800
G1 X140.497 Y117.614 E29.4259 F3600
G1 X141.012 Y117.614
G1 X140.281 Y116.883 E29.4430
G1 X140.681 Y116.767
G1 X141.527 Y117.614 E29.4630
G1 X142.042 Y117.614
G1 X141.022 Y116.594 E29.4869
G1 X141.322 Y116.379
G1 X142.556 Y117.614 E29.5160
G1 X143.071 Y117.614
G1 X141.548 Y116.090 E29.5518
G0 X142.401 Y111.790 F10800
G1 X137.403 Y106.787 E29.6694 F3600
G1 X137.403 Y106.272
G1 X141.516 Y110.389 E29.7662
G1 X141.193 Y109.551
G1 X137.403 Y105.757 E29.8554
G1 X137.403 Y105.241
G1 X141.005 Y108.847 E29.9401
G1 X140.928 Y108.254
G1 X137.403 Y104.726 E30.0231
G1 X137.403 Y104.211
G1 X140.892 Y107.703 E30.1052
G1 X140.911 Y107.207
G1 X137.403 Y103.695 E30.1877
G1 X137.403 Y103.180
G1 X140.945 Y106.726 E30.2711
G1 X141.035 Y106.300
G1 X137.403 Y102.665 E30.3565
G1 X137.403 Y102.149
G1 X141.126 Y105.875 E30.4441
G1 X141.253 Y105.488
G1 X137.403 Y101.634 E30.5347
G1 X137.403 Y101.119
G1 X141.400 Y105.119 E30.6287
G1 X141.546 Y104.750
G1 X137.403 Y100.603 E30.7262
G1 X137.403 Y100.088
G1 X141.735 Y104.425 E30.8282
G1 X141.931 Y104.105
G1 X137.403 Y99.573 E30.9347
G1 X137.403 Y99.057
G1 X142.126 Y103.785 E31.0458
G1 X142.363 Y103.507
G1 X137.403 Y98.542 E31.1625
G1 X137.403 Y98.027
G1 X142.603 Y103.232 E31.2849
G1 X142.843 Y102.957
G1 X137.403 Y97.511 E31.4129
G1 X137.403 Y96.996
G1 X143.123 Y102.721 E31.5475
G1 X143.407 Y102.490
G1 X137.403 Y96.481 E31.6888
G1 X137.403 Y95.965
G1 X143.691 Y102.259 E31.8367
G1 X144.015 Y102.068
G1 X137.403 Y95.450 E31.9923
G1 X137.403 Y94.935
G1 X144.345 Y101.883 E32.1556
G1 X144.674 Y101.697
G1 X137.403 Y94.419 E32.3267
G1 X137.403 Y93.904
G1 X145.052 Y101.560 E32.5067
G1 X145.431 Y101.424
G1 X137.403 Y93.389 E32.6956
G1 X137.403 Y92.873
G1 X145.823 Y101.301 E32.8937
G1 X146.262 Y101.225
G1 X137.403 Y92.358 E33.1021
G1 X137.403 Y91.843
G1 X146.700 Y101.148 E33.3209
G1 X147.180 Y101.113
G1 X143.984 Y97.914 E33.3961
G0 X141.326 Y94.738 F10800
G1 X137.403 Y90.812 E33.4884 F3600
G1 X137.403 Y91.327
G1 X141.820 Y95.749 E33.5923
G0 X145.016 Y98.432 F10800
G1 X147.698 Y101.117 E33.6554 F3600
G1 X148.280 Y101.184
G1 X145.766 Y98.668 E33.7146
G1 X146.430 Y98.817
G1 X148.901 Y101.290 E33.7727
G1 X149.663 Y101.537
G1 X146.991 Y98.863 E33.8356
G1 X147.529 Y98.886
G1 X150.640 Y102.000 E33.9088
G0 X153.466 Y105.344 F10800
G1 X156.119 Y107.999 E33.9712 F3600
G1 X156.197 Y108.593
G1 X153.694 Y106.087 E34.0301
G0 X157.044 Y110.987 F10800
G1 X153.891 Y107.831 E34.1043 F3600
G1 X153.867 Y107.291
G1 X156.550 Y109.977 E34.1674
G0 X153.007 Y104.369 F10800
G1 X156.125 Y107.490 E34.2408 F3600
G1 X156.145 Y106.995
G1 X148.002 Y98.845 E34.4324
G1 X148.476 Y98.803
G1 X156.209 Y106.543 E34.6143
G1 X156.299 Y106.118
G1 X148.887 Y98.700 E34.7887
G1 X149.295 Y98.592
G1 X156.394 Y105.698 E34.9558
G1 X156.541 Y105.330
G1 X149.685 Y98.468 E35.1171
G1 X150.039 Y98.307
G1 X156.688 Y104.961 E35.2735
G1 X156.849 Y104.607
G1 X150.393 Y98.145 E35.4254
G1 X150.724 Y97.962
G1 X157.044 Y104.288 E35.5741
G1 X157.240 Y103.968
G1 X151.031 Y97.753 E35.7202
G1 X151.337 Y97.544
G1 X157.451 Y103.664 E35.8640
G1 X157.691 Y103.389
G1 X151.622 Y97.314 E36.0069
G1 X151.884 Y97.061
G1 X157.931 Y103.114 E36.1491
G1 X158.186 Y102.853
G1 X152.146 Y96.808 E36.2913
G1 X152.388 Y96.535
G1 X158.470 Y102.622 E36.4344
G1 X158.754 Y102.391
G1 X152.606 Y96.238 E36.5790
G1 X152.824 Y95.941
G1 X159.052 Y102.174 E36.7256
G1 X159.381 Y101.989
G1 X153.021 Y95.622 E36.8752
G1 X153.193 Y95.279
G1 X159.711 Y101.803 E37.0286
G1 X160.060 Y101.637
G1 X153.365 Y94.936 E37.1861
G1 X153.506 Y94.562
G1 X160.439 Y101.502 E37.3493
G1 X160.819 Y101.366
G1 X153.625 Y94.166 E37.5185
G1 X153.745 Y93.770
G1 X161.236 Y101.269 E37.6948
G1 X161.675 Y101.192
G1 X153.808 Y93.318 E37.8799
G1 X153.865 Y92.860
G1 X162.125 Y101.128 E38.0742
G1 X162.638 Y101.126
G1 X159.708 Y98.193 E38.1432
G0 X160.595 Y98.566 F10800
G1 X163.153 Y101.126 E38.2034 F3600
G1 X163.772 Y101.230
G1 X161.288 Y98.744 E38.2618
G1 X161.896 Y98.837
G1 X164.435 Y101.378 E38.3216
G0 X166.508 Y102.423 F10800
G1 X162.957 Y98.869 E38.4051 F3600
G1 X162.457 Y98.883
G1 X165.227 Y101.656 E38.4703
G0 X158.800 Y97.135 F10800
G0 X156.818 Y95.300
G1 X153.881 Y92.360 E38.5394 F3600
G1 X153.856 Y91.821
G1 X156.452 Y94.419 E38.6005
G0 X153.632 Y90.565 F10800
G1 X156.164 Y93.100 E38.6601 F3600
G1 X156.114 Y92.534
G1 X153.316 Y89.734 E38.7259
G0 X152.649 Y88.550 F10800
G1 X156.134 Y92.039 E38.8079 F3600
G1 X156.157 Y91.547
G1 X147.004 Y82.386 E39.0232
G1 X147.519 Y82.386
G1 X156.247 Y91.122 E39.2286
G1 X156.338 Y90.697
G1 X148.034 Y82.386 E39.4240
G1 X148.549 Y82.386
G1 X156.457 Y90.301 E39.6100
G1 X156.603 Y89.932
G1 X149.064 Y82.386 E39.7875
G0 X141.803 Y84.394 F10800
G1 X144.156 Y86.749 E39.8428 F3600
G1 X143.826 Y86.934
G1 X141.904 Y85.011 E39.8880
G1 X141.857 Y85.479
G1 X143.528 Y87.152 E39.9273
G1 X143.244 Y87.383
G1 X141.700 Y85.837 E39.9637
G1 X141.511 Y86.163
G1 X142.960 Y87.614 E39.9978
G1 X142.706 Y87.875
G1 X141.255 Y86.422 E40.0319
G1 X140.954 Y86.637
G1 X142.466 Y88.149 E40.0675
G1 X142.225 Y88.424
G1 X140.608 Y86.805 E40.1056
G1 X140.175 Y86.887
G1 X142.014 Y88.728 E40.1488
G1 X141.819 Y89.048
G1 X139.633 Y86.860 E40.2003
G0 X141.095 Y93.992 F10800
G1 X137.403 Y90.297 E40.2871 F3600
G1 X137.403 Y89.781
G1 X140.972 Y93.354 E40.3711
G1 X140.894 Y92.761
G1 X137.403 Y89.266 E40.4533
G1 X137.403 Y88.751
G1 X140.900 Y92.251 E40.5355
G1 X140.920 Y91.755
G1 X137.403 Y88.235 E40.6183
G1 X137.403 Y87.720
G1 X140.984 Y91.304 E40.7025
G1 X141.074 Y90.879
G1 X137.403 Y87.205 E40.7889
G1 X137.403 Y86.689
G1 X141.169 Y90.459 E40.8775
G1 X141.316 Y90.090
G1 X137.403 Y86.174 E40.9696
G1 X137.403 Y85.659
G1 X141.462 Y89.722 E41.0651
G1 X141.623 Y89.368
G1 X137.403 Y85.143 E41.1644
G1 X137.403 Y84.628
G1 X138.173 Y85.399 E41.1825
G1 X138.131 Y84.841
G1 X137.403 Y84.113 E41.1996
G1 X137.403 Y83.597
G1 X138.212 Y84.407 E41.2187
G1 X138.383 Y84.063
G1 X137.403 Y83.082 E41.2417
G1 X137.403 Y82.567
G1 X138.583 Y83.748 E41.2695
G1 X138.861 Y83.510
G1 X137.737 Y82.386 E41.2959
G1 X138.252 Y82.386
G1 X139.172 Y83.307 E41.3176
G1 X139.544 Y83.164
G1 X138.767 Y82.386 E41.3359
G1 X139.282 Y82.386
G1 X140.012 Y83.117 E41.3531
G0 X141.341 Y82.386 F10800
G1 X145.214 Y86.262 E41.4442 F3600
G1 X145.593 Y86.126
G1 X141.856 Y82.386 E41.5321
G1 X142.371 Y82.386
G1 X146.010 Y86.029 E41.6178
G1 X146.449 Y85.952
G1 X142.886 Y82.386 E41.7016
G1 X143.400 Y82.386
G1 X146.899 Y85.888 E41.7839
G1 X147.413 Y85.886
G1 X143.915 Y82.386 E41.8662
G1 X144.430 Y82.386
G1 X147.927 Y85.886 E41.9485
G1 X148.546 Y85.990
G1 X144.945 Y82.386 E42.0332
