; GCode generated by CraftWare

G28 X0 Y0
G28 Z0

M190 S60 ;set bed temp (wait)
M109 S215 ;set head temp (wait)

; ------------------------------------
; Raft Layer #0
; ------------------------------------
G21 ; mm
G90 ; abs
G92 E0 ; reset extr
M106 S0
;segType:Raft
G0 F4800 E-1.0000
G0 F300 Z0.300
G0 X0.000 Y0.000 F10800
G0 F4800 E0.0000
G1 X90.357 Y121.721 E7.5630 F600
G1 X90.357 Y78.401 E9.7242
G1 X94.302 Y77.673 E9.9243
G1 X94.302 Y122.570 E12.1643
G1 X98.246 Y122.570 E12.3611
G1 X98.246 Y77.673 E14.6010
G1 X102.191 Y77.673 E14.7978
G1 X102.191 Y122.570 E17.0377
G1 X106.136 Y122.570 E17.2345
G1 X106.136 Y77.673 E19.4744
G1 X110.080 Y77.673 E19.6712
G1 X110.080 Y122.570 E21.9112
G1 X114.025 Y122.570 E22.1080
G1 X114.025 Y77.673 E24.3479
G1 X117.969 Y77.673 E24.5447
G1 X117.969 Y122.570 E26.7846
G1 X121.914 Y122.570 E26.9814
G1 X121.914 Y77.673 E29.2213
G1 X125.858 Y77.673 E29.4181
G1 X125.858 Y122.570 E31.6581
G1 X129.803 Y122.570 E31.8549
G1 X129.803 Y77.673 E34.0948
G1 X133.748 Y77.673 E34.2916
G1 X133.748 Y122.570 E36.5315
G1 X137.692 Y122.570 E36.7283
G1 X137.692 Y77.673 E38.9683
G1 X141.637 Y77.673 E39.1650
G1 X141.637 Y122.570 E41.4050
G1 X145.581 Y122.570 E41.6018
G1 X145.581 Y77.673 E43.8417
G1 X149.526 Y77.673 E44.0385
G1 X149.526 Y122.570 E46.2784
G1 X153.470 Y122.570 E46.4752
G1 X153.470 Y77.673 E48.7152
G1 X157.415 Y77.673 E48.9120
G1 X157.415 Y122.570 E51.1519
G1 X161.360 Y122.570 E51.3487
G1 X161.360 Y77.673 E53.5886
G1 X165.304 Y77.673 E53.7854
G1 X165.304 Y122.570 E56.0253
G1 X169.249 Y121.963 E56.2244
G1 X169.249 Y78.158 E58.4099



; ------------------------------------
; Raft Layer #1
; ------------------------------------
G21 ; mm
G90 ; abs
G92 E0 ; reset extr
M106 S0
;segType:Raft
G0 F4800 E-1.0000
G0 F300 Z0.600
G0 X169.406 Y78.318 F10800
G0 F4800 E0.0000
G1 X90.331 Y78.318 E3.9451 F3600
G1 X89.018 Y79.533 E4.0343
G1 X170.720 Y79.533 E8.1105
G1 X171.114 Y80.748 E8.1742
G1 X88.623 Y80.748 E12.2897
G1 X88.623 Y81.962 E12.3502
G1 X171.114 Y81.962 E16.4657
G1 X171.114 Y83.177 E16.5263
G1 X88.623 Y83.177 E20.6418
G1 X88.623 Y84.392 E20.7024
G1 X171.114 Y84.392 E24.8178
G1 X171.114 Y85.606 E24.8784
G1 X88.623 Y85.606 E28.9939
G1 X88.623 Y86.821 E29.0545
G1 X171.114 Y86.821 E33.1700
G1 X171.114 Y88.035 E33.2306
G1 X88.623 Y88.035 E37.3460
G1 X88.623 Y89.250 E37.4066
G1 X171.114 Y89.250 E41.5221
G1 X171.114 Y90.465 E41.5827
G1 X88.623 Y90.465 E45.6982
G1 X88.623 Y91.679 E45.7588
G1 X171.114 Y91.679 E49.8742
G1 X171.114 Y92.894 E49.9348
G1 X88.623 Y92.894 E54.0503
G1 X88.623 Y94.109 E54.1109
G1 X171.114 Y94.109 E58.2263
G1 X171.114 Y95.323 E58.2869
G1 X88.623 Y95.323 E62.4024
G1 X88.623 Y96.538 E62.4630
G1 X171.114 Y96.538 E66.5785
G1 X171.114 Y97.753 E66.6391
G1 X88.623 Y97.753 E70.7545
G1 X88.623 Y98.967 E70.8151
G1 X171.114 Y98.967 E74.9306
G1 X171.114 Y100.182 E74.9912
G1 X88.623 Y100.182 E79.1067
G1 X88.623 Y101.397 E79.1673
G1 X171.114 Y101.397 E83.2827
G1 X171.114 Y102.611 E83.3433
G1 X88.623 Y102.611 E87.4588
G1 X88.623 Y103.826 E87.5194
G1 X171.114 Y103.826 E91.6349
G1 X171.114 Y105.041 E91.6955
G1 X88.623 Y105.041 E95.8109
G1 X88.623 Y106.255 E95.8715
G1 X171.114 Y106.255 E99.9870
G1 X171.114 Y107.470 E100.0476
G1 X88.623 Y107.470 E104.1631
G1 X88.623 Y108.685 E104.2237
G1 X171.114 Y108.685 E108.3391
G1 X171.114 Y109.899 E108.3997
G1 X88.623 Y109.899 E112.5152
G1 X88.623 Y111.114 E112.5758
G1 X171.114 Y111.114 E116.6912
G1 X171.114 Y112.329 E116.7518
G1 X88.623 Y112.329 E120.8673
G1 X88.623 Y113.543 E120.9279
G1 X171.114 Y113.543 E125.0434
G1 X171.114 Y114.758 E125.1040
G1 X88.623 Y114.758 E129.2194
G1 X88.623 Y115.972 E129.2800
G1 X171.114 Y115.972 E133.3955
G1 X171.114 Y117.187 E133.4561
G1 X88.623 Y117.187 E137.5716
G1 X88.623 Y118.402 E137.6321
G1 X171.114 Y118.402 E141.7476
G1 X171.114 Y119.616 E141.8082
G1 X88.623 Y119.616 E145.9237
G1 X89.412 Y120.831 E145.9959
G1 X170.326 Y120.831 E150.0327
G1 X169.012 Y122.046 E150.1220
G1 X90.725 Y122.046 E154.0277



; ------------------------------------
; Raft Layer #2
; ------------------------------------
G21 ; mm
G90 ; abs
G92 E0 ; reset extr
M106 S0
;segType:Raft
G0 F4800 E-1.0000
G0 F300 Z0.900
G0 X88.780 Y120.264 F10800
G0 F4800 E0.0000
G1 X88.780 Y79.857 E2.0159 F3600
G1 X89.174 Y79.493 E2.0427
G1 X89.174 Y120.628 E4.0950
G1 X89.569 Y120.992 E4.1218
G1 X89.569 Y79.129 E6.2103
G1 X89.963 Y78.765 E6.2371
G1 X89.963 Y121.357 E8.3620
G1 X90.358 Y121.721 E8.3888
G1 X90.358 Y78.401 E10.5500
G1 X90.752 Y78.037 E10.5768
G1 X90.752 Y122.085 E12.7744
G1 X91.146 Y122.449 E12.8011
G1 X91.146 Y77.673 E15.0350
G1 X91.541 Y77.673 E15.0547
G1 X91.541 Y122.570 E17.2946
G1 X91.935 Y122.570 E17.3143
G1 X91.935 Y77.673 E19.5542
G1 X92.330 Y77.673 E19.5739
G1 X92.330 Y122.570 E21.8139
G1 X92.724 Y122.570 E21.8335
G1 X92.724 Y77.673 E24.0735
G1 X93.119 Y77.673 E24.0931
G1 X93.119 Y122.570 E26.3331
G1 X93.513 Y122.570 E26.3528
G1 X93.513 Y77.673 E28.5927
G1 X93.908 Y77.673 E28.6124
G1 X93.908 Y122.570 E30.8523
G1 X94.302 Y122.570 E30.8720
G1 X94.302 Y77.673 E33.1119
G1 X94.697 Y77.673 E33.1316
G1 X94.697 Y122.570 E35.3715
G1 X95.091 Y122.570 E35.3912
G1 X95.091 Y77.673 E37.6311
G1 X95.485 Y77.673 E37.6508
G1 X95.485 Y122.570 E39.8907
G1 X95.880 Y122.570 E39.9104
G1 X95.880 Y77.673 E42.1503
G1 X96.274 Y77.673 E42.1700
G1 X96.274 Y122.570 E44.4099
G1 X96.669 Y122.570 E44.4296
G1 X96.669 Y77.673 E46.6696
G1 X97.063 Y77.673 E46.6892
G1 X97.063 Y122.570 E48.9292
G1 X97.458 Y122.570 E48.9488
G1 X97.458 Y77.673 E51.1888
G1 X97.852 Y77.673 E51.2085
G1 X97.852 Y122.570 E53.4484
G1 X98.247 Y122.570 E53.4681
G1 X98.247 Y77.673 E55.7080
G1 X98.641 Y77.673 E55.7277
G1 X98.641 Y122.570 E57.9676
G1 X99.036 Y122.570 E57.9873
G1 X99.036 Y77.673 E60.2272
G1 X99.430 Y77.673 E60.2469
G1 X99.430 Y122.570 E62.4868
G1 X99.824 Y122.570 E62.5065
G1 X99.824 Y77.673 E64.7464
G1 X100.219 Y77.673 E64.7661
G1 X100.219 Y122.570 E67.0060
G1 X100.613 Y122.570 E67.0257
G1 X100.613 Y77.673 E69.2656
G1 X101.008 Y77.673 E69.2853
G1 X101.008 Y122.570 E71.5252
G1 X101.402 Y122.570 E71.5449
G1 X101.402 Y77.673 E73.7849
G1 X101.797 Y77.673 E73.8045
G1 X101.797 Y122.570 E76.0445
G1 X102.191 Y122.570 E76.0641
G1 X102.191 Y77.673 E78.3041
G1 X102.586 Y77.673 E78.3237
G1 X102.586 Y122.570 E80.5637
G1 X102.980 Y122.570 E80.5833
G1 X102.980 Y77.673 E82.8233
G1 X103.375 Y77.673 E82.8430
G1 X103.375 Y122.570 E85.0829
G1 X103.769 Y122.570 E85.1026
G1 X103.769 Y77.673 E87.3425
G1 X104.164 Y77.673 E87.3622
G1 X104.164 Y122.570 E89.6021
G1 X104.558 Y122.570 E89.6218
G1 X104.558 Y77.673 E91.8617
G1 X104.952 Y77.673 E91.8814
G1 X104.952 Y122.570 E94.1213
G1 X105.347 Y122.570 E94.1410
G1 X105.347 Y77.673 E96.3809
G1 X105.741 Y77.673 E96.4006
G1 X105.741 Y122.570 E98.6405
G1 X106.136 Y122.570 E98.6602
G1 X106.136 Y77.673 E100.9001
G1 X106.530 Y77.673 E100.9198
G1 X106.530 Y122.570 E103.1597
G1 X106.925 Y122.570 E103.1794
G1 X106.925 Y77.673 E105.4193
G1 X107.319 Y77.673 E105.4390
G1 X107.319 Y122.570 E107.6789
G1 X107.714 Y122.570 E107.6986
G1 X107.714 Y77.673 E109.9385
G1 X108.108 Y77.673 E109.9582
G1 X108.108 Y122.570 E112.1981
G1 X108.503 Y122.570 E112.2178
G1 X108.503 Y77.673 E114.4578
G1 X108.897 Y77.673 E114.4774
G1 X108.897 Y122.570 E116.7174
G1 X109.291 Y122.570 E116.7370
G1 X109.291 Y77.673 E118.9770
G1 X109.686 Y77.673 E118.9966
G1 X109.686 Y122.570 E121.2366
G1 X110.080 Y122.570 E121.2562
G1 X110.080 Y77.673 E123.4962
G1 X110.475 Y77.673 E123.5159
G1 X110.475 Y122.570 E125.7558
G1 X110.869 Y122.570 E125.7755
G1 X110.869 Y77.673 E128.0154
G1 X111.264 Y77.673 E128.0351
G1 X111.264 Y122.570 E130.2750
G1 X111.658 Y122.570 E130.2947
G1 X111.658 Y77.673 E132.5346
G1 X112.053 Y77.673 E132.5543
G1 X112.053 Y122.570 E134.7942
G1 X112.447 Y122.570 E134.8139
G1 X112.447 Y77.673 E137.0538
G1 X112.842 Y77.673 E137.0735
G1 X112.842 Y122.570 E139.3135
G1 X113.236 Y122.570 E139.3331
G1 X113.236 Y77.673 E141.5731
G1 X113.631 Y77.673 E141.5927
G1 X113.631 Y122.570 E143.8327
G1 X114.025 Y122.570 E143.8524
G1 X114.025 Y77.673 E146.0923
G1 X114.419 Y77.673 E146.1120
G1 X114.419 Y122.570 E148.3519
G1 X114.814 Y122.570 E148.3716
G1 X114.814 Y77.673 E150.6115
G1 X115.208 Y77.673 E150.6312
G1 X115.208 Y122.570 E152.8711
G1 X115.603 Y122.570 E152.8908
G1 X115.603 Y77.673 E155.1307
G1 X115.997 Y77.673 E155.1504
G1 X115.997 Y122.570 E157.3904
G1 X116.392 Y122.570 E157.4100
G1 X116.392 Y77.673 E159.6500
G1 X116.786 Y77.673 E159.6697
G1 X116.786 Y122.570 E161.9096
G1 X117.181 Y122.570 E161.9293
G1 X117.181 Y77.673 E164.1692
G1 X117.575 Y77.673 E164.1889
G1 X117.575 Y122.570 E166.4288
G1 X117.970 Y122.570 E166.4485
G1 X117.970 Y77.673 E168.6884
G1 X118.364 Y77.673 E168.7081
G1 X118.364 Y122.570 E170.9480
G1 X118.758 Y122.570 E170.9677
G1 X118.758 Y77.673 E173.2076
G1 X119.153 Y77.673 E173.2273
G1 X119.153 Y122.570 E175.4673
G1 X119.547 Y122.570 E175.4869
G1 X119.547 Y77.673 E177.7269
G1 X119.942 Y77.673 E177.7466
G1 X119.942 Y122.570 E179.9865
G1 X120.336 Y122.570 E180.0062
G1 X120.336 Y77.673 E182.2461
G1 X120.731 Y77.673 E182.2658
G1 X120.731 Y122.570 E184.5057
G1 X121.125 Y122.570 E184.5254
G1 X121.125 Y77.673 E186.7653
G1 X121.520 Y77.673 E186.7850
G1 X121.520 Y122.570 E189.0249
G1 X121.914 Y122.570 E189.0446
G1 X121.914 Y77.673 E191.2846
G1 X122.309 Y77.673 E191.3042
G1 X122.309 Y122.570 E193.5442
G1 X122.703 Y122.570 E193.5638
G1 X122.703 Y77.673 E195.8038
G1 X123.097 Y77.673 E195.8235
G1 X123.097 Y122.570 E198.0634
G1 X123.492 Y122.570 E198.0831
G1 X123.492 Y77.673 E200.3230
G1 X123.886 Y77.673 E200.3427
G1 X123.886 Y122.570 E202.5826
G1 X124.281 Y122.570 E202.6023
G1 X124.281 Y77.673 E204.8422
G1 X124.675 Y77.673 E204.8619
G1 X124.675 Y122.570 E207.1018
G1 X125.070 Y122.570 E207.1215
G1 X125.070 Y77.673 E209.3615
G1 X125.464 Y77.673 E209.3811
G1 X125.464 Y122.570 E211.6211
G1 X125.859 Y122.570 E211.6408
G1 X125.859 Y77.673 E213.8807
G1 X126.253 Y77.673 E213.9004
G1 X126.253 Y122.570 E216.1403
G1 X126.648 Y122.570 E216.1600
G1 X126.648 Y77.673 E218.3999
G1 X127.042 Y77.673 E218.4196
G1 X127.042 Y122.570 E220.6595
G1 X127.436 Y122.570 E220.6792
G1 X127.436 Y77.673 E222.9191
G1 X127.831 Y77.673 E222.9388
G1 X127.831 Y122.570 E225.1788
G1 X128.225 Y122.570 E225.1984
G1 X128.225 Y77.673 E227.4384
G1 X128.620 Y77.673 E227.4581
G1 X128.620 Y122.570 E229.6980
G1 X129.014 Y122.570 E229.7177
G1 X129.014 Y77.673 E231.9576
G1 X129.409 Y77.673 E231.9773
G1 X129.409 Y122.570 E234.2172
G1 X129.803 Y122.570 E234.2369
G1 X129.803 Y77.673 E236.4768
G1 X130.198 Y77.673 E236.4965
G1 X130.198 Y122.570 E238.7364
G1 X130.592 Y122.570 E238.7561
G1 X130.592 Y77.673 E240.9960
G1 X130.987 Y77.673 E241.0157
G1 X130.987 Y122.570 E243.2557
G1 X131.381 Y122.570 E243.2753
G1 X131.381 Y77.673 E245.5153
G1 X131.775 Y77.673 E245.5350
G1 X131.775 Y122.570 E247.7749
G1 X132.170 Y122.570 E247.7946
G1 X132.170 Y77.673 E250.0345
G1 X132.564 Y77.673 E250.0542
G1 X132.564 Y122.570 E252.2941
G1 X132.959 Y122.570 E252.3138
G1 X132.959 Y77.673 E254.5537
G1 X133.353 Y77.673 E254.5734
G1 X133.353 Y122.570 E256.8133
G1 X133.748 Y122.570 E256.8330
G1 X133.748 Y77.673 E259.0729
G1 X134.142 Y77.673 E259.0926
G1 X134.142 Y122.570 E261.3326
G1 X134.537 Y122.570 E261.3522
G1 X134.537 Y77.673 E263.5922
G1 X134.931 Y77.673 E263.6119
G1 X134.931 Y122.570 E265.8518
G1 X135.326 Y122.570 E265.8715
G1 X135.326 Y77.673 E268.1114
G1 X135.720 Y77.673 E268.1311
G1 X135.720 Y122.570 E270.3710
G1 X136.114 Y122.570 E270.3907
G1 X136.114 Y77.673 E272.6306
G1 X136.509 Y77.673 E272.6503
G1 X136.509 Y122.570 E274.8902
G1 X136.903 Y122.570 E274.9099
G1 X136.903 Y77.673 E277.1499
G1 X137.298 Y77.673 E277.1695
G1 X137.298 Y122.570 E279.4095
G1 X137.692 Y122.570 E279.4292
G1 X137.692 Y77.673 E281.6691
G1 X138.087 Y77.673 E281.6888
G1 X138.087 Y122.570 E283.9287
G1 X138.481 Y122.570 E283.9484
G1 X138.481 Y77.673 E286.1883
G1 X138.876 Y77.673 E286.2080
G1 X138.876 Y122.570 E288.4479
G1 X139.270 Y122.570 E288.4676
G1 X139.270 Y77.673 E290.7075
G1 X139.665 Y77.673 E290.7272
G1 X139.665 Y122.570 E292.9671
G1 X140.059 Y122.570 E292.9868
G1 X140.059 Y77.673 E295.2268
G1 X140.453 Y77.673 E295.2464
G1 X140.453 Y122.570 E297.4864
G1 X140.848 Y122.570 E297.5061
G1 X140.848 Y77.673 E299.7460
G1 X141.242 Y77.673 E299.7657
G1 X141.242 Y122.570 E302.0056
G1 X141.637 Y122.570 E302.0253
G1 X141.637 Y77.673 E304.2652
G1 X142.031 Y77.673 E304.2849
G1 X142.031 Y122.570 E306.5248
G1 X142.426 Y122.570 E306.5445
G1 X142.426 Y77.673 E308.7844
G1 X142.820 Y77.673 E308.8041
G1 X142.820 Y122.570 E311.0440
G1 X143.215 Y122.570 E311.0637
G1 X143.215 Y77.673 E313.3037
G1 X143.609 Y77.673 E313.3233
G1 X143.609 Y122.570 E315.5633
G1 X144.004 Y122.570 E315.5830
G1 X144.004 Y77.673 E317.8229
G1 X144.398 Y77.673 E317.8426
G1 X144.398 Y122.570 E320.0825
G1 X144.793 Y122.570 E320.1022
G1 X144.793 Y77.673 E322.3421
G1 X145.187 Y77.673 E322.3618
G1 X145.187 Y122.570 E324.6017
G1 X145.581 Y122.570 E324.6214
G1 X145.581 Y77.673 E326.8613
G1 X145.976 Y77.673 E326.8810
G1 X145.976 Y122.570 E329.1210
G1 X146.370 Y122.570 E329.1406
G1 X146.370 Y77.673 E331.3806
G1 X146.765 Y77.673 E331.4003
G1 X146.765 Y122.570 E333.6402
G1 X147.159 Y122.570 E333.6599
G1 X147.159 Y77.673 E335.8998
G1 X147.554 Y77.673 E335.9195
G1 X147.554 Y122.570 E338.1594
G1 X147.948 Y122.570 E338.1791
G1 X147.948 Y77.673 E340.4190
G1 X148.343 Y77.673 E340.4387
G1 X148.343 Y122.570 E342.6786
G1 X148.737 Y122.570 E342.6983
G1 X148.737 Y77.673 E344.9382
G1 X149.132 Y77.673 E344.9579
G1 X149.132 Y122.570 E347.1979
G1 X149.526 Y122.570 E347.2175
G1 X149.526 Y77.673 E349.4575
G1 X149.920 Y77.673 E349.4772
G1 X149.920 Y122.570 E351.7171
G1 X150.315 Y122.570 E351.7368
G1 X150.315 Y77.673 E353.9767
G1 X150.709 Y77.673 E353.9964
G1 X150.709 Y122.570 E356.2363
G1 X151.104 Y122.570 E356.2560
G1 X151.104 Y77.673 E358.4959
G1 X151.498 Y77.673 E358.5156
G1 X151.498 Y122.570 E360.7555
G1 X151.893 Y122.570 E360.7752
G1 X151.893 Y77.673 E363.0151
G1 X152.287 Y77.673 E363.0348
G1 X152.287 Y122.570 E365.2748
G1 X152.682 Y122.570 E365.2944
G1 X152.682 Y77.673 E367.5344
G1 X153.076 Y77.673 E367.5541
G1 X153.076 Y122.570 E369.7940
G1 X153.471 Y122.570 E369.8137
G1 X153.471 Y77.673 E372.0536
G1 X153.865 Y77.673 E372.0733
G1 X153.865 Y122.570 E374.3132
G1 X154.259 Y122.570 E374.3329
G1 X154.259 Y77.673 E376.5728
G1 X154.654 Y77.673 E376.5925
G1 X154.654 Y122.570 E378.8324
G1 X155.048 Y122.570 E378.8521
G1 X155.048 Y77.673 E381.0921
G1 X155.443 Y77.673 E381.1117
G1 X155.443 Y122.570 E383.3517
G1 X155.837 Y122.570 E383.3714
G1 X155.837 Y77.673 E385.6113
G1 X156.232 Y77.673 E385.6310
G1 X156.232 Y122.570 E387.8709
G1 X156.626 Y122.570 E387.8906
G1 X156.626 Y77.673 E390.1305
G1 X157.021 Y77.673 E390.1502
G1 X157.021 Y122.570 E392.3901
G1 X157.415 Y122.570 E392.4098
G1 X157.415 Y77.673 E394.6497
G1 X157.810 Y77.673 E394.6694
G1 X157.810 Y122.570 E396.9093
G1 X158.204 Y122.570 E396.9290
G1 X158.204 Y77.673 E399.1690
G1 X158.598 Y77.673 E399.1886
G1 X158.598 Y122.570 E401.4286
G1 X158.993 Y122.570 E401.4483
G1 X158.993 Y77.673 E403.6882
G1 X159.387 Y77.673 E403.7079
G1 X159.387 Y122.570 E405.9478
G1 X159.782 Y122.570 E405.9675
G1 X159.782 Y77.673 E408.2074
G1 X160.176 Y77.673 E408.2271
G1 X160.176 Y122.570 E410.4670
G1 X160.571 Y122.570 E410.4867
G1 X160.571 Y77.673 E412.7266
G1 X160.965 Y77.673 E412.7463
G1 X160.965 Y122.570 E414.9862
G1 X161.360 Y122.570 E415.0059
G1 X161.360 Y77.673 E417.2459
G1 X161.754 Y77.673 E417.2655
G1 X161.754 Y122.570 E419.5055
G1 X162.149 Y122.570 E419.5252
G1 X162.149 Y77.673 E421.7651
G1 X162.543 Y77.673 E421.7848
G1 X162.543 Y122.570 E424.0247
G1 X162.937 Y122.570 E424.0444
G1 X162.937 Y77.673 E426.2843
G1 X163.332 Y77.673 E426.3040
G1 X163.332 Y122.570 E428.5439
G1 X163.726 Y122.570 E428.5636
G1 X163.726 Y77.673 E430.8036
G1 X164.121 Y77.673 E430.8232
G1 X164.121 Y122.570 E433.0632
G1 X164.515 Y122.570 E433.0828
G1 X164.515 Y77.673 E435.3228
G1 X164.910 Y77.673 E435.3425
G1 X164.910 Y122.570 E437.5824
G1 X165.304 Y122.570 E437.6021
G1 X165.304 Y77.673 E439.8420
G1 X165.699 Y77.673 E439.8617
G1 X165.699 Y122.570 E442.1016
G1 X166.093 Y122.570 E442.1213
G1 X166.093 Y77.673 E444.3612
G1 X166.488 Y77.673 E444.3809
G1 X166.488 Y122.570 E446.6208
G1 X166.882 Y122.570 E446.6405
G1 X166.882 Y77.673 E448.8805
G1 X167.276 Y77.673 E448.9001
G1 X167.276 Y122.570 E451.1401
G1 X167.671 Y122.570 E451.1598
G1 X167.671 Y77.673 E453.3997
G1 X168.065 Y77.673 E453.4194
G1 X168.065 Y122.570 E455.6593
G1 X168.460 Y122.570 E455.6790
G1 X168.460 Y77.673 E457.9189
G1 X168.854 Y77.794 E457.9395
G1 X168.854 Y122.327 E460.1613
G1 X169.249 Y121.963 E460.1880
G1 X169.249 Y78.158 E462.3735
G1 X169.643 Y78.522 E462.4003
G1 X169.643 Y121.599 E464.5494
G1 X170.038 Y121.235 E464.5762
G1 X170.038 Y78.886 E466.6890
G1 X170.432 Y79.250 E466.7158
G1 X170.432 Y120.871 E468.7922
G1 X170.827 Y120.507 E468.8190
G1 X170.827 Y79.614 E470.8592



; ------------------------------------
; Raft Layer #3
; ------------------------------------
G21 ; mm
G90 ; abs
G92 E0 ; reset extr
M106 S0
;segType:Raft
G0 F4800 E-1.0000
G0 F300 Z1.200
G0 X169.012 Y77.954 F10800
G0 F4800 E0.0000
G1 X90.725 Y77.954 E3.9058 F3600
G1 X90.331 Y78.318 E3.9325
G1 X169.406 Y78.318 E7.8776
G1 X169.800 Y78.683 E7.9044
G1 X89.937 Y78.683 E11.8888
G1 X89.543 Y79.047 E11.9156
G1 X170.194 Y79.047 E15.9393
G1 X170.588 Y79.411 E15.9661
G1 X89.149 Y79.411 E20.0291
G1 X88.755 Y79.776 E20.0559
G1 X170.983 Y79.776 E24.1582
G1 X171.114 Y80.140 E24.1776
G1 X88.623 Y80.140 E28.2930
G1 X88.623 Y80.505 E28.3112
G1 X171.114 Y80.505 E32.4267
G1 X171.114 Y80.869 E32.4448
G1 X88.623 Y80.869 E36.5603
G1 X88.623 Y81.233 E36.5785
G1 X171.114 Y81.233 E40.6940
G1 X171.114 Y81.598 E40.7121
G1 X88.623 Y81.598 E44.8276
G1 X88.623 Y81.962 E44.8458
G1 X171.114 Y81.962 E48.9612
G1 X171.114 Y82.327 E48.9794
G1 X88.623 Y82.327 E53.0949
G1 X88.623 Y82.691 E53.1131
G1 X171.114 Y82.691 E57.2285
G1 X171.114 Y83.055 E57.2467
G1 X88.623 Y83.055 E61.3622
G1 X88.623 Y83.420 E61.3804
G1 X171.114 Y83.420 E65.4958
G1 X171.114 Y83.784 E65.5140
G1 X88.623 Y83.784 E69.6295
G1 X88.623 Y84.149 E69.6476
G1 X171.114 Y84.149 E73.7631
G1 X171.114 Y84.513 E73.7813
G1 X88.623 Y84.513 E77.8968
G1 X88.623 Y84.877 E77.9149
G1 X171.114 Y84.877 E82.0304
G1 X171.114 Y85.242 E82.0486
G1 X88.623 Y85.242 E86.1640
G1 X88.623 Y85.606 E86.1822
G1 X171.114 Y85.606 E90.2977
G1 X171.114 Y85.971 E90.3159
G1 X88.623 Y85.971 E94.4313
G1 X88.623 Y86.335 E94.4495
G1 X171.114 Y86.335 E98.5650
G1 X171.114 Y86.699 E98.5832
G1 X88.623 Y86.699 E102.6986
G1 X88.623 Y87.064 E102.7168
G1 X171.114 Y87.064 E106.8323
G1 X171.114 Y87.428 E106.8504
G1 X88.623 Y87.428 E110.9659
G1 X88.623 Y87.793 E110.9841
G1 X171.114 Y87.793 E115.0996
G1 X171.114 Y88.157 E115.1177
G1 X88.623 Y88.157 E119.2332
G1 X88.623 Y88.521 E119.2514
G1 X171.114 Y88.521 E123.3668
G1 X171.114 Y88.886 E123.3850
G1 X88.623 Y88.886 E127.5005
G1 X88.623 Y89.250 E127.5187
G1 X171.114 Y89.250 E131.6341
G1 X171.114 Y89.615 E131.6523
G1 X88.623 Y89.615 E135.7678
G1 X88.623 Y89.979 E135.7859
G1 X171.114 Y89.979 E139.9014
G1 X171.114 Y90.343 E139.9196
G1 X88.623 Y90.343 E144.0350
G1 X88.623 Y90.708 E144.0532
G1 X171.114 Y90.708 E148.1687
G1 X171.114 Y91.072 E148.1869
G1 X88.623 Y91.072 E152.3023
G1 X88.623 Y91.437 E152.3205
G1 X171.114 Y91.437 E156.4359
G1 X171.114 Y91.801 E156.4541
G1 X88.623 Y91.801 E160.5696
G1 X88.623 Y92.165 E160.5878
G1 X171.114 Y92.165 E164.7032
G1 X171.114 Y92.530 E164.7214
G1 X88.623 Y92.530 E168.8369
G1 X88.623 Y92.894 E168.8550
G1 X171.114 Y92.894 E172.9705
G1 X171.114 Y93.258 E172.9887
G1 X88.623 Y93.258 E177.1041
G1 X88.623 Y93.623 E177.1223
G1 X171.114 Y93.623 E181.2378
G1 X171.114 Y93.987 E181.2559
G1 X88.623 Y93.987 E185.3714
G1 X88.623 Y94.352 E185.3896
G1 X171.114 Y94.352 E189.5050
G1 X171.114 Y94.716 E189.5232
G1 X88.623 Y94.716 E193.6387
G1 X88.623 Y95.080 E193.6569
G1 X171.114 Y95.080 E197.7723
G1 X171.114 Y95.445 E197.7905
G1 X88.623 Y95.445 E201.9060
G1 X88.623 Y95.809 E201.9241
G1 X171.114 Y95.809 E206.0396
G1 X171.114 Y96.174 E206.0578
G1 X88.623 Y96.174 E210.1732
G1 X88.623 Y96.538 E210.1914
G1 X171.114 Y96.538 E214.3069
G1 X171.114 Y96.902 E214.3250
G1 X88.623 Y96.902 E218.4405
G1 X88.623 Y97.267 E218.4587
G1 X171.114 Y97.267 E222.5741
G1 X171.114 Y97.631 E222.5923
G1 X88.623 Y97.631 E226.7078
G1 X88.623 Y97.996 E226.7259
G1 X171.114 Y97.996 E230.8414
G1 X171.114 Y98.360 E230.8596
G1 X88.623 Y98.360 E234.9750
G1 X88.623 Y98.724 E234.9932
G1 X171.114 Y98.724 E239.1087
G1 X171.114 Y99.089 E239.1269
G1 X88.623 Y99.089 E243.2423
G1 X88.623 Y99.453 E243.2605
G1 X171.114 Y99.453 E247.3760
G1 X171.114 Y99.818 E247.3941
G1 X88.623 Y99.818 E251.5096
G1 X88.623 Y100.182 E251.5278
G1 X171.114 Y100.182 E255.6432
G1 X171.114 Y100.546 E255.6614
G1 X88.623 Y100.546 E259.7769
G1 X88.623 Y100.911 E259.7951
G1 X171.114 Y100.911 E263.9105
G1 X171.114 Y101.275 E263.9287
G1 X88.623 Y101.275 E268.0442
G1 X88.623 Y101.640 E268.0624
G1 X171.114 Y101.640 E272.1779
G1 X171.114 Y102.004 E272.1961
G1 X88.623 Y102.004 E276.3115
G1 X88.623 Y102.368 E276.3297
G1 X171.114 Y102.368 E280.4452
G1 X171.114 Y102.733 E280.4634
G1 X88.623 Y102.733 E284.5789
G1 X88.623 Y103.097 E284.5971
G1 X171.114 Y103.097 E288.7125
G1 X171.114 Y103.462 E288.7307
G1 X88.623 Y103.462 E292.8462
G1 X88.623 Y103.826 E292.8644
G1 X171.114 Y103.826 E296.9799
G1 X171.114 Y104.190 E296.9981
G1 X88.623 Y104.190 E301.1135
G1 X88.623 Y104.555 E301.1317
G1 X171.114 Y104.555 E305.2472
G1 X171.114 Y104.919 E305.2654
G1 X88.623 Y104.919 E309.3809
G1 X88.623 Y105.284 E309.3991
G1 X171.114 Y105.284 E313.5145
G1 X171.114 Y105.648 E313.5327
G1 X88.623 Y105.648 E317.6482
G1 X88.623 Y106.012 E317.6664
G1 X171.114 Y106.012 E321.7819
G1 X171.114 Y106.377 E321.8001
G1 X88.623 Y106.377 E325.9155
G1 X88.623 Y106.741 E325.9337
G1 X171.114 Y106.741 E330.0492
G1 X171.114 Y107.106 E330.0674
G1 X88.623 Y107.106 E334.1829
G1 X88.623 Y107.470 E334.2011
G1 X171.114 Y107.470 E338.3165
G1 X171.114 Y107.834 E338.3347
G1 X88.623 Y107.834 E342.4502
G1 X88.623 Y108.199 E342.4684
G1 X171.114 Y108.199 E346.5839
G1 X171.114 Y108.563 E346.6021
G1 X88.623 Y108.563 E350.7175
G1 X88.623 Y108.927 E350.7357
G1 X171.114 Y108.927 E354.8512
G1 X171.114 Y109.292 E354.8694
G1 X88.623 Y109.292 E358.9849
G1 X88.623 Y109.656 E359.0031
G1 X171.114 Y109.656 E363.1185
G1 X171.114 Y110.021 E363.1367
G1 X88.623 Y110.021 E367.2522
G1 X88.623 Y110.385 E367.2704
G1 X171.114 Y110.385 E371.3859
G1 X171.114 Y110.749 E371.4041
G1 X88.623 Y110.749 E375.5195
G1 X88.623 Y111.114 E375.5377
G1 X171.114 Y111.114 E379.6532
G1 X171.114 Y111.478 E379.6714
G1 X88.623 Y111.478 E383.7869
G1 X88.623 Y111.843 E383.8051
G1 X171.114 Y111.843 E387.9205
G1 X171.114 Y112.207 E387.9387
G1 X88.623 Y112.207 E392.0542
G1 X88.623 Y112.571 E392.0724
G1 X171.114 Y112.571 E396.1879
G1 X171.114 Y112.936 E396.2061
G1 X88.623 Y112.936 E400.3215
G1 X88.623 Y113.300 E400.3397
G1 X171.114 Y113.300 E404.4552
G1 X171.114 Y113.665 E404.4734
G1 X88.623 Y113.665 E408.5889
G1 X88.623 Y114.029 E408.6071
G1 X171.114 Y114.029 E412.7225
G1 X171.114 Y114.393 E412.7407
G1 X88.623 Y114.393 E416.8562
G1 X88.623 Y114.758 E416.8744
G1 X171.114 Y114.758 E420.9899
G1 X171.114 Y115.122 E421.0081
G1 X88.623 Y115.122 E425.1236
G1 X88.623 Y115.487 E425.1417
G1 X171.114 Y115.487 E429.2572
G1 X171.114 Y115.851 E429.2754
G1 X88.623 Y115.851 E433.3909
G1 X88.623 Y116.215 E433.4091
G1 X171.114 Y116.215 E437.5246
G1 X171.114 Y116.580 E437.5427
G1 X88.623 Y116.580 E441.6582
G1 X88.623 Y116.944 E441.6764
G1 X171.114 Y116.944 E445.7919
G1 X171.114 Y117.309 E445.8101
G1 X88.623 Y117.309 E449.9256
G1 X88.623 Y117.673 E449.9438
G1 X171.114 Y117.673 E454.0592
G1 X171.114 Y118.037 E454.0774
G1 X88.623 Y118.037 E458.1929
G1 X88.623 Y118.402 E458.2111
G1 X171.114 Y118.402 E462.3266
G1 X171.114 Y118.766 E462.3448
G1 X88.623 Y118.766 E466.4602
G1 X88.623 Y119.131 E466.4784
G1 X171.114 Y119.131 E470.5939
G1 X171.114 Y119.495 E470.6121
G1 X88.623 Y119.495 E474.7276
G1 X88.623 Y119.859 E474.7458
G1 X171.114 Y119.859 E478.8612
G1 X170.983 Y120.224 E478.8805
G1 X88.755 Y120.224 E482.9829
G1 X89.149 Y120.588 E483.0097
G1 X170.588 Y120.588 E487.0727
G1 X170.194 Y120.953 E487.0995
G1 X89.543 Y120.953 E491.1232
G1 X89.937 Y121.317 E491.1500
G1 X169.800 Y121.317 E495.1344
G1 X169.406 Y121.681 E495.1611
G1 X90.331 Y121.681 E499.1062
G1 X90.725 Y122.046 E499.1330
G1 X169.012 Y122.046 E503.0387
G1 X168.618 Y122.410 E503.0655
G1 X91.119 Y122.410 E506.9319



; ------------------------------------
; Raft Layer #4
; ------------------------------------
G21 ; mm
G90 ; abs
G92 E0 ; reset extr
M106 S255
;segType:Raft
G0 F4800 E-1.0000
G0 F300 Z1.500
G0 X88.780 Y120.264 F10800
G0 F4800 E0.0000
G1 X88.780 Y79.857 E2.0159 F3600
G1 X89.174 Y79.493 E2.0427
G1 X89.174 Y120.628 E4.0950
G1 X89.569 Y120.992 E4.1218
G1 X89.569 Y79.129 E6.2103
G1 X89.963 Y78.765 E6.2371
G1 X89.963 Y121.357 E8.3620
G1 X90.358 Y121.721 E8.3888
G1 X90.358 Y78.401 E10.5500
G1 X90.752 Y78.037 E10.5768
G1 X90.752 Y122.085 E12.7744
G1 X91.146 Y122.449 E12.8011
G1 X91.146 Y77.673 E15.0350
G1 X91.541 Y77.673 E15.0547
G1 X91.541 Y122.570 E17.2946
G1 X91.935 Y122.570 E17.3143
G1 X91.935 Y77.673 E19.5542
G1 X92.330 Y77.673 E19.5739
G1 X92.330 Y122.570 E21.8139
G1 X92.724 Y122.570 E21.8335
G1 X92.724 Y77.673 E24.0735
G1 X93.119 Y77.673 E24.0931
G1 X93.119 Y122.570 E26.3331
G1 X93.513 Y122.570 E26.3528
G1 X93.513 Y77.673 E28.5927
G1 X93.908 Y77.673 E28.6124
G1 X93.908 Y122.570 E30.8523
G1 X94.302 Y122.570 E30.8720
G1 X94.302 Y77.673 E33.1119
G1 X94.697 Y77.673 E33.1316
G1 X94.697 Y122.570 E35.3715
G1 X95.091 Y122.570 E35.3912
G1 X95.091 Y77.673 E37.6311
G1 X95.485 Y77.673 E37.6508
G1 X95.485 Y122.570 E39.8907
G1 X95.880 Y122.570 E39.9104
G1 X95.880 Y77.673 E42.1503
G1 X96.274 Y77.673 E42.1700
G1 X96.274 Y122.570 E44.4099
G1 X96.669 Y122.570 E44.4296
G1 X96.669 Y77.673 E46.6696
G1 X97.063 Y77.673 E46.6892
G1 X97.063 Y122.570 E48.9292
G1 X97.458 Y122.570 E48.9488
G1 X97.458 Y77.673 E51.1888
G1 X97.852 Y77.673 E51.2085
G1 X97.852 Y122.570 E53.4484
G1 X98.247 Y122.570 E53.4681
G1 X98.247 Y77.673 E55.7080
G1 X98.641 Y77.673 E55.7277
G1 X98.641 Y122.570 E57.9676
G1 X99.036 Y122.570 E57.9873
G1 X99.036 Y77.673 E60.2272
G1 X99.430 Y77.673 E60.2469
G1 X99.430 Y122.570 E62.4868
G1 X99.824 Y122.570 E62.5065
G1 X99.824 Y77.673 E64.7464
G1 X100.219 Y77.673 E64.7661
G1 X100.219 Y122.570 E67.0060
G1 X100.613 Y122.570 E67.0257
G1 X100.613 Y77.673 E69.2656
G1 X101.008 Y77.673 E69.2853
G1 X101.008 Y122.570 E71.5252
G1 X101.402 Y122.570 E71.5449
G1 X101.402 Y77.673 E73.7849
G1 X101.797 Y77.673 E73.8045
G1 X101.797 Y122.570 E76.0445
G1 X102.191 Y122.570 E76.0641
G1 X102.191 Y77.673 E78.3041
G1 X102.586 Y77.673 E78.3237
G1 X102.586 Y122.570 E80.5637
G1 X102.980 Y122.570 E80.5833
G1 X102.980 Y77.673 E82.8233
G1 X103.375 Y77.673 E82.8430
G1 X103.375 Y122.570 E85.0829
G1 X103.769 Y122.570 E85.1026
G1 X103.769 Y77.673 E87.3425
G1 X104.164 Y77.673 E87.3622
G1 X104.164 Y122.570 E89.6021
G1 X104.558 Y122.570 E89.6218
G1 X104.558 Y77.673 E91.8617
G1 X104.952 Y77.673 E91.8814
G1 X104.952 Y122.570 E94.1213
G1 X105.347 Y122.570 E94.1410
G1 X105.347 Y77.673 E96.3809
G1 X105.741 Y77.673 E96.4006
G1 X105.741 Y122.570 E98.6405
G1 X106.136 Y122.570 E98.6602
G1 X106.136 Y77.673 E100.9001
G1 X106.530 Y77.673 E100.9198
G1 X106.530 Y122.570 E103.1597
G1 X106.925 Y122.570 E103.1794
G1 X106.925 Y77.673 E105.4193
G1 X107.319 Y77.673 E105.4390
G1 X107.319 Y122.570 E107.6789
G1 X107.714 Y122.570 E107.6986
G1 X107.714 Y77.673 E109.9385
G1 X108.108 Y77.673 E109.9582
G1 X108.108 Y122.570 E112.1981
G1 X108.503 Y122.570 E112.2178
G1 X108.503 Y77.673 E114.4578
G1 X108.897 Y77.673 E114.4774
G1 X108.897 Y122.570 E116.7174
G1 X109.291 Y122.570 E116.7370
G1 X109.291 Y77.673 E118.9770
G1 X109.686 Y77.673 E118.9966
G1 X109.686 Y122.570 E121.2366
G1 X110.080 Y122.570 E121.2562
G1 X110.080 Y77.673 E123.4962
G1 X110.475 Y77.673 E123.5159
G1 X110.475 Y122.570 E125.7558
G1 X110.869 Y122.570 E125.7755
G1 X110.869 Y77.673 E128.0154
G1 X111.264 Y77.673 E128.0351
G1 X111.264 Y122.570 E130.2750
G1 X111.658 Y122.570 E130.2947
G1 X111.658 Y77.673 E132.5346
G1 X112.053 Y77.673 E132.5543
G1 X112.053 Y122.570 E134.7942
G1 X112.447 Y122.570 E134.8139
G1 X112.447 Y77.673 E137.0538
G1 X112.842 Y77.673 E137.0735
G1 X112.842 Y122.570 E139.3135
G1 X113.236 Y122.570 E139.3331
G1 X113.236 Y77.673 E141.5731
G1 X113.631 Y77.673 E141.5927
G1 X113.631 Y122.570 E143.8327
G1 X114.025 Y122.570 E143.8524
G1 X114.025 Y77.673 E146.0923
G1 X114.419 Y77.673 E146.1120
G1 X114.419 Y122.570 E148.3519
G1 X114.814 Y122.570 E148.3716
G1 X114.814 Y77.673 E150.6115
G1 X115.208 Y77.673 E150.6312
G1 X115.208 Y122.570 E152.8711
G1 X115.603 Y122.570 E152.8908
G1 X115.603 Y77.673 E155.1307
G1 X115.997 Y77.673 E155.1504
G1 X115.997 Y122.570 E157.3904
G1 X116.392 Y122.570 E157.4100
G1 X116.392 Y77.673 E159.6500
G1 X116.786 Y77.673 E159.6697
G1 X116.786 Y122.570 E161.9096
G1 X117.181 Y122.570 E161.9293
G1 X117.181 Y77.673 E164.1692
G1 X117.575 Y77.673 E164.1889
G1 X117.575 Y122.570 E166.4288
G1 X117.970 Y122.570 E166.4485
G1 X117.970 Y77.673 E168.6884
G1 X118.364 Y77.673 E168.7081
G1 X118.364 Y122.570 E170.9480
G1 X118.758 Y122.570 E170.9677
G1 X118.758 Y77.673 E173.2076
G1 X119.153 Y77.673 E173.2273
G1 X119.153 Y122.570 E175.4673
G1 X119.547 Y122.570 E175.4869
G1 X119.547 Y77.673 E177.7269
G1 X119.942 Y77.673 E177.7466
G1 X119.942 Y122.570 E179.9865
G1 X120.336 Y122.570 E180.0062
G1 X120.336 Y77.673 E182.2461
G1 X120.731 Y77.673 E182.2658
G1 X120.731 Y122.570 E184.5057
G1 X121.125 Y122.570 E184.5254
G1 X121.125 Y77.673 E186.7653
G1 X121.520 Y77.673 E186.7850
G1 X121.520 Y122.570 E189.0249
G1 X121.914 Y122.570 E189.0446
G1 X121.914 Y77.673 E191.2846
G1 X122.309 Y77.673 E191.3042
G1 X122.309 Y122.570 E193.5442
G1 X122.703 Y122.570 E193.5638
G1 X122.703 Y77.673 E195.8038
G1 X123.097 Y77.673 E195.8235
G1 X123.097 Y122.570 E198.0634
G1 X123.492 Y122.570 E198.0831
G1 X123.492 Y77.673 E200.3230
G1 X123.886 Y77.673 E200.3427
G1 X123.886 Y122.570 E202.5826
G1 X124.281 Y122.570 E202.6023
G1 X124.281 Y77.673 E204.8422
G1 X124.675 Y77.673 E204.8619
G1 X124.675 Y122.570 E207.1018
G1 X125.070 Y122.570 E207.1215
G1 X125.070 Y77.673 E209.3615
G1 X125.464 Y77.673 E209.3811
G1 X125.464 Y122.570 E211.6211
G1 X125.859 Y122.570 E211.6408
G1 X125.859 Y77.673 E213.8807
G1 X126.253 Y77.673 E213.9004
G1 X126.253 Y122.570 E216.1403
G1 X126.648 Y122.570 E216.1600
G1 X126.648 Y77.673 E218.3999
G1 X127.042 Y77.673 E218.4196
G1 X127.042 Y122.570 E220.6595
G1 X127.436 Y122.570 E220.6792
G1 X127.436 Y77.673 E222.9191
G1 X127.831 Y77.673 E222.9388
G1 X127.831 Y122.570 E225.1788
G1 X128.225 Y122.570 E225.1984
G1 X128.225 Y77.673 E227.4384
G1 X128.620 Y77.673 E227.4581
G1 X128.620 Y122.570 E229.6980
G1 X129.014 Y122.570 E229.7177
G1 X129.014 Y77.673 E231.9576
G1 X129.409 Y77.673 E231.9773
G1 X129.409 Y122.570 E234.2172
G1 X129.803 Y122.570 E234.2369
G1 X129.803 Y77.673 E236.4768
G1 X130.198 Y77.673 E236.4965
G1 X130.198 Y122.570 E238.7364
G1 X130.592 Y122.570 E238.7561
G1 X130.592 Y77.673 E240.9960
G1 X130.987 Y77.673 E241.0157
G1 X130.987 Y122.570 E243.2557
G1 X131.381 Y122.570 E243.2753
G1 X131.381 Y77.673 E245.5153
G1 X131.775 Y77.673 E245.5350
G1 X131.775 Y122.570 E247.7749
G1 X132.170 Y122.570 E247.7946
G1 X132.170 Y77.673 E250.0345
G1 X132.564 Y77.673 E250.0542
G1 X132.564 Y122.570 E252.2941
G1 X132.959 Y122.570 E252.3138
G1 X132.959 Y77.673 E254.5537
G1 X133.353 Y77.673 E254.5734
G1 X133.353 Y122.570 E256.8133
G1 X133.748 Y122.570 E256.8330
G1 X133.748 Y77.673 E259.0729
G1 X134.142 Y77.673 E259.0926
G1 X134.142 Y122.570 E261.3326
G1 X134.537 Y122.570 E261.3522
G1 X134.537 Y77.673 E263.5922
G1 X134.931 Y77.673 E263.6119
G1 X134.931 Y122.570 E265.8518
G1 X135.326 Y122.570 E265.8715
G1 X135.326 Y77.673 E268.1114
G1 X135.720 Y77.673 E268.1311
G1 X135.720 Y122.570 E270.3710
G1 X136.114 Y122.570 E270.3907
G1 X136.114 Y77.673 E272.6306
G1 X136.509 Y77.673 E272.6503
G1 X136.509 Y122.570 E274.8902
G1 X136.903 Y122.570 E274.9099
G1 X136.903 Y77.673 E277.1499
G1 X137.298 Y77.673 E277.1695
G1 X137.298 Y122.570 E279.4095
G1 X137.692 Y122.570 E279.4292
G1 X137.692 Y77.673 E281.6691
G1 X138.087 Y77.673 E281.6888
G1 X138.087 Y122.570 E283.9287
G1 X138.481 Y122.570 E283.9484
G1 X138.481 Y77.673 E286.1883
G1 X138.876 Y77.673 E286.2080
G1 X138.876 Y122.570 E288.4479
G1 X139.270 Y122.570 E288.4676
G1 X139.270 Y77.673 E290.7075
G1 X139.665 Y77.673 E290.7272
G1 X139.665 Y122.570 E292.9671
G1 X140.059 Y122.570 E292.9868
G1 X140.059 Y77.673 E295.2268
G1 X140.453 Y77.673 E295.2464
G1 X140.453 Y122.570 E297.4864
G1 X140.848 Y122.570 E297.5061
G1 X140.848 Y77.673 E299.7460
G1 X141.242 Y77.673 E299.7657
G1 X141.242 Y122.570 E302.0056
G1 X141.637 Y122.570 E302.0253
G1 X141.637 Y77.673 E304.2652
G1 X142.031 Y77.673 E304.2849
G1 X142.031 Y122.570 E306.5248
G1 X142.426 Y122.570 E306.5445
G1 X142.426 Y77.673 E308.7844
G1 X142.820 Y77.673 E308.8041
G1 X142.820 Y122.570 E311.0440
G1 X143.215 Y122.570 E311.0637
G1 X143.215 Y77.673 E313.3037
G1 X143.609 Y77.673 E313.3233
G1 X143.609 Y122.570 E315.5633
G1 X144.004 Y122.570 E315.5830
G1 X144.004 Y77.673 E317.8229
G1 X144.398 Y77.673 E317.8426
G1 X144.398 Y122.570 E320.0825
G1 X144.793 Y122.570 E320.1022
G1 X144.793 Y77.673 E322.3421
G1 X145.187 Y77.673 E322.3618
G1 X145.187 Y122.570 E324.6017
G1 X145.581 Y122.570 E324.6214
G1 X145.581 Y77.673 E326.8613
G1 X145.976 Y77.673 E326.8810
G1 X145.976 Y122.570 E329.1210
G1 X146.370 Y122.570 E329.1406
G1 X146.370 Y77.673 E331.3806
G1 X146.765 Y77.673 E331.4003
G1 X146.765 Y122.570 E333.6402
G1 X147.159 Y122.570 E333.6599
G1 X147.159 Y77.673 E335.8998
G1 X147.554 Y77.673 E335.9195
G1 X147.554 Y122.570 E338.1594
G1 X147.948 Y122.570 E338.1791
G1 X147.948 Y77.673 E340.4190
G1 X148.343 Y77.673 E340.4387
G1 X148.343 Y122.570 E342.6786
G1 X148.737 Y122.570 E342.6983
G1 X148.737 Y77.673 E344.9382
G1 X149.132 Y77.673 E344.9579
G1 X149.132 Y122.570 E347.1979
G1 X149.526 Y122.570 E347.2175
G1 X149.526 Y77.673 E349.4575
G1 X149.920 Y77.673 E349.4772
G1 X149.920 Y122.570 E351.7171
G1 X150.315 Y122.570 E351.7368
G1 X150.315 Y77.673 E353.9767
G1 X150.709 Y77.673 E353.9964
G1 X150.709 Y122.570 E356.2363
G1 X151.104 Y122.570 E356.2560
G1 X151.104 Y77.673 E358.4959
G1 X151.498 Y77.673 E358.5156
G1 X151.498 Y122.570 E360.7555
G1 X151.893 Y122.570 E360.7752
G1 X151.893 Y77.673 E363.0151
G1 X152.287 Y77.673 E363.0348
G1 X152.287 Y122.570 E365.2748
G1 X152.682 Y122.570 E365.2944
G1 X152.682 Y77.673 E367.5344
G1 X153.076 Y77.673 E367.5541
G1 X153.076 Y122.570 E369.7940
G1 X153.471 Y122.570 E369.8137
G1 X153.471 Y77.673 E372.0536
G1 X153.865 Y77.673 E372.0733
G1 X153.865 Y122.570 E374.3132
G1 X154.259 Y122.570 E374.3329
G1 X154.259 Y77.673 E376.5728
G1 X154.654 Y77.673 E376.5925
G1 X154.654 Y122.570 E378.8324
G1 X155.048 Y122.570 E378.8521
G1 X155.048 Y77.673 E381.0921
G1 X155.443 Y77.673 E381.1117
G1 X155.443 Y122.570 E383.3517
G1 X155.837 Y122.570 E383.3714
G1 X155.837 Y77.673 E385.6113
G1 X156.232 Y77.673 E385.6310
G1 X156.232 Y122.570 E387.8709
G1 X156.626 Y122.570 E387.8906
G1 X156.626 Y77.673 E390.1305
G1 X157.021 Y77.673 E390.1502
G1 X157.021 Y122.570 E392.3901
G1 X157.415 Y122.570 E392.4098
G1 X157.415 Y77.673 E394.6497
G1 X157.810 Y77.673 E394.6694
G1 X157.810 Y122.570 E396.9093
G1 X158.204 Y122.570 E396.9290
G1 X158.204 Y77.673 E399.1690
G1 X158.598 Y77.673 E399.1886
G1 X158.598 Y122.570 E401.4286
G1 X158.993 Y122.570 E401.4483
G1 X158.993 Y77.673 E403.6882
G1 X159.387 Y77.673 E403.7079
G1 X159.387 Y122.570 E405.9478
G1 X159.782 Y122.570 E405.9675
G1 X159.782 Y77.673 E408.2074
G1 X160.176 Y77.673 E408.2271
G1 X160.176 Y122.570 E410.4670
G1 X160.571 Y122.570 E410.4867
G1 X160.571 Y77.673 E412.7266
G1 X160.965 Y77.673 E412.7463
G1 X160.965 Y122.570 E414.9862
G1 X161.360 Y122.570 E415.0059
G1 X161.360 Y77.673 E417.2459
G1 X161.754 Y77.673 E417.2655
G1 X161.754 Y122.570 E419.5055
G1 X162.149 Y122.570 E419.5252
G1 X162.149 Y77.673 E421.7651
G1 X162.543 Y77.673 E421.7848
G1 X162.543 Y122.570 E424.0247
G1 X162.937 Y122.570 E424.0444
G1 X162.937 Y77.673 E426.2843
G1 X163.332 Y77.673 E426.3040
G1 X163.332 Y122.570 E428.5439
G1 X163.726 Y122.570 E428.5636
G1 X163.726 Y77.673 E430.8036
G1 X164.121 Y77.673 E430.8232
G1 X164.121 Y122.570 E433.0632
G1 X164.515 Y122.570 E433.0828
G1 X164.515 Y77.673 E435.3228
G1 X164.910 Y77.673 E435.3425
G1 X164.910 Y122.570 E437.5824
G1 X165.304 Y122.570 E437.6021
G1 X165.304 Y77.673 E439.8420
G1 X165.699 Y77.673 E439.8617
G1 X165.699 Y122.570 E442.1016
G1 X166.093 Y122.570 E442.1213
G1 X166.093 Y77.673 E444.3612
G1 X166.488 Y77.673 E444.3809
G1 X166.488 Y122.570 E446.6208
G1 X166.882 Y122.570 E446.6405
G1 X166.882 Y77.673 E448.8805
G1 X167.276 Y77.673 E448.9001
G1 X167.276 Y122.570 E451.1401
G1 X167.671 Y122.570 E451.1598
G1 X167.671 Y77.673 E453.3997
G1 X168.065 Y77.673 E453.4194
G1 X168.065 Y122.570 E455.6593
G1 X168.460 Y122.570 E455.6790
G1 X168.460 Y77.673 E457.9189
G1 X168.854 Y77.794 E457.9395
G1 X168.854 Y122.327 E460.1613
G1 X169.249 Y121.963 E460.1880
G1 X169.249 Y78.158 E462.3735
G1 X169.643 Y78.522 E462.4003
G1 X169.643 Y121.599 E464.5494
G1 X170.038 Y121.235 E464.5762
G1 X170.038 Y78.886 E466.6890
G1 X170.432 Y79.250 E466.7158
G1 X170.432 Y120.871 E468.7922
G1 X170.827 Y120.507 E468.8190
G1 X170.827 Y79.614 E470.8592


; ------------------------------------
; Layer #0
; ------------------------------------
G21 ; mm
G90 ; abs
G92 E0 ; reset extr
M106 S255
;segType:Support
G0 F4800 E-1.0000
G0 F300 Z1.950
G0 X146.286 Y86.406 F10800
G0 F4800 E0.0000
G1 X145.386 Y86.406 E0.0254 F900
G1 X144.890 Y86.957 E0.0464
G1 X144.686 Y86.957 E0.0522
G0 F4800 E-0.9478
G0 X143.283 Y84.458 F10800
G0 F4800 E0.0522
G1 X144.183 Y84.458 E0.0776 F900
G1 X143.283 Y85.358 E0.1136
G1 X144.183 Y85.358 E0.1390
G1 X143.990 Y86.057 E0.1595
G1 X144.890 Y86.057 E0.1850
G1 X145.386 Y85.506 E0.2059
G1 X146.286 Y85.506 E0.2313
G0 F4800 E-0.7687
G0 X146.397 Y83.943 F10800
G0 F4800 E0.2313
G1 X145.497 Y83.943 E0.2568 F900
G1 X144.715 Y83.524 E0.2819
G1 X143.815 Y83.524 E0.3073
G0 F4800 E-0.6927
G0 X116.500 Y83.800 F10800
G0 F4800 E0.3073
G1 X113.800 Y83.800 E0.3836 F900
G1 X113.800 Y84.700 E0.4091
G1 X116.500 Y84.700 E0.4854
G1 X116.500 Y85.600 E0.5109
G1 X113.800 Y85.600 E0.5872
G1 X113.800 Y86.500 E0.6126
G1 X116.259 Y86.500 E0.6821
G0 F4800 E-0.3179
G0 X114.909 Y88.647 F10800
G0 X98.709 Y114.405
G0 F4800 E0.6821
;segType:HShell
G1 X95.168 Y117.676 E0.8425 F600
G1 X94.610 Y117.676
G1 X97.630 Y114.886 E0.9792
G1 X96.991 Y114.962
G1 X94.053 Y117.676 E1.1123
;segType:Perimeter
G0 X94.026 Y117.925 F10800
G1 X93.370 Y118.176 E1.1356 F359
G1 X93.370 Y81.770 E2.3465
G1 X166.630 Y81.770 E4.7831
G1 X166.630 Y118.230 E5.9958
G1 X93.429 Y118.230 E8.4304
G1 X93.701 Y117.624
;segType:Loop
G0 X93.770 Y117.228 F10800
G1 X93.770 Y82.139 E9.5975 F600
G1 X113.820 Y82.139 E10.2644
G1 X113.689 Y82.186 E10.2690
G1 X113.222 Y82.446 E10.2868
G1 X112.809 Y82.780 E10.3045
G1 X112.461 Y83.176 E10.3220
G1 X112.186 Y83.622 E10.3394
G1 X111.992 Y84.107 E10.3568
G1 X111.883 Y84.615 E10.3741
G1 X111.861 Y85.132 E10.3913
G1 X111.927 Y85.646 E10.4085
G1 X112.080 Y86.143 E10.4258
G1 X112.316 Y86.609 E10.4432
G1 X112.628 Y87.031 E10.4607
G1 X113.011 Y87.397 E10.4783
G1 X113.452 Y87.695 E10.4960
G1 X113.941 Y87.915 E10.5138
G1 X114.464 Y88.051 E10.5318
G1 X115.003 Y88.096 E10.5498
G1 X115.542 Y88.050 E10.5678
G1 X116.064 Y87.914 E10.5857
G1 X116.552 Y87.692 E10.6035
G1 X116.994 Y87.394 E10.6213
G1 X117.375 Y87.027 E10.6389
G1 X117.687 Y86.604 E10.6563
G1 X117.922 Y86.138 E10.6737
G1 X118.074 Y85.641 E10.6910
G1 X118.139 Y85.127 E10.7082
G1 X118.117 Y84.609 E10.7255
G1 X118.007 Y84.103 E10.7427
G1 X117.814 Y83.622 E10.7599
G1 X117.539 Y83.176 E10.7774
G1 X117.191 Y82.780 E10.7949
G1 X116.778 Y82.446 E10.8126
G1 X116.311 Y82.186 E10.8303
G1 X116.180 Y82.139 E10.8350
G1 X143.820 Y82.139 E11.7543
G1 X143.689 Y82.186 E11.7589
G1 X143.222 Y82.446 E11.7767
G1 X142.809 Y82.780 E11.7944
G1 X142.461 Y83.176 E11.8119
G1 X142.186 Y83.622 E11.8293
G1 X141.991 Y84.108 E11.8468
G1 X141.883 Y84.615 E11.8640
G1 X141.861 Y85.132 E11.8812
G1 X141.927 Y85.647 E11.8985
G1 X142.080 Y86.143 E11.9158
G1 X142.316 Y86.610 E11.9331
G1 X142.628 Y87.031 E11.9506
G1 X143.010 Y87.397 E11.9682
G1 X143.452 Y87.695 E11.9859
G1 X143.941 Y87.915 E12.0038
G1 X144.464 Y88.051 E12.0217
G1 X145.003 Y88.096 E12.0397
G1 X145.542 Y88.050 E12.0577
G1 X146.064 Y87.914 E12.0756
G1 X146.552 Y87.692 E12.0935
G1 X146.994 Y87.394 E12.1112
G1 X147.375 Y87.027 E12.1288
G1 X147.687 Y86.604 E12.1463
G1 X147.922 Y86.138 E12.1636
G1 X148.074 Y85.641 E12.1809
G1 X148.139 Y85.127 E12.1982
G1 X148.116 Y84.609 E12.2154
G1 X148.007 Y84.103 E12.2326
G1 X147.814 Y83.622 E12.2499
G1 X147.539 Y83.176 E12.2673
G1 X147.191 Y82.780 E12.2848
G1 X146.778 Y82.446 E12.3025
G1 X146.311 Y82.186 E12.3203
G1 X146.180 Y82.139 E12.3249
G1 X166.230 Y82.139 E12.9918
G1 X166.230 Y117.861 E14.1799
G1 X146.180 Y117.861 E14.8467
G1 X146.552 Y117.692 E14.8603
G1 X146.994 Y117.393 E14.8781
G1 X147.375 Y117.027 E14.8956
G1 X147.687 Y116.605 E14.9131
G1 X147.922 Y116.138 E14.9305
G1 X148.073 Y115.644 E14.9477
G1 X148.139 Y115.127 E14.9650
G1 X148.116 Y114.609 E14.9822
G1 X148.007 Y114.102 E14.9995
G1 X147.812 Y113.619 E15.0168
G1 X147.537 Y113.174 E15.0342
G1 X147.189 Y112.778 E15.0518
G1 X146.775 Y112.445 E15.0694
G1 X146.308 Y112.184 E15.0872
G1 X145.800 Y112.005 E15.1051
G1 X145.268 Y111.915 E15.1231
G1 X144.727 Y111.915 E15.1411
G1 X144.194 Y112.007 E15.1591
G1 X143.687 Y112.187 E15.1770
G1 X143.220 Y112.448 E15.1947
G1 X142.807 Y112.782 E15.2124
G1 X142.459 Y113.178 E15.2299
G1 X142.185 Y113.624 E15.2473
G1 X141.991 Y114.107 E15.2647
G1 X141.883 Y114.615 E15.2819
G1 X141.861 Y115.132 E15.2992
G1 X141.927 Y115.644 E15.3163
G1 X142.080 Y116.143 E15.3337
G1 X142.316 Y116.609 E15.3511
G1 X142.628 Y117.031 E15.3685
G1 X143.010 Y117.397 E15.3861
G1 X143.452 Y117.695 E15.4038
G1 X143.820 Y117.861 E15.4172
G1 X116.180 Y117.861 E16.3365
G1 X116.552 Y117.692 E16.3501
G1 X116.994 Y117.393 E16.3679
G1 X117.375 Y117.027 E16.3854
G1 X117.687 Y116.604 E16.4029
G1 X117.922 Y116.138 E16.4203
G1 X118.073 Y115.644 E16.4375
G1 X118.139 Y115.127 E16.4548
G1 X118.117 Y114.609 E16.4720
G1 X118.006 Y114.102 E16.4893
G1 X117.812 Y113.619 E16.5066
G1 X117.537 Y113.174 E16.5240
G1 X117.189 Y112.778 E16.5416
G1 X116.775 Y112.445 E16.5592
G1 X116.308 Y112.184 E16.5770
G1 X115.801 Y112.006 E16.5949
G1 X115.269 Y111.915 E16.6129
G1 X114.726 Y111.915 E16.6309
G1 X114.194 Y112.007 E16.6489
G1 X113.687 Y112.187 E16.6668
G1 X113.220 Y112.448 E16.6846
G1 X112.807 Y112.782 E16.7022
G1 X112.459 Y113.178 E16.7197
G1 X112.185 Y113.624 E16.7371
G1 X111.992 Y114.107 E16.7545
G1 X111.883 Y114.615 E16.7717
G1 X111.861 Y115.132 E16.7890
G1 X111.927 Y115.644 E16.8061
G1 X112.080 Y116.143 E16.8235
G1 X112.316 Y116.609 E16.8409
G1 X112.628 Y117.031 E16.8583
G1 X113.011 Y117.397 E16.8759
G1 X113.452 Y117.695 E16.8936
G1 X113.820 Y117.861 E16.9070
G1 X93.770 Y117.861 E17.5739
G1 X93.770 Y117.410 E17.5889
G0 X98.623 Y113.998 F10800
G0 X126.184 Y82.324
;segType:HShell
G1 X97.119 Y109.174 E18.9050 F600
;segType:Perimeter
G0 X96.738 Y109.259 F10800
G1 X97.223 Y109.738 E18.9276 F359
G1 X97.548 Y109.792 E18.9386
G1 X97.928 Y109.920 E18.9519
G1 X98.280 Y110.111 E18.9652
G1 X98.594 Y110.358 E18.9785
G1 X98.861 Y110.653 E18.9918
G1 X99.074 Y110.988 E19.0050
G1 X99.226 Y111.353 E19.0181
G1 X99.314 Y111.738 E19.0313
G1 X99.336 Y112.133 E19.0444
G1 X99.292 Y112.525 E19.0575
G1 X99.181 Y112.905 E19.0707
G1 X99.007 Y113.261 E19.0839
G1 X98.775 Y113.583 E19.0971
G1 X98.491 Y113.863 E19.1103
G1 X98.163 Y114.091 E19.1236
G1 X97.800 Y114.261 E19.1370
G1 X97.412 Y114.368 E19.1503
G1 X97.012 Y114.407 E19.1637
G1 X96.610 Y114.378 E19.1771
G1 X96.220 Y114.282 E19.1905
G1 X95.852 Y114.122 E19.2038
G1 X95.517 Y113.902 E19.2171
G1 X95.226 Y113.630 E19.2304
G1 X94.986 Y113.314 E19.2436
G1 X94.802 Y112.963 E19.2568
G1 X94.682 Y112.586 E19.2700
G1 X94.626 Y112.195 E19.2831
G1 X94.638 Y111.800 E19.2962
G1 X94.716 Y111.413 E19.3094
G1 X94.858 Y111.043 E19.3225
G1 X95.062 Y110.703 E19.3357
G1 X95.321 Y110.401 E19.3490
G1 X95.628 Y110.146 E19.3622
G1 X95.975 Y109.946 E19.3755
G1 X96.352 Y109.808 E19.3889
G1 X96.747 Y109.734 E19.4023
G1 X97.106 Y109.729 E19.4142
G1 X97.669 Y109.329
;segType:Loop
G0 X96.803 Y109.364 F10800
G1 X97.198 Y109.358 E19.4273 F600
G1 X97.653 Y109.434 E19.4427
G1 X98.099 Y109.585 E19.4584
G1 X98.512 Y109.808 E19.4740
G1 X98.879 Y110.097 E19.4895
G1 X99.189 Y110.440 E19.5049
G1 X99.435 Y110.827 E19.5201
G1 X99.611 Y111.248 E19.5353
G1 X99.712 Y111.690 E19.5504
G1 X99.737 Y112.142 E19.5655
G1 X99.686 Y112.593 E19.5806
G1 X99.558 Y113.030 E19.5957
G1 X99.358 Y113.440 E19.6109
G1 X99.090 Y113.814 E19.6262
G1 X98.759 Y114.139 E19.6416
G1 X98.375 Y114.406 E19.6571
G1 X97.949 Y114.606 E19.6728
G1 X97.491 Y114.731 E19.6886
G1 X97.017 Y114.778 E19.7044
G1 X96.542 Y114.744 E19.7203
G1 X96.082 Y114.630 E19.7361
G1 X95.649 Y114.442 E19.7517
G1 X95.258 Y114.185 E19.7673
G1 X94.918 Y113.868 E19.7828
G1 X94.640 Y113.502 E19.7981
G1 X94.428 Y113.096 E19.8133
G1 X94.289 Y112.663 E19.8284
G1 X94.225 Y112.214 E19.8435
G1 X94.239 Y111.761 E19.8586
G1 X94.328 Y111.316 E19.8737
G1 X94.493 Y110.891 E19.8888
G1 X94.728 Y110.498 E19.9041
G1 X95.028 Y110.147 E19.9194
G1 X95.387 Y109.849 E19.9349
G1 X95.794 Y109.615 E19.9505
G1 X96.237 Y109.452 E19.9663
G1 X96.608 Y109.383 E19.9788
;segType:HShell
G0 X142.124 Y86.667 F10800
G1 X114.993 Y111.730 E21.2073 F600
;segType:Perimeter
G0 X114.812 Y111.810 F10800
G1 X115.291 Y112.294 E21.2299 F359
G1 X115.692 Y112.363 E21.2435
G1 X116.132 Y112.518 E21.2590
G1 X116.539 Y112.745 E21.2745
G1 X116.900 Y113.036 E21.2899
G1 X117.206 Y113.383 E21.3053
G1 X117.449 Y113.776 E21.3207
G1 X117.621 Y114.203 E21.3360
G1 X117.718 Y114.653 E21.3513
G1 X117.738 Y115.113 E21.3666
G1 X117.680 Y115.571 E21.3820
G1 X117.545 Y116.009 E21.3972
G1 X117.338 Y116.421 E21.4126
G1 X117.064 Y116.793 E21.4279
G1 X116.729 Y117.114 E21.4433
G1 X116.345 Y117.375 E21.4588
G1 X115.920 Y117.567 E21.4743
G1 X115.468 Y117.685 E21.4898
G1 X115.003 Y117.725 E21.5054
G1 X114.537 Y117.686 E21.5209
G1 X114.084 Y117.569 E21.5365
G1 X113.660 Y117.377 E21.5520
G1 X113.274 Y117.117 E21.5674
G1 X112.939 Y116.797 E21.5829
G1 X112.664 Y116.425 E21.5982
G1 X112.456 Y116.014 E21.6136
G1 X112.320 Y115.571 E21.6290
G1 X112.262 Y115.117 E21.6442
G1 X112.281 Y114.658 E21.6595
G1 X112.378 Y114.208 E21.6748
G1 X112.549 Y113.780 E21.6901
G1 X112.791 Y113.387 E21.7055
G1 X113.097 Y113.039 E21.7209
G1 X113.457 Y112.747 E21.7363
G1 X113.863 Y112.520 E21.7518
G1 X114.303 Y112.364 E21.7673
G1 X114.764 Y112.285 E21.7828
G1 X115.173 Y112.284 E21.7965
G1 X115.739 Y111.888
;segType:Loop
G0 X99.727 Y88.103 F10800
G1 X99.686 Y88.463 E21.8085 F600
G1 X99.558 Y88.900 E21.8236
G1 X99.344 Y89.339 E21.8399
G1 X99.087 Y89.686 E21.8542
G1 X98.759 Y90.009 E21.8695
G1 X98.375 Y90.276 E21.8851
G1 X97.949 Y90.476 E21.9008
G1 X97.491 Y90.602 E21.9166
G1 X97.017 Y90.648 E21.9324
G1 X96.543 Y90.614 E21.9482
G1 X96.082 Y90.501 E21.9640
G1 X95.649 Y90.312 E21.9797
G1 X95.258 Y90.055 E21.9953
G1 X94.918 Y89.738 E22.0107
G1 X94.640 Y89.372 E22.0260
G1 X94.467 Y89.044 E22.0383
G1 X94.280 Y88.509 E22.0572
G1 X94.222 Y88.049 E22.0726
G1 X94.241 Y87.595 E22.0877
G1 X94.337 Y87.151 E22.1028
G1 X94.506 Y86.728 E22.1180
G1 X94.747 Y86.337 E22.1333
G1 X95.053 Y85.990 E22.1486
G1 X95.415 Y85.697 E22.1642
G1 X95.826 Y85.468 E22.1798
G1 X96.273 Y85.310 E22.1956
G1 X96.741 Y85.230 E22.2114
G1 X97.201 Y85.229 E22.2267
G1 X97.653 Y85.304 E22.2419
G1 X98.099 Y85.455 E22.2576
G1 X98.512 Y85.679 E22.2732
G1 X98.879 Y85.966 E22.2887
G1 X99.189 Y86.309 E22.3041
G1 X99.435 Y86.697 E22.3193
G1 X99.611 Y87.118 E22.3345
G1 X99.712 Y87.560 E22.3496
G1 X99.732 Y87.922 E22.3616
G0 X98.108 Y90.042 F10800
G0 X96.039 Y91.271
G0 X93.970 Y92.501
;segType:HShell
G1 X95.968 Y90.655 E22.4521 F600
G1 X95.589 Y90.490
G1 X93.970 Y91.985 E22.5254
G1 X93.970 Y91.470
G1 X95.257 Y90.281 E22.5837
G1 X94.960 Y90.040
G1 X93.970 Y90.955 E22.6285
G1 X93.970 Y90.439
G1 X94.697 Y89.768 E22.6614
G1 X94.467 Y89.465
G1 X93.970 Y89.924 E22.6839
G1 X93.970 Y89.409
G1 X94.284 Y89.118 E22.6981
;segType:Perimeter
G0 X94.312 Y88.944 F10800
G1 X94.666 Y88.375 E22.7204 F359
G1 X94.623 Y88.034 E22.7318
G1 X94.639 Y87.639 E22.7450
G1 X94.723 Y87.252 E22.7581
G1 X94.870 Y86.884 E22.7713
G1 X95.079 Y86.546 E22.7845
G1 X95.342 Y86.248 E22.7978
G1 X95.652 Y85.996 E22.8111
G1 X96.002 Y85.801 E22.8244
G1 X96.382 Y85.667 E22.8378
G1 X96.778 Y85.599 E22.8511
G1 X97.166 Y85.598 E22.8641
G1 X97.548 Y85.662 E22.8769
G1 X97.928 Y85.790 E22.8903
G1 X98.280 Y85.981 E22.9036
G1 X98.594 Y86.227 E22.9169
G1 X98.861 Y86.523 E22.9301
G1 X99.074 Y86.858 E22.9433
G1 X99.226 Y87.223 E22.9565
G1 X99.314 Y87.608 E22.9696
G1 X99.336 Y88.003 E22.9827
G1 X99.292 Y88.395 E22.9959
G1 X99.181 Y88.775 E23.0090
G1 X98.993 Y89.158 E23.0232
G1 X98.774 Y89.454 E23.0355
G1 X98.491 Y89.733 E23.0487
G1 X98.163 Y89.961 E23.0620
G1 X97.800 Y90.131 E23.0753
G1 X97.412 Y90.238 E23.0887
G1 X97.012 Y90.277 E23.1021
G1 X96.610 Y90.248 E23.1155
G1 X96.220 Y90.152 E23.1288
G1 X95.852 Y89.992 E23.1422
G1 X95.517 Y89.772 E23.1555
G1 X95.226 Y89.500 E23.1687
G1 X94.986 Y89.184 E23.1819
G1 X94.839 Y88.906 E23.1924
G1 X94.691 Y88.481 E23.2074
G1 X94.113 Y88.101
G0 F4800 E22.2074
G0 X95.916 Y85.637 F10800
G0 X97.184 Y85.417
G0 X98.394 Y85.832
G0 X99.251 Y86.779
G0 X115.536 Y87.861
G0 X150.082 Y87.829
G0 X160.277 Y87.673
G0 F4800 E23.2074
;segType:Loop
G1 X160.279 Y87.631 E23.2087 F600
G1 X160.368 Y87.186 E23.2238
G1 X160.533 Y86.761 E23.2390
G1 X160.768 Y86.368 E23.2542
G1 X161.068 Y86.017 E23.2696
G1 X161.427 Y85.720 E23.2851
G1 X161.834 Y85.485 E23.3007
G1 X162.277 Y85.322 E23.3164
G1 X162.745 Y85.235 E23.3322
G1 X163.254 Y85.229 E23.3492
G1 X163.695 Y85.304 E23.3641
G1 X164.139 Y85.455 E23.3797
G1 X164.553 Y85.679 E23.3953
G1 X164.919 Y85.966 E23.4108
G1 X165.229 Y86.309 E23.4262
G1 X165.475 Y86.697 E23.4415
G1 X165.651 Y87.118 E23.4566
G1 X165.752 Y87.561 E23.4717
G1 X165.777 Y88.013 E23.4868
G1 X165.726 Y88.463 E23.5019
G1 X165.599 Y88.900 E23.5170
G1 X165.384 Y89.339 E23.5333
G1 X165.108 Y89.713 E23.5487
G1 X164.772 Y90.034 E23.5641
G1 X164.384 Y90.296 E23.5797
G1 X163.954 Y90.490 E23.5954
G1 X163.495 Y90.610 E23.6112
G1 X163.020 Y90.651 E23.6271
G1 X162.545 Y90.610 E23.6429
G1 X162.086 Y90.490 E23.6587
G1 X161.656 Y90.296 E23.6744
G1 X161.268 Y90.034 E23.6900
G1 X160.932 Y89.713 E23.7054
G1 X160.658 Y89.342 E23.7207
G1 X160.492 Y89.012 E23.7330
G1 X160.330 Y88.538 E23.7497
G1 X160.266 Y88.084 E23.7649
G1 X160.272 Y87.855 E23.7726
;segType:HShell
G0 X166.030 Y83.135 F10800
G1 X163.841 Y85.157 E23.8717 F600
G1 X163.385 Y85.063
G1 X166.030 Y82.619 E23.9915
G1 X165.792 Y82.324
G1 X162.842 Y85.049 E24.1250
;segType:Perimeter
G0 X162.795 Y85.128 F10800
G1 X163.278 Y85.609 E24.1477 F359
G1 X163.589 Y85.662 E24.1582
G1 X163.968 Y85.790 E24.1715
G1 X164.320 Y85.981 E24.1848
G1 X164.634 Y86.227 E24.1981
G1 X164.901 Y86.523 E24.2113
G1 X165.114 Y86.858 E24.2245
G1 X165.266 Y87.223 E24.2377
G1 X165.354 Y87.609 E24.2508
G1 X165.376 Y88.003 E24.2640
G1 X165.331 Y88.395 E24.2771
G1 X165.221 Y88.775 E24.2903
G1 X165.033 Y89.158 E24.3044
G1 X164.797 Y89.478 E24.3177
G1 X164.508 Y89.754 E24.3310
G1 X164.177 Y89.979 E24.3443
G1 X163.811 Y90.144 E24.3576
G1 X163.421 Y90.245 E24.3710
G1 X163.020 Y90.279 E24.3844
G1 X162.618 Y90.245 E24.3978
G1 X162.229 Y90.144 E24.4112
G1 X161.863 Y89.979 E24.4246
G1 X161.532 Y89.754 E24.4379
G1 X161.244 Y89.478 E24.4511
G1 X161.007 Y89.159 E24.4644
G1 X160.866 Y88.878 E24.4748
G1 X160.722 Y88.457 E24.4896
G1 X160.666 Y88.065 E24.5028
G1 X160.678 Y87.670 E24.5159
G1 X160.756 Y87.283 E24.5291
G1 X160.899 Y86.913 E24.5422
G1 X161.102 Y86.573 E24.5554
G1 X161.361 Y86.271 E24.5687
G1 X161.668 Y86.016 E24.5819
G1 X162.015 Y85.816 E24.5952
G1 X162.392 Y85.678 E24.6086
G1 X162.787 Y85.604 E24.6220
G1 X163.161 Y85.599 E24.6344
G1 X163.726 Y85.202
G0 X165.550 Y87.585 F10800
G0 X163.318 Y109.374
;segType:Loop
G1 X163.691 Y109.433 E24.6470 F600
G1 X164.139 Y109.585 E24.6627
G1 X164.553 Y109.808 E24.6783
G1 X164.919 Y110.097 E24.6939
G1 X165.229 Y110.440 E24.7092
G1 X165.475 Y110.827 E24.7245
G1 X165.651 Y111.248 E24.7397
G1 X165.752 Y111.690 E24.7548
G1 X165.777 Y112.143 E24.7698
G1 X165.726 Y112.593 E24.7849
G1 X165.599 Y113.029 E24.8000
G1 X165.398 Y113.440 E24.8152
G1 X165.130 Y113.814 E24.8305
G1 X164.799 Y114.139 E24.8459
G1 X164.415 Y114.406 E24.8615
G1 X163.988 Y114.606 E24.8772
G1 X163.531 Y114.731 E24.8929
G1 X163.057 Y114.778 E24.9088
G1 X162.582 Y114.744 E24.9246
G1 X162.122 Y114.630 E24.9404
G1 X161.689 Y114.442 E24.9561
G1 X161.298 Y114.185 E24.9717
G1 X160.958 Y113.868 E24.9871
G1 X160.679 Y113.502 E25.0024
G1 X160.468 Y113.096 E25.0176
G1 X160.329 Y112.663 E25.0328
G1 X160.266 Y112.214 E25.0478
G1 X160.279 Y111.761 E25.0629
G1 X160.368 Y111.316 E25.0780
G1 X160.533 Y110.891 E25.0932
G1 X160.768 Y110.498 E25.1084
G1 X161.068 Y110.147 E25.1238
G1 X161.427 Y109.849 E25.1393
G1 X161.834 Y109.615 E25.1549
G1 X162.277 Y109.452 E25.1706
G1 X162.745 Y109.365 E25.1864
G1 X163.122 Y109.360 E25.1990
;segType:HShell
G0 X162.294 Y109.260 F10800
G1 X166.030 Y105.809 E25.3681 F600
G1 X166.030 Y106.325
G1 X162.941 Y109.178 E25.5080
;segType:Perimeter
G0 X162.762 Y109.260 F10800
G1 X163.248 Y109.738 E25.5307 F359
G1 X163.587 Y109.792 E25.5421
G1 X163.968 Y109.920 E25.5554
G1 X164.320 Y110.111 E25.5688
G1 X164.634 Y110.358 E25.5821
G1 X164.901 Y110.653 E25.5953
G1 X165.114 Y110.988 E25.6085
G1 X165.266 Y111.353 E25.6217
G1 X165.354 Y111.739 E25.6348
G1 X165.376 Y112.133 E25.6479
G1 X165.331 Y112.525 E25.6611
G1 X165.221 Y112.905 E25.6742
G1 X165.047 Y113.261 E25.6874
G1 X164.815 Y113.583 E25.7006
G1 X164.531 Y113.863 E25.7139
G1 X164.203 Y114.091 E25.7272
G1 X163.840 Y114.261 E25.7405
G1 X163.452 Y114.368 E25.7539
G1 X163.051 Y114.407 E25.7673
G1 X162.650 Y114.378 E25.7806
G1 X162.260 Y114.282 E25.7940
G1 X161.892 Y114.122 E25.8074
G1 X161.558 Y113.902 E25.8207
G1 X161.266 Y113.630 E25.8339
G1 X161.026 Y113.314 E25.8471
G1 X160.842 Y112.963 E25.8603
G1 X160.722 Y112.586 E25.8735
G1 X160.666 Y112.195 E25.8866
G1 X160.678 Y111.800 E25.8997
G1 X160.756 Y111.413 E25.9129
G1 X160.899 Y111.043 E25.9261
G1 X161.102 Y110.703 E25.9392
G1 X161.361 Y110.401 E25.9525
G1 X161.668 Y110.146 E25.9658
G1 X162.015 Y109.946 E25.9791
G1 X162.392 Y109.808 E25.9924
G1 X162.787 Y109.734 E26.0058
G1 X163.131 Y109.729 E26.0172
G1 X163.691 Y109.326
;segType:HShell
G0 X166.030 Y91.895 F10800
G1 X144.524 Y111.762 E26.9910 F600
;segType:Perimeter
G0 X144.257 Y111.889 F10800
G1 X144.823 Y112.285 E27.0140 F359
G1 X145.231 Y112.284 E27.0276
G1 X145.692 Y112.363 E27.0431
G1 X146.132 Y112.518 E27.0586
G1 X146.539 Y112.745 E27.0741
G1 X146.900 Y113.036 E27.0896
G1 X147.206 Y113.383 E27.1049
G1 X147.449 Y113.776 E27.1203
G1 X147.621 Y114.203 E27.1356
G1 X147.718 Y114.653 E27.1509
G1 X147.738 Y115.113 E27.1662
G1 X147.680 Y115.571 E27.1816
G1 X147.546 Y116.009 E27.1968
G1 X147.338 Y116.421 E27.2122
G1 X147.064 Y116.793 E27.2275
G1 X146.729 Y117.114 E27.2430
G1 X146.345 Y117.375 E27.2584
G1 X145.920 Y117.567 E27.2739
G1 X145.468 Y117.685 E27.2894
G1 X145.003 Y117.725 E27.3050
G1 X144.536 Y117.686 E27.3206
G1 X144.085 Y117.569 E27.3361
G1 X143.660 Y117.377 E27.3516
G1 X143.274 Y117.117 E27.3671
G1 X142.939 Y116.797 E27.3825
G1 X142.664 Y116.425 E27.3978
G1 X142.456 Y116.014 E27.4132
G1 X142.320 Y115.571 E27.4286
G1 X142.262 Y115.117 E27.4438
G1 X142.281 Y114.658 E27.4591
G1 X142.378 Y114.208 E27.4744
G1 X142.549 Y113.780 E27.4897
G1 X142.791 Y113.387 E27.5051
G1 X143.096 Y113.039 E27.5205
G1 X143.457 Y112.747 E27.5359
G1 X143.864 Y112.520 E27.5514
G1 X144.303 Y112.364 E27.5669
G1 X144.706 Y112.295 E27.5805
G1 X145.184 Y111.810
;segType:HShell
G0 X117.813 Y113.248 F10800
G1 X144.852 Y88.269 E28.8048 F600
;segType:Perimeter
G0 X144.909 Y88.194 F10800
G1 X144.480 Y87.671 E28.8273 F359
G1 X144.084 Y87.569 E28.8409
G1 X143.660 Y87.377 E28.8564
G1 X143.274 Y87.117 E28.8718
G1 X142.939 Y86.797 E28.8873
G1 X142.664 Y86.426 E28.9026
G1 X142.456 Y86.014 E28.9180
G1 X142.321 Y85.574 E28.9333
G1 X142.262 Y85.117 E28.9486
G1 X142.281 Y84.658 E28.9639
G1 X142.378 Y84.208 E28.9792
G1 X142.550 Y83.778 E28.9946
G1 X142.792 Y83.385 E29.0100
G1 X143.098 Y83.037 E29.0253
G1 X143.459 Y82.746 E29.0408
G1 X143.866 Y82.519 E29.0563
G1 X144.306 Y82.363 E29.0718
G1 X144.766 Y82.284 E29.0873
G1 X145.234 Y82.284 E29.1029
G1 X145.695 Y82.363 E29.1184
G1 X146.134 Y82.519 E29.1340
G1 X146.541 Y82.746 E29.1494
G1 X146.902 Y83.037 E29.1649
G1 X147.208 Y83.385 E29.1803
G1 X147.450 Y83.778 E29.1956
G1 X147.621 Y84.204 E29.2109
G1 X147.718 Y84.653 E29.2262
G1 X147.738 Y85.113 E29.2415
G1 X147.680 Y85.569 E29.2568
G1 X147.546 Y86.009 E29.2721
G1 X147.338 Y86.421 E29.2874
G1 X147.064 Y86.793 E29.3028
G1 X146.729 Y87.114 E29.3182
G1 X146.345 Y87.375 E29.3337
G1 X145.920 Y87.567 E29.3492
G1 X145.468 Y87.685 E29.3647
G1 X145.003 Y87.725 E29.3803
G1 X144.595 Y87.691 E29.3938
G1 X143.993 Y88.038
;segType:HShell
G0 X93.970 Y107.961 F10800
G1 X115.300 Y88.256 E30.3597 F600
;segType:Perimeter
G0 X114.909 Y88.194 F10800
G1 X114.480 Y87.671 E30.3821 F359
G1 X114.084 Y87.569 E30.3957
G1 X113.660 Y87.377 E30.4112
G1 X113.274 Y87.117 E30.4267
G1 X112.939 Y86.797 E30.4421
G1 X112.664 Y86.426 E30.4575
G1 X112.456 Y86.014 E30.4728
G1 X112.321 Y85.574 E30.4881
G1 X112.262 Y85.117 E30.5034
G1 X112.281 Y84.658 E30.5187
G1 X112.378 Y84.208 E30.5340
G1 X112.550 Y83.778 E30.5494
G1 X112.792 Y83.385 E30.5648
G1 X113.098 Y83.037 E30.5802
G1 X113.459 Y82.746 E30.5956
G1 X113.866 Y82.519 E30.6111
G1 X114.305 Y82.363 E30.6266
G1 X114.766 Y82.284 E30.6422
G1 X115.234 Y82.284 E30.6577
G1 X115.694 Y82.363 E30.6733
G1 X116.134 Y82.519 E30.6888
G1 X116.541 Y82.746 E30.7043
G1 X116.902 Y83.037 E30.7197
G1 X117.208 Y83.385 E30.7351
G1 X117.450 Y83.778 E30.7505
G1 X117.621 Y84.204 E30.7657
G1 X117.718 Y84.653 E30.7810
G1 X117.738 Y85.113 E30.7963
G1 X117.680 Y85.569 E30.8116
G1 X117.545 Y86.009 E30.8269
G1 X117.338 Y86.421 E30.8423
G1 X117.064 Y86.793 E30.8577
G1 X116.729 Y87.114 E30.8731
G1 X116.345 Y87.375 E30.8885
G1 X115.920 Y87.567 E30.9040
G1 X115.468 Y87.685 E30.9196
G1 X115.003 Y87.725 E30.9351
G1 X114.596 Y87.691 E30.9487
G1 X113.993 Y88.038
;segType:HShell
G0 X114.738 Y88.260 F10800
G1 X93.970 Y107.445 E31.8891 F600
G1 X93.970 Y106.930
G1 X114.257 Y88.189 E32.8077
G1 X113.828 Y88.070
G1 X93.970 Y106.415 E33.7068
G1 X93.970 Y105.899
G1 X113.453 Y87.901 E34.5890
G1 X113.116 Y87.697
G1 X93.970 Y105.384 E35.4560
G1 X93.970 Y104.869
G1 X112.807 Y87.468 E36.3089
G1 X112.533 Y87.206
G1 X93.970 Y104.353 E37.1494
G1 X93.970 Y103.838
G1 X112.296 Y86.909 E37.9792
G1 X112.085 Y86.589
G1 X93.970 Y103.323 E38.7994
G1 X93.970 Y102.807
G1 X111.907 Y86.238 E39.6116
G1 X111.779 Y85.840
G1 X93.970 Y102.292 E40.4179
G1 X93.970 Y101.777
G1 X111.695 Y85.403 E41.2205
G1 X111.670 Y84.910
G1 X93.970 Y101.261 E42.0220
G1 X93.970 Y100.746
G1 X111.740 Y84.331 E42.8266
G0 X99.504 Y89.450 F10800
G1 X107.218 Y82.324 E43.1759 F600
G1 X106.660 Y82.324
G1 X99.848 Y88.617 E43.4843
G1 X99.938 Y88.018
G1 X106.102 Y82.324 E43.7634
G1 X105.544 Y82.324
G1 X99.909 Y87.529 E44.0185
G1 X99.812 Y87.104
G1 X104.986 Y82.324 E44.2528
G1 X104.428 Y82.324
G1 X99.662 Y86.727 E44.4686
G1 X99.471 Y86.388
G1 X103.871 Y82.324 E44.6679
G1 X103.313 Y82.324
G1 X99.245 Y86.082 E44.8521
G1 X98.985 Y85.807
G1 X102.755 Y82.324 E45.0228
G1 X102.197 Y82.324
G1 X98.683 Y85.570 E45.1819
G1 X98.341 Y85.371
G1 X101.639 Y82.324 E45.3312
G1 X101.081 Y82.324
G1 X97.957 Y85.210 E45.4727
G1 X97.525 Y85.095
G1 X100.524 Y82.324 E45.6085
G1 X99.966 Y82.324
G1 X97.021 Y85.044 E45.7418
G1 X96.403 Y85.100
G1 X99.408 Y82.324 E45.8779
G1 X98.850 Y82.324
G1 X95.459 Y85.457 E46.0314
G0 X93.970 Y82.709 F10800
G1 X94.387 Y82.324 E46.0503 F600
G1 X94.945 Y82.324
G1 X93.970 Y83.225 E46.0944
G1 X93.970 Y83.740
G1 X95.503 Y82.324 E46.1638
G1 X96.061 Y82.324
G1 X93.970 Y84.255 E46.2585
G1 X93.970 Y84.771
G1 X96.619 Y82.324 E46.3784
G1 X97.176 Y82.324
G1 X93.970 Y85.286 E46.5236
G1 X93.970 Y85.801
G1 X97.734 Y82.324 E46.6940
G1 X98.292 Y82.324
G1 X93.970 Y86.317 E46.8897
G1 X93.970 Y86.832
G1 X94.532 Y86.313 E46.9152
G0 X94.120 Y87.209 F10800
G1 X93.970 Y87.347 E46.9220 F600
G0 X94.053 Y88.302 F10800
G1 X93.970 Y88.378 E46.9257 F600
G1 X93.970 Y88.893
G1 X94.148 Y88.730 E46.9337
G0 X93.970 Y93.016 F10800
G1 X96.401 Y90.770 E47.0438 F600
G1 X96.900 Y90.825
G1 X93.970 Y93.531 E47.1764
G1 X93.970 Y94.047
G1 X97.499 Y90.787 E47.3362
G1 X98.397 Y90.473
G1 X93.970 Y94.562 E47.5366
G1 X93.970 Y95.077
G1 X107.776 Y82.324 E48.1617
G1 X108.333 Y82.324
G1 X93.970 Y95.593 E48.8121
G1 X93.970 Y96.108
G1 X108.891 Y82.324 E49.4877
G1 X109.449 Y82.324
G1 X93.970 Y96.623 E50.1886
G1 X93.970 Y97.139
G1 X110.007 Y82.324 E50.9148
G1 X110.565 Y82.324
G1 X93.970 Y97.654 E51.6662
G1 X93.970 Y98.169
G1 X111.123 Y82.324 E52.4428
G1 X111.680 Y82.324
G1 X93.970 Y98.685 E53.2448
G1 X93.970 Y99.200
G1 X112.238 Y82.324 E54.0719
G1 X112.796 Y82.324
G1 X93.970 Y99.715 E54.9244
G1 X93.970 Y100.231
G1 X111.987 Y83.587 E55.7402
G0 X113.779 Y82.355 F10800
G0 X115.252 Y82.103
G0 X117.259 Y82.324
G1 X117.106 Y82.466 E55.7471 F600
G1 X117.392 Y82.716
G1 X117.817 Y82.324 E55.7663
G1 X118.375 Y82.324
G1 X117.643 Y83.000 E55.7995
G1 X117.857 Y83.318
G1 X118.932 Y82.324 E55.8482
G1 X119.490 Y82.324
G1 X118.043 Y83.661 E55.9137
G1 X118.194 Y84.037
G1 X120.048 Y82.324 E55.9977
G1 X120.606 Y82.324
G1 X118.289 Y84.464 E56.1026
G1 X118.331 Y84.941
G1 X121.164 Y82.324 E56.2309
G1 X121.722 Y82.324
G1 X118.294 Y85.490 E56.3861
G1 X118.121 Y86.165
G1 X122.280 Y82.324 E56.5743
G1 X122.837 Y82.324
G1 X93.970 Y108.991 E57.8814
G1 X93.970 Y109.507
G1 X123.395 Y82.324 E59.2138
G1 X123.953 Y82.324
G1 X93.970 Y110.022 E60.5714
G1 X93.970 Y110.537
G1 X124.511 Y82.324 E61.9543
G1 X125.069 Y82.324
G1 X95.707 Y109.449 E63.2838
G1 X96.522 Y109.211
G1 X125.627 Y82.324 E64.6017
G0 X141.709 Y84.473 F10800
G1 X105.767 Y117.676 E66.2292 F600
G1 X106.325 Y117.676
G1 X141.665 Y85.029 E67.8294
G1 X141.708 Y85.505
G1 X106.883 Y117.676 E69.4062
G1 X107.441 Y117.676
G1 X112.124 Y113.350 E69.6183
G1 X111.769 Y114.193
G1 X107.999 Y117.676 E69.7890
G1 X108.557 Y117.676
G1 X111.675 Y114.795 E69.9302
G1 X111.682 Y115.304
G1 X109.114 Y117.676 E70.0465
G1 X109.672 Y117.676
G1 X111.753 Y115.754 E70.1407
G1 X111.876 Y116.156
G1 X110.230 Y117.676 E70.2152
G1 X110.788 Y117.676
G1 X112.046 Y116.513 E70.2722
G1 X112.247 Y116.843
G1 X111.346 Y117.676 E70.3130
G1 X111.904 Y117.676
G1 X112.474 Y117.149 E70.3388
G1 X112.748 Y117.411
G1 X112.462 Y117.676 E70.3517
G0 X112.085 Y114.637 F10800
G0 X112.628 Y113.284
G0 X113.509 Y112.070
G1 X141.806 Y85.929 E71.6330 F600
G1 X141.946 Y86.315
G1 X114.372 Y111.789 E72.8816
G0 X117.589 Y112.939 F10800
G1 X144.353 Y88.214 E74.0935 F600
G1 X143.918 Y88.101
G1 X117.338 Y112.655 E75.2971
G1 X117.041 Y112.414
G1 X143.536 Y87.938 E76.4968
G1 X143.188 Y87.745
G1 X116.718 Y112.198 E77.6953
G1 X116.366 Y112.007
G1 X142.867 Y87.526 E78.8953
G1 X142.593 Y87.264
G1 X115.963 Y111.865 E80.1011
G1 X115.510 Y111.768
G1 X142.346 Y86.977 E81.3162
G0 X145.436 Y88.245 F10800
G1 X118.010 Y113.581 E82.5581 F600
G1 X118.161 Y113.956
G1 X146.193 Y88.061 E83.8274
G0 X148.028 Y86.366 F10800
G1 X152.403 Y82.324 E84.0255 F600
G1 X152.961 Y82.324
G1 X118.269 Y114.372 E85.5964
G1 X118.327 Y114.834
G1 X153.519 Y82.324 E87.1899
G1 X154.077 Y82.324
G1 X118.310 Y115.365 E88.8094
G1 X118.168 Y116.011
G1 X154.635 Y82.324 E90.4606
G1 X155.192 Y82.324
G1 X117.597 Y117.055 E92.1629
G1 X117.482 Y117.676
G1 X155.750 Y82.324 E93.8957
G1 X156.308 Y82.324
G1 X118.040 Y117.676 E95.6285
G1 X118.598 Y117.676
G1 X156.866 Y82.324 E97.3613
G1 X157.424 Y82.324
G1 X119.156 Y117.676 E99.0941
G1 X119.714 Y117.676
G1 X157.982 Y82.324 E100.8269
G1 X158.540 Y82.324
G1 X120.271 Y117.676 E102.5597
G1 X120.829 Y117.676
G1 X159.097 Y82.324 E104.2925
G1 X159.655 Y82.324
G1 X121.387 Y117.676 E106.0253
G1 X121.945 Y117.676
G1 X160.213 Y82.324 E107.7580
G1 X160.771 Y82.324
G1 X122.503 Y117.676 E109.4908
G1 X123.061 Y117.676
G1 X161.329 Y82.324 E111.2236
G1 X161.887 Y82.324
G1 X123.618 Y117.676 E112.9564
G1 X124.176 Y117.676
G1 X162.444 Y82.324 E114.6892
G1 X163.002 Y82.324
G1 X124.734 Y117.676 E116.4220
G1 X125.292 Y117.676
G1 X163.560 Y82.324 E118.1548
G1 X164.118 Y82.324
G1 X125.850 Y117.676 E119.8876
G1 X126.408 Y117.676
G1 X164.676 Y82.324 E121.6203
G1 X165.234 Y82.324
G1 X162.155 Y85.168 E121.7597
G0 X166.030 Y83.650 F10800
G1 X164.246 Y85.298 E121.8405 F600
G1 X164.597 Y85.489
G1 X166.030 Y84.165 E121.9054
G1 X166.030 Y84.681
G1 X164.909 Y85.716 E121.9561
G1 X165.187 Y85.974
G1 X166.030 Y85.196 E121.9943
G1 X166.030 Y85.711
G1 X165.432 Y86.264 E122.0214
G1 X165.638 Y86.588
G1 X166.030 Y86.227 E122.0391
G1 X166.030 Y86.742
G1 X165.798 Y86.956 E122.0496
G1 X165.912 Y87.366
G1 X166.030 Y87.257 E122.0549
G0 X165.937 Y88.373 F10800
G1 X166.030 Y88.288 E122.0591 F600
G1 X166.030 Y88.803
G1 X165.729 Y89.081 E122.0727
G0 X166.030 Y91.380 F10800
G1 X143.742 Y111.969 E123.0819 F600
G0 X145.117 Y111.730 F10800
G1 X166.030 Y92.411 E124.0289 F600
G1 X166.030 Y92.926
G1 X145.614 Y111.786 E124.9533
G1 X146.052 Y111.896
G1 X166.030 Y93.441 E125.8579
G1 X166.030 Y93.957
G1 X146.448 Y112.046 E126.7446
G1 X146.795 Y112.241
G1 X166.030 Y94.472 E127.6155
G1 X166.030 Y94.987
G1 X147.107 Y112.468 E128.4723
G1 X147.394 Y112.718
G1 X166.030 Y95.503 E129.3161
G1 X166.030 Y96.018
G1 X147.644 Y113.002 E130.1486
G1 X147.858 Y113.320
G1 X166.030 Y96.533 E130.9714
G1 X166.030 Y97.049
G1 X148.044 Y113.664 E131.7858
G1 X148.195 Y114.040
G1 X166.030 Y97.564 E132.5934
G1 X166.030 Y98.079
G1 X148.290 Y114.468 E133.3967
G1 X148.331 Y114.945
G1 X166.030 Y98.595 E134.1981
G1 X166.030 Y99.110
G1 X148.294 Y115.495 E135.0012
G0 X160.077 Y111.824 F10800
G1 X153.742 Y117.676 E135.2880 F600
G1 X154.300 Y117.676
G1 X160.081 Y112.335 E135.5498
G1 X160.158 Y112.780
G1 X154.858 Y117.676 E135.7898
G1 X155.416 Y117.676
G1 X160.287 Y113.176 E136.0104
G1 X160.469 Y113.523
G1 X155.974 Y117.676 E136.2139
G1 X156.531 Y117.676
G1 X160.689 Y113.835 E136.4021
G1 X160.943 Y114.116
G1 X157.089 Y117.676 E136.5766
G1 X157.647 Y117.676
G1 X161.230 Y114.366 E136.7388
G1 X161.556 Y114.581
G1 X158.205 Y117.676 E136.8906
G1 X158.763 Y117.676
G1 X161.929 Y114.751 E137.0339
G1 X162.349 Y114.878
G1 X159.321 Y117.676 E137.1711
G1 X159.878 Y117.676
G1 X162.832 Y114.947 E137.3048
G1 X163.409 Y114.929
G1 X160.436 Y117.676 E137.4394
G1 X160.994 Y117.676
G1 X164.202 Y114.713 E137.5847
G0 X166.030 Y117.147 F10800
G1 X165.457 Y117.676 E137.6106 F600
G1 X164.899 Y117.676
G1 X166.030 Y116.631 E137.6618
G1 X166.030 Y116.116
G1 X164.341 Y117.676 E137.7383
G1 X163.783 Y117.676
G1 X166.030 Y115.601 E137.8400
G1 X166.030 Y115.085
G1 X163.226 Y117.676 E137.9670
G1 X162.668 Y117.676
G1 X166.030 Y114.570 E138.1192
G1 X166.030 Y114.055
G1 X162.110 Y117.676 E138.2967
G1 X161.552 Y117.676
G1 X166.030 Y113.539 E138.4995
G1 X166.030 Y113.024
G1 X165.649 Y113.376 E138.5167
G1 X165.926 Y112.605
G1 X166.030 Y112.509 E138.5214
G0 X165.929 Y111.571 F10800
G1 X166.030 Y111.478 E138.5259 F600
G1 X166.030 Y110.963
G1 X165.825 Y111.152 E138.5352
G1 X165.670 Y110.780
G1 X166.030 Y110.447 E138.5515
G1 X166.030 Y109.932
G1 X165.468 Y110.451 E138.5769
G1 X165.232 Y110.154
G1 X166.030 Y109.417 E138.6131
G1 X166.030 Y108.901
G1 X164.962 Y109.888 E138.6614
G1 X164.659 Y109.652
G1 X166.030 Y108.386 E138.7235
G1 X166.030 Y107.871
G1 X164.307 Y109.462 E138.8015
G1 X163.912 Y109.311
G1 X166.030 Y107.355 E138.8973
G1 X166.030 Y106.840
G1 X163.465 Y109.210 E139.0135
G0 X161.549 Y110.000 F10800
G0 X160.205 Y111.191
G1 X153.184 Y117.676 E139.3314 F600
G1 X152.626 Y117.676
G1 X166.030 Y105.294 E139.9383
G1 X166.030 Y104.779
G1 X152.069 Y117.676 E140.5704
G1 X151.511 Y117.676
G1 X166.030 Y104.263 E141.2279
G1 X166.030 Y103.748
G1 X150.953 Y117.676 E141.9105
G1 X150.395 Y117.676
G1 X166.030 Y103.233 E142.6185
G1 X166.030 Y102.717
G1 X149.837 Y117.676 E143.3517
G1 X149.279 Y117.676
G1 X166.030 Y102.202 E144.1101
G1 X166.030 Y101.687
G1 X148.722 Y117.676 E144.8939
G1 X148.164 Y117.676
G1 X166.030 Y101.171 E145.7028
G1 X166.030 Y100.656
G1 X147.606 Y117.676 E146.5371
G1 X147.048 Y117.676
G1 X166.030 Y100.141 E147.3966
G1 X166.030 Y99.625
G1 X148.120 Y116.171 E148.2075
G0 X146.447 Y117.531 F10800
G0 X145.003 Y117.908
G0 X142.585 Y117.676
G1 X142.808 Y117.470 E148.2177 F600
G1 X142.534 Y117.207
G1 X142.027 Y117.676 E148.2406
G1 X141.470 Y117.676
G1 X142.297 Y116.911 E148.2781
G1 X142.086 Y116.591
G1 X140.912 Y117.676 E148.3313
G1 X140.354 Y117.676
G1 X141.908 Y116.240 E148.4016
G1 X141.780 Y115.843
G1 X139.796 Y117.676 E148.4915
G1 X139.238 Y117.676
G1 X141.695 Y115.406 E148.6027
G1 X141.670 Y114.914
G1 X138.680 Y117.676 E148.7381
G1 X138.122 Y117.676
G1 X141.739 Y114.335 E148.9018
G1 X141.985 Y113.593
G1 X137.565 Y117.676 E149.1020
G1 X137.007 Y117.676
G1 X166.030 Y90.865 E150.4161
G1 X166.030 Y90.349
G1 X136.449 Y117.676 E151.7556
G1 X135.891 Y117.676
G1 X166.030 Y89.834 E153.1203
G1 X166.030 Y89.319
G1 X135.333 Y117.676 E154.5102
G1 X134.775 Y117.676
G1 X164.012 Y90.667 E155.8341
G1 X163.297 Y90.813
G1 X134.218 Y117.676 E157.1508
G1 X133.660 Y117.676
G1 X162.739 Y90.812 E158.4675
G1 X162.270 Y90.730
G1 X133.102 Y117.676 E159.7883
G1 X132.544 Y117.676
G1 X161.860 Y90.594 E161.1157
G1 X161.494 Y90.416
G1 X131.986 Y117.676 E162.4518
G1 X131.428 Y117.676
G1 X161.173 Y90.198 E163.7987
G1 X160.893 Y89.941
G1 X130.870 Y117.676 E165.1581
G1 X130.313 Y117.676
G1 X160.647 Y89.654 E166.5316
G1 X160.434 Y89.335
G1 X129.755 Y117.676 E167.9208
G1 X129.197 Y117.676
G1 X160.269 Y88.972 E169.3277
G1 X160.135 Y88.580
G1 X128.639 Y117.676 E170.7539
G1 X128.081 Y117.676
G1 X160.070 Y88.125 E172.2023
G1 X160.082 Y87.599
G1 X127.523 Y117.676 E173.6766
G1 X126.966 Y117.676
G1 X160.259 Y86.920 E175.1841
G0 X148.278 Y85.620 F10800
G1 X151.845 Y82.324 E175.3456 F600
G1 X151.288 Y82.324
G1 X148.336 Y85.051 E175.4793
G1 X148.310 Y84.560
G1 X150.730 Y82.324 E175.5889
G1 X150.172 Y82.324
G1 X148.217 Y84.130 E175.6774
G1 X148.076 Y83.745
G1 X149.614 Y82.324 E175.7471
G1 X149.056 Y82.324
G1 X147.902 Y83.391 E175.7993
G1 X147.698 Y83.063
G1 X148.498 Y82.324 E175.8356
G1 X147.940 Y82.324
G1 X147.448 Y82.779 E175.8579
G1 X147.172 Y82.519
G1 X147.383 Y82.324 E175.8674
G0 X144.748 Y82.103 F10800
G0 X143.343 Y82.599
G0 X141.914 Y83.769
G1 X105.209 Y117.676 E177.5294 F600
G1 X104.652 Y117.676
G1 X142.920 Y82.324 E179.2622
G1 X142.362 Y82.324
G1 X104.094 Y117.676 E180.9950
G1 X103.536 Y117.676
G1 X141.804 Y82.324 E182.7278
G1 X141.246 Y82.324
G1 X102.978 Y117.676 E184.4606
G1 X102.420 Y117.676
G1 X140.688 Y82.324 E186.1934
G1 X140.131 Y82.324
G1 X101.862 Y117.676 E187.9261
G1 X101.305 Y117.676
G1 X139.573 Y82.324 E189.6589
G1 X139.015 Y82.324
G1 X100.747 Y117.676 E191.3917
G1 X100.189 Y117.676
G1 X138.457 Y82.324 E193.1245
G1 X137.899 Y82.324
G1 X99.631 Y117.676 E194.8573
G1 X99.073 Y117.676
G1 X137.341 Y82.324 E196.5901
G1 X136.784 Y82.324
G1 X98.515 Y117.676 E198.3229
G1 X97.958 Y117.676
G1 X136.226 Y82.324 E200.0557
G1 X135.668 Y82.324
G1 X97.400 Y117.676 E201.7884
G1 X96.842 Y117.676
G1 X135.110 Y82.324 E203.5212
G1 X134.552 Y82.324
G1 X96.284 Y117.676 E205.2540
G1 X95.726 Y117.676
G1 X133.994 Y82.324 E206.9868
G1 X133.436 Y82.324
G1 X99.292 Y113.867 E208.5329
G0 X99.812 Y112.871 F10800
G1 X132.879 Y82.324 E210.0302 F600
G1 X132.321 Y82.324
G1 X99.926 Y112.250 E211.4970
G1 X99.915 Y111.745
G1 X131.763 Y82.324 E212.9391
G1 X131.205 Y82.324
G1 X99.829 Y111.309 E214.3598
G1 X99.689 Y110.923
G1 X130.647 Y82.324 E215.7615
G1 X130.089 Y82.324
G1 X99.507 Y110.575 E217.1463
G1 X99.289 Y110.262
G1 X129.532 Y82.324 E218.5157
G1 X128.974 Y82.324
G1 X99.035 Y109.981 E219.8713
G1 X98.736 Y109.742
G1 X128.416 Y82.324 E221.2152
G1 X127.858 Y82.324
G1 X98.402 Y109.535 E222.5489
G1 X98.029 Y109.364
G1 X127.300 Y82.324 E223.8743
G1 X126.742 Y82.324
G1 X97.607 Y109.239 E225.1935
G0 X95.510 Y110.000 F10800
G0 X94.679 Y110.969
G0 X94.429 Y112.204
G0 X93.970 Y117.237
G1 X96.478 Y114.920 E225.3071 F600
G1 X96.038 Y114.811
G1 X93.970 Y116.721 E225.4008
G1 X93.970 Y116.206
G1 X95.656 Y114.649 E225.4771
G1 X95.315 Y114.449
G1 X93.970 Y115.691 E225.5379
G1 X93.970 Y115.175
G1 X95.009 Y114.216 E225.5850
G1 X94.737 Y113.951
G1 X93.970 Y114.660 E225.6197
G1 X93.970 Y114.145
G1 X94.507 Y113.649 E225.6440
G1 X94.317 Y113.309
G1 X93.970 Y113.629 E225.6597
G1 X93.970 Y113.114
G1 X94.167 Y112.932 E225.6686
G1 X94.066 Y112.510
G1 X93.970 Y112.599 E225.6730
G0 X94.098 Y111.450 F10800
G1 X93.970 Y111.568 E225.6788 F600
G1 X93.970 Y111.053
G1 X94.411 Y110.645 E225.6987
G0 X93.970 Y108.476 F10800
G1 X116.004 Y88.121 E226.6964 F600
G0 F4800 E225.6964
G0 X114.020 Y110.962 F10800
G0 X113.800 Y113.500
G0 F4800 E226.6964
;segType:Support
G1 X116.259 Y113.500 E226.7659 F900
G0 F4800 E225.7659
G0 X116.500 Y115.300 F10800
G0 F4800 E226.7659
G1 X113.800 Y115.300 E226.8423 F900
G0 F4800 E225.8423
G0 X116.500 Y114.400 F10800
G0 F4800 E226.8423
G1 X113.800 Y114.400 E226.9186 F900
G0 F4800 E225.9186
G0 X113.800 Y116.200 F10800
G0 F4800 E226.9186
G1 X116.500 Y116.200 E226.9949 F900
G0 F4800 E225.9949
G0 X143.741 Y113.500 F10800
G0 F4800 E226.9949
G1 X146.259 Y113.500 E227.0661 F900
G0 F4800 E226.0661
G0 X146.909 Y115.300 F10800
G0 F4800 E227.0661
G1 X143.091 Y115.300 E227.1740 F900
G1 X143.467 Y116.200 E227.2016
G1 X146.533 Y116.200 E227.2883
G0 F4800 E226.2883
G0 X143.154 Y114.400 F10800
G0 F4800 E227.2883
G1 X146.846 Y114.400 E227.3927 F900
; ------------------------------------
; Layer #1
; ------------------------------------
G21 ; mm
G90 ; abs
G92 E0 ; reset extr
M106 S255
;segType:Support
G0 F4800 E-1.0000
G0 F300 Z1.900
G0 X146.846 Y114.400 F10800
G0 F4800 E0.0000
G1 X143.154 Y114.400 E0.1044 F5400
G1 X143.091 Y115.300 E0.1299
G1 X146.909 Y115.300 E0.2378
G1 X146.533 Y116.200 E0.2654
G1 X143.467 Y116.200 E0.3521
G0 F4800 E-0.6479
G0 X116.259 Y113.500 F10800
G0 F4800 E0.3521
G1 X113.800 Y113.500 E0.4216 F5400
G1 X113.800 Y114.400 E0.4470
G1 X116.500 Y114.400 E0.5234
G0 F4800 E-0.4766
G0 X113.800 Y115.300 F10800
G0 F4800 E0.5234
G1 X116.500 Y115.300 E0.5997 F5400
G1 X116.500 Y116.200 E0.6251
G1 X113.800 Y116.200 E0.7015
G0 F4800 E-0.2985
G0 X111.321 Y116.359 F10800
G0 X93.970 Y117.471
G0 F4800 E0.7015
;segType:HShell
G1 X94.192 Y117.676 E0.7115 F3600
;segType:Loop
G0 X93.770 Y117.228 F10800
G1 X93.770 Y82.139 E1.8786 F3600
G1 X113.820 Y82.139 E2.5455
G1 X113.689 Y82.186 E2.5501
G1 X113.222 Y82.446 E2.5679
G1 X112.809 Y82.780 E2.5855
G1 X112.461 Y83.176 E2.6031
G1 X112.186 Y83.622 E2.6205
G1 X111.991 Y84.110 E2.6380
G1 X111.883 Y84.618 E2.6552
G1 X111.862 Y85.135 E2.6725
G1 X111.928 Y85.649 E2.6897
G1 X112.081 Y86.146 E2.7070
G1 X112.317 Y86.611 E2.7244
G1 X112.630 Y87.033 E2.7418
G1 X113.013 Y87.399 E2.7594
G1 X113.455 Y87.696 E2.7772
G1 X113.944 Y87.916 E2.7950
G1 X114.467 Y88.051 E2.8130
G1 X115.006 Y88.096 E2.8309
G1 X115.544 Y88.049 E2.8489
G1 X116.066 Y87.913 E2.8669
G1 X116.555 Y87.690 E2.8847
G1 X116.996 Y87.392 E2.9024
G1 X117.377 Y87.025 E2.9200
G1 X117.689 Y86.602 E2.9375
G1 X117.923 Y86.136 E2.9549
G1 X118.074 Y85.639 E2.9721
G1 X118.139 Y85.124 E2.9894
G1 X118.116 Y84.607 E3.0066
G1 X118.006 Y84.100 E3.0238
G1 X117.814 Y83.621 E3.0410
G1 X117.539 Y83.176 E3.0584
G1 X117.191 Y82.780 E3.0759
G1 X116.778 Y82.446 E3.0936
G1 X116.311 Y82.186 E3.1114
G1 X116.180 Y82.139 E3.1160
G1 X143.820 Y82.139 E4.0354
G1 X143.689 Y82.186 E4.0400
G1 X143.222 Y82.446 E4.0578
G1 X142.809 Y82.780 E4.0755
G1 X142.461 Y83.176 E4.0930
G1 X142.186 Y83.622 E4.1104
G1 X141.991 Y84.110 E4.1279
G1 X141.883 Y84.618 E4.1452
G1 X141.861 Y85.135 E4.1624
G1 X141.928 Y85.649 E4.1796
G1 X142.081 Y86.146 E4.1969
G1 X142.317 Y86.611 E4.2143
G1 X142.630 Y87.033 E4.2317
G1 X143.013 Y87.399 E4.2493
G1 X143.455 Y87.696 E4.2671
G1 X143.944 Y87.916 E4.2849
G1 X144.467 Y88.051 E4.3029
G1 X145.006 Y88.096 E4.3209
G1 X145.544 Y88.049 E4.3388
G1 X146.066 Y87.913 E4.3568
G1 X146.555 Y87.690 E4.3746
G1 X146.996 Y87.392 E4.3923
G1 X147.377 Y87.025 E4.4099
G1 X147.688 Y86.602 E4.4274
G1 X147.923 Y86.136 E4.4448
G1 X148.074 Y85.639 E4.4620
G1 X148.139 Y85.124 E4.4793
G1 X148.116 Y84.607 E4.4965
G1 X148.006 Y84.100 E4.5138
G1 X147.814 Y83.621 E4.5309
G1 X147.539 Y83.176 E4.5483
G1 X147.191 Y82.780 E4.5659
G1 X146.778 Y82.446 E4.5835
G1 X146.311 Y82.186 E4.6013
G1 X146.180 Y82.139 E4.6059
G1 X166.230 Y82.139 E5.2728
G1 X166.230 Y117.861 E6.4609
G1 X146.180 Y117.861 E7.1278
G1 X146.555 Y117.691 E7.1414
G1 X146.996 Y117.391 E7.1592
G1 X147.377 Y117.025 E7.1768
G1 X147.688 Y116.602 E7.1942
G1 X147.923 Y116.136 E7.2116
G1 X148.073 Y115.643 E7.2287
G1 X148.139 Y115.124 E7.2461
G1 X148.116 Y114.607 E7.2633
G1 X148.006 Y114.100 E7.2806
G1 X147.811 Y113.617 E7.2979
G1 X147.536 Y113.171 E7.3153
G1 X147.187 Y112.777 E7.3329
G1 X146.773 Y112.444 E7.3505
G1 X146.305 Y112.183 E7.3683
G1 X145.798 Y112.005 E7.3862
G1 X145.265 Y111.915 E7.4042
G1 X144.724 Y111.916 E7.4222
G1 X144.191 Y112.008 E7.4402
G1 X143.684 Y112.188 E7.4581
G1 X143.218 Y112.450 E7.4758
G1 X142.806 Y112.784 E7.4935
G1 X142.458 Y113.180 E7.5110
G1 X142.184 Y113.627 E7.5284
G1 X141.991 Y114.110 E7.5458
G1 X141.883 Y114.617 E7.5630
G1 X141.861 Y115.135 E7.5802
G1 X141.927 Y115.644 E7.5973
G1 X142.081 Y116.146 E7.6148
G1 X142.317 Y116.612 E7.6321
G1 X142.630 Y117.033 E7.6496
G1 X143.013 Y117.398 E7.6672
G1 X143.455 Y117.696 E7.6849
G1 X143.821 Y117.861 E7.6983
G1 X116.180 Y117.861 E8.6176
G1 X116.555 Y117.691 E8.6313
G1 X116.996 Y117.392 E8.6490
G1 X117.377 Y117.025 E8.6666
G1 X117.689 Y116.602 E8.6841
G1 X117.923 Y116.136 E8.7014
G1 X118.073 Y115.643 E8.7186
G1 X118.139 Y115.124 E8.7359
G1 X118.116 Y114.607 E8.7532
G1 X118.006 Y114.100 E8.7704
G1 X117.811 Y113.617 E8.7878
G1 X117.536 Y113.171 E8.8052
G1 X117.187 Y112.776 E8.8227
G1 X116.773 Y112.444 E8.8404
G1 X116.305 Y112.183 E8.8582
G1 X115.798 Y112.005 E8.8760
G1 X115.268 Y111.914 E8.8939
G1 X114.724 Y111.916 E8.9120
G1 X114.191 Y112.008 E8.9300
G1 X113.684 Y112.188 E8.9479
G1 X113.218 Y112.450 E8.9657
G1 X112.805 Y112.784 E8.9833
G1 X112.458 Y113.180 E9.0009
G1 X112.184 Y113.627 E9.0183
G1 X111.991 Y114.110 E9.0356
G1 X111.883 Y114.617 E9.0529
G1 X111.862 Y115.135 E9.0701
G1 X111.927 Y115.644 E9.0871
G1 X112.081 Y116.146 E9.1046
G1 X112.317 Y116.612 E9.1220
G1 X112.630 Y117.033 E9.1394
G1 X113.013 Y117.398 E9.1570
G1 X113.455 Y117.696 E9.1748
G1 X113.821 Y117.861 E9.1881
G1 X93.770 Y117.861 E9.8550
G1 X93.770 Y117.410 E9.8700
;segType:Perimeter
G0 X94.026 Y117.925 F10800
G1 X93.370 Y118.176 E9.8933 F2159
G1 X93.370 Y81.770 E11.1042
G1 X166.630 Y81.770 E13.5408
G1 X166.630 Y118.230 E14.7535
G1 X93.429 Y118.230 E17.1882
G1 X93.701 Y117.624
G0 X94.666 Y111.000 F10800
G0 X95.474 Y109.584
;segType:HShell
G1 X93.970 Y108.195 E17.2563 F3600
G1 X93.970 Y107.679
G1 X95.837 Y109.404 E17.3408
G1 X96.246 Y109.266
G1 X93.970 Y107.164 E17.4438
G1 X93.970 Y106.649
G1 X96.716 Y109.185 E17.5681
;segType:Perimeter
G0 X96.715 Y109.264 F10800
G1 X97.207 Y109.737 E17.5908 F2159
G1 X97.518 Y109.786 E17.6013
G1 X97.898 Y109.909 E17.6146
G1 X98.253 Y110.095 E17.6279
G1 X98.570 Y110.338 E17.6412
G1 X98.840 Y110.629 E17.6544
G1 X99.057 Y110.961 E17.6676
G1 X99.214 Y111.324 E17.6808
G1 X99.308 Y111.708 E17.6939
G1 X99.335 Y112.102 E17.7070
G1 X99.295 Y112.494 E17.7202
G1 X99.190 Y112.875 E17.7333
G1 X99.021 Y113.233 E17.7465
G1 X98.794 Y113.558 E17.7597
G1 X98.514 Y113.841 E17.7729
G1 X98.189 Y114.074 E17.7862
G1 X97.829 Y114.248 E17.7995
G1 X97.443 Y114.360 E17.8129
G1 X97.043 Y114.405 E17.8262
G1 X96.642 Y114.381 E17.8396
G1 X96.250 Y114.290 E17.8530
G1 X95.880 Y114.135 E17.8663
G1 X95.543 Y113.920 E17.8796
G1 X95.249 Y113.652 E17.8929
G1 X95.004 Y113.339 E17.9061
G1 X94.816 Y112.990 E17.9193
G1 X94.691 Y112.616 E17.9324
G1 X94.630 Y112.226 E17.9455
G1 X94.636 Y111.831 E17.9587
G1 X94.709 Y111.443 E17.9718
G1 X94.847 Y111.073 E17.9849
G1 X95.045 Y110.730 E17.9981
G1 X95.300 Y110.424 E18.0113
G1 X95.603 Y110.166 E18.0246
G1 X95.947 Y109.962 E18.0379
G1 X96.322 Y109.818 E18.0512
G1 X96.716 Y109.739 E18.0646
G1 X97.089 Y109.729 E18.0770
G1 X97.648 Y109.325
;segType:Loop
G0 X96.765 Y109.368 F10800
G1 X97.177 Y109.357 E18.0907 F3600
G1 X97.619 Y109.428 E18.1056
G1 X98.064 Y109.572 E18.1212
G1 X98.481 Y109.790 E18.1368
G1 X98.851 Y110.073 E18.1523
G1 X99.166 Y110.412 E18.1677
G1 X99.416 Y110.796 E18.1830
G1 X99.598 Y111.214 E18.1981
G1 X99.705 Y111.655 E18.2132
G1 X99.736 Y112.107 E18.2283
G1 X99.691 Y112.558 E18.2433
G1 X99.569 Y112.995 E18.2584
G1 X99.375 Y113.408 E18.2736
G1 X99.112 Y113.785 E18.2889
G1 X98.786 Y114.114 E18.3043
G1 X98.406 Y114.386 E18.3198
G1 X97.983 Y114.591 E18.3355
G1 X97.528 Y114.723 E18.3512
G1 X97.055 Y114.776 E18.3671
G1 X96.580 Y114.748 E18.3829
G1 X96.118 Y114.641 E18.3987
G1 X95.682 Y114.458 E18.4144
G1 X95.288 Y114.206 E18.4300
G1 X94.944 Y113.894 E18.4454
G1 X94.661 Y113.531 E18.4607
G1 X94.444 Y113.128 E18.4759
G1 X94.299 Y112.697 E18.4910
G1 X94.230 Y112.249 E18.5061
G1 X94.237 Y111.797 E18.5212
G1 X94.320 Y111.351 E18.5363
G1 X94.479 Y110.924 E18.5514
G1 X94.708 Y110.528 E18.5666
G1 X95.004 Y110.174 E18.5820
G1 X95.357 Y109.872 E18.5974
G1 X95.761 Y109.633 E18.6130
G1 X96.202 Y109.464 E18.6287
G1 X96.570 Y109.390 E18.6412
;segType:HShell
G0 X93.970 Y92.219 F10800
G1 X115.091 Y111.730 E19.5976 F3600
;segType:Perimeter
G0 X114.810 Y111.810 F10800
G1 X115.290 Y112.294 E19.6202 F2159
G1 X115.690 Y112.363 E19.6337
G1 X116.130 Y112.517 E19.6492
G1 X116.537 Y112.743 E19.6647
G1 X116.898 Y113.035 E19.6802
G1 X117.205 Y113.381 E19.6956
G1 X117.447 Y113.774 E19.7109
G1 X117.620 Y114.201 E19.7262
G1 X117.718 Y114.651 E19.7415
G1 X117.738 Y115.110 E19.7568
G1 X117.680 Y115.571 E19.7723
G1 X117.546 Y116.007 E19.7874
G1 X117.339 Y116.419 E19.8028
G1 X117.065 Y116.791 E19.8182
G1 X116.731 Y117.113 E19.8336
G1 X116.347 Y117.373 E19.8490
G1 X115.922 Y117.566 E19.8645
G1 X115.470 Y117.685 E19.8801
G1 X115.005 Y117.725 E19.8956
G1 X114.539 Y117.686 E19.9112
G1 X114.087 Y117.569 E19.9267
G1 X113.662 Y117.378 E19.9422
G1 X113.276 Y117.118 E19.9577
G1 X112.941 Y116.799 E19.9731
G1 X112.666 Y116.427 E19.9884
G1 X112.457 Y116.016 E20.0038
G1 X112.320 Y115.571 E20.0193
G1 X112.263 Y115.120 E20.0344
G1 X112.281 Y114.660 E20.0497
G1 X112.377 Y114.210 E20.0650
G1 X112.548 Y113.783 E20.0803
G1 X112.790 Y113.389 E20.0957
G1 X113.095 Y113.041 E20.1111
G1 X113.455 Y112.749 E20.1265
G1 X113.861 Y112.521 E20.1420
G1 X114.301 Y112.365 E20.1575
G1 X114.761 Y112.285 E20.1730
G1 X115.172 Y112.284 E20.1867
G1 X115.738 Y111.888
;segType:Loop
G0 X99.727 Y88.068 F10800
G1 X99.691 Y88.428 E20.1987 F3600
G1 X99.569 Y88.866 E20.2139
G1 X99.345 Y89.337 E20.2312
G1 X99.107 Y89.660 E20.2446
G1 X98.786 Y89.984 E20.2597
G1 X98.406 Y90.256 E20.2753
G1 X97.983 Y90.461 E20.2909
G1 X97.528 Y90.592 E20.3067
G1 X97.055 Y90.646 E20.3225
G1 X96.580 Y90.618 E20.3383
G1 X96.118 Y90.511 E20.3541
G1 X95.683 Y90.328 E20.3698
G1 X95.288 Y90.076 E20.3854
G1 X94.944 Y89.764 E20.4008
G1 X94.660 Y89.400 E20.4162
G1 X94.414 Y88.940 E20.4335
G1 X94.279 Y88.498 E20.4489
G1 X94.222 Y88.049 E20.4639
G1 X94.241 Y87.595 E20.4790
G1 X94.337 Y87.151 E20.4941
G1 X94.506 Y86.728 E20.5093
G1 X94.747 Y86.337 E20.5246
G1 X95.053 Y85.990 E20.5400
G1 X95.415 Y85.697 E20.5555
G1 X95.826 Y85.468 E20.5711
G1 X96.273 Y85.310 E20.5869
G1 X96.741 Y85.230 E20.6027
G1 X97.185 Y85.228 E20.6174
G1 X97.619 Y85.298 E20.6321
G1 X98.064 Y85.442 E20.6476
G1 X98.481 Y85.660 E20.6633
G1 X98.851 Y85.943 E20.6788
G1 X99.166 Y86.282 E20.6941
G1 X99.416 Y86.666 E20.7094
G1 X99.598 Y87.084 E20.7246
G1 X99.705 Y87.526 E20.7397
G1 X99.730 Y87.886 E20.7517
;segType:HShell
G0 X124.874 Y117.676 F10800
G1 X93.970 Y89.127 E22.1510 F3600
G1 X93.970 Y88.612
G1 X94.160 Y88.787 E22.1596
;segType:Perimeter
G0 X94.295 Y88.931 F10800
G1 X94.666 Y88.372 E22.1819 F2159
G1 X94.623 Y88.034 E22.1932
G1 X94.639 Y87.639 E22.2064
G1 X94.723 Y87.252 E22.2195
G1 X94.870 Y86.884 E22.2327
G1 X95.079 Y86.546 E22.2459
G1 X95.342 Y86.248 E22.2592
G1 X95.652 Y85.996 E22.2725
G1 X96.002 Y85.801 E22.2858
G1 X96.382 Y85.667 E22.2992
G1 X96.778 Y85.599 E22.3125
G1 X97.151 Y85.598 E22.3250
G1 X97.518 Y85.657 E22.3373
G1 X97.898 Y85.780 E22.3506
G1 X98.253 Y85.965 E22.3639
G1 X98.570 Y86.208 E22.3772
G1 X98.840 Y86.499 E22.3904
G1 X99.057 Y86.831 E22.4036
G1 X99.214 Y87.194 E22.4168
G1 X99.308 Y87.578 E22.4299
G1 X99.335 Y87.972 E22.4430
G1 X99.295 Y88.364 E22.4561
G1 X99.190 Y88.745 E22.4693
G1 X98.994 Y89.157 E22.4845
G1 X98.792 Y89.430 E22.4958
G1 X98.514 Y89.711 E22.5089
G1 X98.189 Y89.943 E22.5222
G1 X97.829 Y90.118 E22.5355
G1 X97.443 Y90.230 E22.5489
G1 X97.043 Y90.275 E22.5622
G1 X96.642 Y90.251 E22.5756
G1 X96.250 Y90.160 E22.5890
G1 X95.880 Y90.005 E22.6023
G1 X95.543 Y89.790 E22.6156
G1 X95.249 Y89.522 E22.6289
G1 X95.004 Y89.209 E22.6421
G1 X94.789 Y88.807 E22.6573
G1 X94.689 Y88.479 E22.6687
G1 X94.114 Y88.093
G0 F4800 E21.6687
G0 X95.916 Y85.637 F10800
G0 X97.168 Y85.416
G0 X98.365 Y85.815
G0 X99.234 Y86.750
G0 X115.370 Y87.848
G0 X160.269 Y87.866
G0 F4800 E22.6687
;segType:Loop
G1 X160.281 Y87.595 E22.6777 F3600
G1 X160.377 Y87.151 E22.6928
G1 X160.547 Y86.728 E22.7080
G1 X160.787 Y86.337 E22.7232
G1 X161.093 Y85.990 E22.7386
G1 X161.456 Y85.697 E22.7541
G1 X161.866 Y85.468 E22.7698
G1 X162.313 Y85.310 E22.7855
G1 X162.772 Y85.231 E22.8010
G1 X163.080 Y85.222 E22.8113
G1 X163.649 Y85.295 E22.8303
G1 X164.104 Y85.442 E22.8463
G1 X164.521 Y85.660 E22.8619
G1 X164.891 Y85.943 E22.8774
G1 X165.206 Y86.282 E22.8928
G1 X165.456 Y86.666 E22.9080
G1 X165.638 Y87.084 E22.9232
G1 X165.745 Y87.526 E22.9383
G1 X165.777 Y87.977 E22.9534
G1 X165.731 Y88.428 E22.9684
G1 X165.609 Y88.866 E22.9836
G1 X165.385 Y89.337 E23.0009
G1 X165.146 Y89.660 E23.0143
G1 X164.826 Y89.984 E23.0294
G1 X164.446 Y90.256 E23.0449
G1 X164.023 Y90.461 E23.0606
G1 X163.568 Y90.592 E23.0764
G1 X163.095 Y90.646 E23.0922
G1 X162.619 Y90.618 E23.1080
G1 X162.158 Y90.511 E23.1238
G1 X161.723 Y90.328 E23.1395
G1 X161.328 Y90.076 E23.1551
G1 X160.984 Y89.764 E23.1705
G1 X160.700 Y89.400 E23.1859
G1 X160.454 Y88.939 E23.2032
G1 X160.319 Y88.499 E23.2185
G1 X160.261 Y88.049 E23.2336
G1 X160.261 Y88.048 E23.2336
;segType:HShell
G0 X162.650 Y85.064 F10800
G1 X159.684 Y82.324 E23.3680 F3600
G1 X160.241 Y82.324
G1 X163.192 Y85.050 E23.5015
G0 X165.040 Y86.393 F10800
G0 X165.543 Y87.552
G0 X163.281 Y109.372
;segType:Loop
G1 X163.654 Y109.426 E23.5141 F3600
G1 X164.104 Y109.572 E23.5298
G1 X164.521 Y109.790 E23.5455
G1 X164.891 Y110.073 E23.5610
G1 X165.206 Y110.412 E23.5764
G1 X165.456 Y110.796 E23.5916
G1 X165.638 Y111.214 E23.6068
G1 X165.745 Y111.655 E23.6219
G1 X165.777 Y112.107 E23.6369
G1 X165.731 Y112.558 E23.6520
G1 X165.610 Y112.995 E23.6671
G1 X165.415 Y113.408 E23.6823
G1 X165.152 Y113.785 E23.6976
G1 X164.826 Y114.114 E23.7130
G1 X164.446 Y114.386 E23.7285
G1 X164.023 Y114.591 E23.7441
G1 X163.568 Y114.723 E23.7599
G1 X163.095 Y114.776 E23.7757
G1 X162.620 Y114.748 E23.7916
G1 X162.157 Y114.641 E23.8074
G1 X161.723 Y114.457 E23.8230
G1 X161.328 Y114.206 E23.8386
G1 X160.984 Y113.894 E23.8540
G1 X160.700 Y113.531 E23.8694
G1 X160.484 Y113.128 E23.8846
G1 X160.339 Y112.697 E23.8997
G1 X160.270 Y112.250 E23.9148
G1 X160.277 Y111.797 E23.9298
G1 X160.361 Y111.351 E23.9449
G1 X160.519 Y110.925 E23.9600
G1 X160.748 Y110.528 E23.9753
G1 X161.044 Y110.174 E23.9906
G1 X161.397 Y109.872 E24.0061
G1 X161.801 Y109.633 E24.0217
G1 X162.242 Y109.464 E24.0374
G1 X162.707 Y109.371 E24.0532
G1 X163.085 Y109.361 E24.0657
;segType:Perimeter
G0 X162.723 Y109.266 F10800
G1 X163.216 Y109.737 E24.0884 F2159
G1 X163.556 Y109.786 E24.0998
G1 X163.938 Y109.909 E24.1132
G1 X164.292 Y110.095 E24.1265
G1 X164.610 Y110.338 E24.1398
G1 X164.880 Y110.629 E24.1530
G1 X165.097 Y110.961 E24.1662
G1 X165.254 Y111.324 E24.1794
G1 X165.348 Y111.708 E24.1925
G1 X165.375 Y112.102 E24.2056
G1 X165.335 Y112.494 E24.2187
G1 X165.230 Y112.875 E24.2319
G1 X165.061 Y113.233 E24.2450
G1 X164.834 Y113.558 E24.2582
G1 X164.554 Y113.841 E24.2715
G1 X164.229 Y114.074 E24.2848
G1 X163.869 Y114.248 E24.2981
G1 X163.483 Y114.360 E24.3114
G1 X163.083 Y114.405 E24.3248
G1 X162.682 Y114.381 E24.3382
G1 X162.290 Y114.290 E24.3516
G1 X161.921 Y114.135 E24.3649
G1 X161.584 Y113.920 E24.3782
G1 X161.289 Y113.652 E24.3914
G1 X161.044 Y113.339 E24.4047
G1 X160.856 Y112.990 E24.4178
G1 X160.731 Y112.616 E24.4310
G1 X160.670 Y112.226 E24.4441
G1 X160.676 Y111.831 E24.4572
G1 X160.749 Y111.443 E24.4704
G1 X160.887 Y111.073 E24.4835
G1 X161.085 Y110.730 E24.4967
G1 X161.340 Y110.424 E24.5099
G1 X161.643 Y110.166 E24.5232
G1 X161.987 Y109.962 E24.5365
G1 X162.362 Y109.818 E24.5498
G1 X162.756 Y109.739 E24.5632
G1 X163.099 Y109.730 E24.5746
G1 X163.652 Y109.319
;segType:HShell
G0 X117.738 Y86.863 F10800
G1 X144.665 Y111.738 E25.7938 F3600
;segType:Perimeter
G0 X144.254 Y111.890 F10800
G1 X144.821 Y112.285 E25.8168 F2159
G1 X145.229 Y112.284 E25.8304
G1 X145.690 Y112.363 E25.8459
G1 X146.130 Y112.517 E25.8615
G1 X146.537 Y112.743 E25.8769
G1 X146.898 Y113.035 E25.8924
G1 X147.205 Y113.381 E25.9078
G1 X147.447 Y113.774 E25.9231
G1 X147.620 Y114.201 E25.9385
G1 X147.718 Y114.651 E25.9538
G1 X147.738 Y115.110 E25.9691
G1 X147.680 Y115.571 E25.9845
G1 X147.546 Y116.007 E25.9997
G1 X147.339 Y116.419 E26.0150
G1 X147.065 Y116.791 E26.0304
G1 X146.731 Y117.112 E26.0458
G1 X146.347 Y117.373 E26.0612
G1 X145.922 Y117.566 E26.0767
G1 X145.471 Y117.685 E26.0923
G1 X145.005 Y117.725 E26.1078
G1 X144.539 Y117.686 E26.1234
G1 X144.087 Y117.569 E26.1389
G1 X143.662 Y117.378 E26.1544
G1 X143.276 Y117.118 E26.1699
G1 X142.941 Y116.799 E26.1853
G1 X142.666 Y116.427 E26.2007
G1 X142.457 Y116.016 E26.2160
G1 X142.320 Y115.572 E26.2315
G1 X142.262 Y115.120 E26.2466
G1 X142.281 Y114.660 E26.2619
G1 X142.377 Y114.210 E26.2772
G1 X142.548 Y113.783 E26.2925
G1 X142.790 Y113.389 E26.3079
G1 X143.095 Y113.041 E26.3233
G1 X143.455 Y112.749 E26.3387
G1 X143.861 Y112.521 E26.3542
G1 X144.301 Y112.365 E26.3697
G1 X144.703 Y112.295 E26.3833
G1 X145.181 Y111.810
;segType:HShell
G0 X166.030 Y107.769 F10800
G1 X144.928 Y88.275 E27.3388 F3600
;segType:Perimeter
G0 X144.912 Y88.194 F10800
G1 X144.482 Y87.672 E27.3613 F2159
G1 X144.087 Y87.570 E27.3749
G1 X143.662 Y87.378 E27.3904
G1 X143.276 Y87.119 E27.4058
G1 X142.941 Y86.799 E27.4213
G1 X142.666 Y86.427 E27.4366
G1 X142.457 Y86.016 E27.4520
G1 X142.322 Y85.576 E27.4673
G1 X142.262 Y85.120 E27.4826
G1 X142.281 Y84.660 E27.4979
G1 X142.377 Y84.210 E27.5132
G1 X142.550 Y83.778 E27.5287
G1 X142.792 Y83.385 E27.5440
G1 X143.098 Y83.037 E27.5594
G1 X143.459 Y82.746 E27.5749
G1 X143.866 Y82.519 E27.5903
G1 X144.306 Y82.363 E27.6059
G1 X144.766 Y82.284 E27.6214
G1 X145.234 Y82.284 E27.6370
G1 X145.695 Y82.363 E27.6525
G1 X146.134 Y82.519 E27.6680
G1 X146.541 Y82.746 E27.6835
G1 X146.902 Y83.037 E27.6989
G1 X147.208 Y83.385 E27.7143
G1 X147.450 Y83.778 E27.7297
G1 X147.620 Y84.201 E27.7449
G1 X147.718 Y84.651 E27.7602
G1 X147.738 Y85.111 E27.7755
G1 X147.680 Y85.567 E27.7908
G1 X147.547 Y86.007 E27.8061
G1 X147.339 Y86.419 E27.8214
G1 X147.065 Y86.791 E27.8368
G1 X146.731 Y87.113 E27.8522
G1 X146.347 Y87.373 E27.8677
G1 X145.922 Y87.566 E27.8832
G1 X145.471 Y87.685 E27.8987
G1 X145.005 Y87.725 E27.9142
G1 X144.598 Y87.691 E27.9278
G1 X143.996 Y88.039
;segType:HShell
G0 X158.010 Y82.324 F10800
G1 X161.438 Y85.491 E28.0830 F3600
G1 X161.787 Y85.298
G1 X158.568 Y82.324 E28.2288
G1 X159.126 Y82.324
G1 X162.190 Y85.155 E28.3676
;segType:Perimeter
G0 X162.621 Y85.131 F10800
G1 X163.118 Y85.600 E28.3903 F2159
G1 X163.554 Y85.656 E28.4049
G1 X163.938 Y85.780 E28.4183
G1 X164.292 Y85.965 E28.4316
G1 X164.610 Y86.208 E28.4449
G1 X164.880 Y86.499 E28.4582
G1 X165.097 Y86.831 E28.4714
G1 X165.254 Y87.194 E28.4845
G1 X165.348 Y87.578 E28.4976
G1 X165.375 Y87.972 E28.5108
G1 X165.335 Y88.364 E28.5239
G1 X165.230 Y88.745 E28.5370
G1 X165.034 Y89.157 E28.5522
G1 X164.832 Y89.430 E28.5635
G1 X164.554 Y89.711 E28.5767
G1 X164.229 Y89.943 E28.5899
G1 X163.869 Y90.118 E28.6033
G1 X163.483 Y90.230 E28.6166
G1 X163.083 Y90.275 E28.6300
G1 X162.682 Y90.251 E28.6434
G1 X162.290 Y90.160 E28.6567
G1 X161.921 Y90.005 E28.6701
G1 X161.584 Y89.790 E28.6834
G1 X161.289 Y89.522 E28.6966
G1 X161.044 Y89.209 E28.7098
G1 X160.829 Y88.807 E28.7250
G1 X160.713 Y88.426 E28.7382
G1 X160.662 Y88.034 E28.7514
G1 X160.679 Y87.639 E28.7645
G1 X160.763 Y87.252 E28.7777
G1 X160.910 Y86.885 E28.7909
G1 X161.118 Y86.546 E28.8041
G1 X161.382 Y86.248 E28.8173
G1 X161.693 Y85.996 E28.8306
G1 X162.042 Y85.801 E28.8439
G1 X162.422 Y85.667 E28.8573
G1 X162.815 Y85.600 E28.8706
G1 X163.000 Y85.594 E28.8768
G1 X163.548 Y85.176
G0 X161.240 Y86.121 F10800
G0 X142.262 Y113.126
;segType:HShell
G1 X115.337 Y88.253 E30.0959 F3600
;segType:Perimeter
G0 X114.912 Y88.194 F10800
G1 X114.482 Y87.672 E30.1184 F2159
G1 X114.087 Y87.570 E30.1320
G1 X113.662 Y87.378 E30.1475
G1 X113.276 Y87.119 E30.1630
G1 X112.941 Y86.799 E30.1784
G1 X112.666 Y86.427 E30.1937
G1 X112.457 Y86.016 E30.2091
G1 X112.322 Y85.576 E30.2244
G1 X112.263 Y85.120 E30.2397
G1 X112.281 Y84.660 E30.2550
G1 X112.377 Y84.210 E30.2703
G1 X112.550 Y83.778 E30.2858
G1 X112.792 Y83.385 E30.3011
G1 X113.098 Y83.037 E30.3165
G1 X113.459 Y82.746 E30.3320
G1 X113.866 Y82.519 E30.3474
G1 X114.305 Y82.363 E30.3630
G1 X114.766 Y82.284 E30.3785
G1 X115.234 Y82.284 E30.3941
G1 X115.694 Y82.363 E30.4096
G1 X116.134 Y82.519 E30.4251
G1 X116.541 Y82.746 E30.4406
G1 X116.902 Y83.037 E30.4561
G1 X117.208 Y83.385 E30.4715
G1 X117.450 Y83.778 E30.4868
G1 X117.620 Y84.201 E30.5020
G1 X117.718 Y84.651 E30.5173
G1 X117.738 Y85.110 E30.5326
G1 X117.680 Y85.567 E30.5479
G1 X117.546 Y86.007 E30.5632
G1 X117.339 Y86.419 E30.5785
G1 X117.065 Y86.791 E30.5939
G1 X116.731 Y87.113 E30.6093
G1 X116.347 Y87.373 E30.6248
G1 X115.922 Y87.566 E30.6403
G1 X115.470 Y87.685 E30.6558
G1 X115.005 Y87.725 E30.6713
G1 X114.598 Y87.691 E30.6849
G1 X113.996 Y88.039
;segType:HShell
G0 X114.112 Y88.152 F10800
G1 X141.895 Y113.817 E31.9429 F3600
G1 X142.060 Y113.454
G1 X114.792 Y88.264 E33.1777
G0 X98.024 Y109.363 F10800
G1 X93.970 Y105.618 E33.3612 F3600
G1 X93.970 Y106.133
G1 X97.273 Y109.185 E33.5108
G0 X95.149 Y109.799 F10800
G1 X93.970 Y108.710 E33.5641 F3600
G1 X93.970 Y109.225
G1 X94.859 Y110.046 E33.6044
G1 X94.616 Y110.337
G1 X93.970 Y109.741 E33.6336
G1 X93.970 Y110.256
G1 X94.406 Y110.659 E33.6533
G1 X94.234 Y111.015
G1 X93.970 Y110.771 E33.6653
G1 X93.970 Y111.287
G1 X94.106 Y111.412 E33.6714
G1 X94.036 Y111.862
G1 X93.970 Y111.802 E33.6744
G1 X93.970 Y112.317
G1 X94.050 Y112.391 E33.6780
G1 X94.209 Y113.054
G1 X93.970 Y112.833 E33.6888
G1 X93.970 Y113.348
G1 X98.655 Y117.676 E33.9009
G1 X98.097 Y117.676
G1 X93.970 Y113.863 E34.0878
G1 X93.970 Y114.379
G1 X97.539 Y117.676 E34.2494
G1 X96.982 Y117.676
G1 X93.970 Y114.894 E34.3858
G1 X93.970 Y115.409
G1 X96.424 Y117.676 E34.4969
G1 X95.866 Y117.676
G1 X93.970 Y115.925 E34.5827
G1 X93.970 Y116.440
G1 X95.308 Y117.676 E34.6433
G1 X94.750 Y117.676
G1 X93.970 Y116.955 E34.6786
G0 X96.139 Y114.836 F10800
G1 X99.213 Y117.676 E34.8178 F3600
G1 X99.771 Y117.676
G1 X96.817 Y114.947 E34.9515
G1 X97.354 Y114.928
G1 X100.329 Y117.676 E35.0862
G1 X100.887 Y117.676
G1 X97.811 Y114.834 E35.2255
G1 X98.211 Y114.689
G1 X101.444 Y117.676 E35.3719
G1 X102.002 Y117.676
G1 X98.568 Y114.504 E35.5274
G1 X98.882 Y114.279
G1 X102.560 Y117.676 E35.6939
G1 X103.118 Y117.676
G1 X99.155 Y114.015 E35.8734
G1 X99.395 Y113.721
G1 X103.676 Y117.676 E36.0672
G1 X104.234 Y117.676
G1 X99.599 Y113.395 E36.2771
G1 X99.766 Y113.033
G1 X104.791 Y117.676 E36.5046
G1 X105.349 Y117.676
G1 X99.879 Y112.623 E36.7523
G1 X99.932 Y112.156
G1 X105.907 Y117.676 E37.0229
G1 X106.465 Y117.676
G1 X99.899 Y111.611 E37.3202
G1 X99.669 Y110.883
G1 X107.023 Y117.676 E37.6531
G1 X107.581 Y117.676
G1 X93.970 Y105.103 E38.2694
G1 X93.970 Y104.587
G1 X108.139 Y117.676 E38.9109
G1 X108.696 Y117.676
G1 X93.970 Y104.072 E39.5777
G1 X93.970 Y103.557
G1 X109.254 Y117.676 E40.2698
G1 X109.812 Y117.676
G1 X93.970 Y103.041 E40.9871
G1 X93.970 Y102.526
G1 X110.370 Y117.676 E41.7297
G1 X110.928 Y117.676
G1 X93.970 Y102.011 E42.4975
G1 X93.970 Y101.495
G1 X111.486 Y117.676 E43.2906
G1 X112.043 Y117.676
G1 X93.970 Y100.980 E44.1090
G1 X93.970 Y100.465
G1 X112.601 Y117.676 E44.9526
G0 X112.065 Y115.127 F10800
G0 X112.369 Y113.706
G0 X113.339 Y112.602
G0 X114.743 Y112.104
G0 X116.703 Y112.189
G1 X93.970 Y91.189 E45.9820 F3600
G1 X93.970 Y91.704
G1 X115.730 Y111.806 E46.9673
G0 X113.774 Y112.358 F10800
G0 X112.627 Y113.287
G0 X112.085 Y114.639
G0 X112.223 Y116.811
G1 X93.970 Y99.949 E47.7937 F3600
G1 X93.970 Y99.434
G1 X111.799 Y115.904 E48.6010
G1 X111.679 Y115.277
G1 X93.970 Y98.919 E49.4028
G1 X93.970 Y98.403
G1 X111.677 Y114.760 E50.2046
G1 X111.745 Y114.308
G1 X93.970 Y97.888 E51.0094
G1 X93.970 Y97.373
G1 X111.861 Y113.900 E51.8195
G1 X112.015 Y113.527
G1 X93.970 Y96.857 E52.6366
G1 X93.970 Y96.342
G1 X112.217 Y113.198 E53.4628
G1 X112.449 Y112.897
G1 X93.970 Y95.827 E54.2996
G1 X93.970 Y95.311
G1 X112.706 Y112.619 E55.1479
G1 X113.003 Y112.378
G1 X93.970 Y94.796 E56.0097
G1 X93.970 Y94.281
G1 X113.334 Y112.169 E56.8865
G1 X113.695 Y111.987
G1 X93.970 Y93.765 E57.7796
G1 X93.970 Y93.250
G1 X114.097 Y111.843 E58.6910
G1 X114.561 Y111.756
G1 X93.970 Y92.735 E59.6233
G0 X93.970 Y89.643 F10800
G1 X124.316 Y117.676 E60.9974 F3600
G1 X123.758 Y117.676
G1 X93.970 Y90.158 E62.3462
G1 X93.970 Y90.673
G1 X123.200 Y117.676 E63.6697
G1 X122.643 Y117.676
G1 X117.765 Y113.170 E63.8906
G0 X118.209 Y114.095 F10800
G1 X122.085 Y117.676 E64.0661 F3600
G1 X121.527 Y117.676
G1 X118.321 Y114.714 E64.2113
G1 X118.326 Y115.235
G1 X120.969 Y117.676 E64.3309
G1 X120.411 Y117.676
G1 X118.266 Y115.694 E64.4281
G1 X118.143 Y116.096
G1 X119.853 Y117.676 E64.5055
G1 X119.295 Y117.676
G1 X117.980 Y116.461 E64.5651
G1 X117.787 Y116.797
G1 X118.738 Y117.676 E64.6082
G1 X118.180 Y117.676
G1 X117.561 Y117.104 E64.6362
G1 X117.293 Y117.372
G1 X117.622 Y117.676 E64.6511
G0 X125.432 Y117.676 F10800
G1 X96.270 Y90.736 E65.9715 F3600
G1 X96.921 Y90.823
G1 X125.990 Y117.676 E67.2877
G1 X126.547 Y117.676
G1 X97.442 Y90.788 E68.6057
G1 X97.885 Y90.683
G1 X127.105 Y117.676 E69.9287
G1 X127.663 Y117.676
G1 X98.275 Y90.528 E71.2594
G1 X98.623 Y90.334
G1 X128.221 Y117.676 E72.5996
G1 X128.779 Y117.676
G1 X98.935 Y90.107 E73.9509
G1 X99.202 Y89.838
G1 X129.337 Y117.676 E75.3154
G1 X129.895 Y117.676
G1 X99.438 Y89.540 E76.6945
G1 X99.628 Y89.201
G1 X130.452 Y117.676 E78.0902
G1 X131.010 Y117.676
G1 X99.785 Y88.831 E79.5041
G1 X99.893 Y88.415
G1 X131.568 Y117.676 E80.9383
G1 X132.126 Y117.676
G1 X99.934 Y87.937 E82.3960
G1 X99.871 Y87.363
G1 X132.684 Y117.676 E83.8818
G1 X133.242 Y117.676
G1 X99.604 Y86.602 E85.4049
G0 X97.567 Y85.480 F10800
G0 X96.328 Y85.492
G0 X95.200 Y86.121
G0 X94.038 Y87.644
G1 X93.970 Y87.581 E85.4080 F3600
G1 X93.970 Y87.066
G1 X94.121 Y87.205 E85.4148
G1 X94.258 Y86.816
G1 X93.970 Y86.551 E85.4278
G1 X93.970 Y86.035
G1 X94.437 Y86.467 E85.4490
G1 X94.653 Y86.151
G1 X93.970 Y85.520 E85.4799
G1 X93.970 Y85.005
G1 X94.904 Y85.867 E85.5222
G1 X95.200 Y85.625
G1 X93.970 Y84.489 E85.5778
G1 X93.970 Y83.974
G1 X95.531 Y85.416 E85.6485
G1 X95.902 Y85.243
G1 X93.970 Y83.459 E85.7360
G1 X93.970 Y82.943
G1 X96.320 Y85.114 E85.8424
G1 X96.803 Y85.045
G1 X93.970 Y82.428 E85.9707
G1 X94.416 Y82.324
G1 X97.392 Y85.074 E86.1054
G1 X98.189 Y85.295
G1 X94.973 Y82.324 E86.2510
G1 X95.531 Y82.324
G1 X133.799 Y117.676 E87.9838
G1 X134.357 Y117.676
G1 X96.089 Y82.324 E89.7166
G1 X96.647 Y82.324
G1 X134.915 Y117.676 E91.4494
G1 X135.473 Y117.676
G1 X97.205 Y82.324 E93.1822
G1 X97.763 Y82.324
G1 X136.031 Y117.676 E94.9150
G1 X136.589 Y117.676
G1 X98.320 Y82.324 E96.6478
G1 X98.878 Y82.324
G1 X137.147 Y117.676 E98.3805
G1 X137.704 Y117.676
G1 X99.436 Y82.324 E100.1133
G1 X99.994 Y82.324
G1 X138.262 Y117.676 E101.8461
G1 X138.820 Y117.676
G1 X100.552 Y82.324 E103.5789
G1 X101.110 Y82.324
G1 X139.378 Y117.676 E105.3117
G1 X139.936 Y117.676
G1 X101.668 Y82.324 E107.0445
G1 X102.225 Y82.324
G1 X140.494 Y117.676 E108.7773
G1 X141.051 Y117.676
G1 X102.783 Y82.324 E110.5101
G1 X103.341 Y82.324
G1 X141.609 Y117.676 E112.2429
G1 X142.167 Y117.676
G1 X103.899 Y82.324 E113.9756
G1 X104.457 Y82.324
G1 X142.725 Y117.676 E115.7084
G0 X145.507 Y117.864 F10800
G0 X147.072 Y117.569
G1 X147.188 Y117.676 E115.7137 F3600
