; GCode generated by CraftWare

G28 X0 Y0
G28 Z0

M190 S60 ;set bed temp (wait)
M109 S215 ;set head temp (wait)
; ------------------------------------
; Layer #0
; ------------------------------------
G21 ; mm
G90 ; abs
G92 E0 ; reset extr
M106 S0
;segType:Skirt
G0 F4800 E-1.0000
G0 F300 Z0.200
G0 X118.140 Y121.359 F10800
G0 F4800 E0.0000
G1 X122.430 Y125.544 E0.1993 F600
G1 X123.061 Y125.914 E0.2237
G1 X123.313 Y126.160 E0.2354
G1 X123.944 Y126.529 E0.2597
G1 X124.322 Y126.652 E0.2729
G1 X124.953 Y127.022 E0.2973
G1 X125.205 Y127.022 E0.3056
G1 X125.332 Y127.145 E0.3115
G1 X125.584 Y127.145 E0.3199
G1 X125.900 Y127.330 E0.3321
G1 X126.341 Y127.391 E0.3469
G1 X127.098 Y127.637 E0.3734
G1 X127.603 Y127.637 E0.3902
G1 X127.855 Y127.760 E0.3995
G1 X132.019 Y127.760 E0.5380
G1 X132.145 Y127.637 E0.5438
G1 X132.902 Y127.637 E0.5690
G1 X133.028 Y127.514 E0.5749
G1 X133.911 Y127.391 E0.6045
G1 X134.037 Y127.268 E0.6104
G1 X134.290 Y127.268 E0.6188
G1 X134.605 Y127.084 E0.6309
G1 X134.984 Y126.960 E0.6442
G1 X135.299 Y126.776 E0.6563
G1 X135.678 Y126.652 E0.6696
G1 X136.939 Y125.914 E0.7182
G1 X137.192 Y125.668 E0.7299
G1 X137.507 Y125.483 E0.7421
G1 X141.797 Y121.298 E0.9414
G1 X142.175 Y120.682 E0.9655
G1 X142.428 Y120.436 E0.9772
G1 X143.185 Y119.205 E1.0253
G1 X143.185 Y118.958 E1.0334
G1 X143.563 Y118.343 E1.0575
G1 X143.563 Y118.097 E1.0657
G1 X143.689 Y117.974 E1.0715
G1 X143.689 Y117.727 E1.0797
G1 X143.816 Y117.604 E1.0856
G1 X143.816 Y117.358 E1.0938
G1 X143.942 Y117.235 E1.0996
G1 X143.942 Y116.743 E1.1160
G1 X144.068 Y116.619 E1.1219
G1 X144.068 Y116.127 E1.1383
G1 X144.194 Y116.004 E1.1441
G1 X144.194 Y114.773 E1.1851
G1 X144.320 Y114.650 E1.1909
G1 X144.320 Y83.134 E2.2391
G1 X144.320 Y75.255 E2.5012
G1 X144.131 Y74.948 E2.5132
G1 X141.482 Y72.363 E2.6363
G1 X134.416 Y72.363 E2.8713
G1 X133.975 Y72.424 E2.8861
G1 X131.199 Y75.132 E3.0151
G1 X131.199 Y106.648 E4.0633
G1 X131.199 Y108.125 E4.1125
G1 X131.136 Y108.556 E4.1270
G1 X129.117 Y108.556 E4.1941
G1 X128.675 Y108.494 E4.2089
G1 X128.675 Y76.979 E5.2572
G1 X128.675 Y75.502 E5.3063
G1 X128.612 Y75.071 E5.3208
G1 X125.836 Y72.363 E5.4498
G1 X118.771 Y72.363 E5.6848
G1 X118.329 Y72.424 E5.6996
G1 X115.554 Y75.132 E5.8286
G1 X115.554 Y106.648 E6.8768
G1 X115.554 Y114.527 E7.1388
G1 X115.680 Y114.896 E7.1518
G1 X115.680 Y115.881 E7.1846
G1 X115.806 Y116.250 E7.1975
G1 X115.932 Y117.112 E7.2265
G1 X116.058 Y117.235 E7.2324
G1 X116.121 Y117.666 E7.2468
G1 X116.373 Y118.404 E7.2728
G1 X116.563 Y118.712 E7.2848
G1 X116.563 Y118.958 E7.2930
G1 X117.698 Y120.805 E7.3651
G1 X117.951 Y121.051 E7.3769
G1 X118.140 Y121.359 E7.3889
G1 X117.761 Y121.359 E7.4014
G1 X122.556 Y126.037 E7.6242
G1 X124.448 Y127.145 E7.6972
G1 X124.827 Y127.268 E7.7104
G1 X124.953 Y127.391 E7.7163
G1 X125.205 Y127.391 E7.7247
G1 X125.332 Y127.514 E7.7305
G1 X125.517 Y127.514 E7.7367
G0 F4800 E6.7367
G0 X125.591 Y124.857 F10800
G0 X125.666 Y122.200
G0 F4800 E7.7367
;segType:HShell
G1 X135.090 Y113.004 E8.1746 F600
;segType:Perimeter
G0 X135.019 Y112.978 F10800
G1 X135.280 Y112.363 E8.1968 F359
G1 X135.280 Y76.218 E9.3990
G1 X138.350 Y76.182 E9.5011
G1 X140.320 Y76.182 E9.5667
G1 X140.320 Y113.489 E10.8075
G1 X140.270 Y114.506 E10.8414
G1 X140.121 Y115.509 E10.8751
G1 X139.875 Y116.492 E10.9088
G1 X139.534 Y117.446 E10.9425
G1 X139.100 Y118.362 E10.9762
G1 X138.579 Y119.232 E11.0099
G1 X137.976 Y120.045 E11.0436
G1 X137.295 Y120.796 E11.0773
G1 X136.545 Y121.476 E11.1110
G1 X135.731 Y122.080 E11.1447
G1 X134.863 Y122.600 E11.1784
G1 X133.948 Y123.033 E11.2120
G1 X132.994 Y123.374 E11.2457
G1 X132.012 Y123.620 E11.2794
G1 X131.011 Y123.769 E11.3131
G1 X130.000 Y123.818 E11.3467
G1 X128.989 Y123.769 E11.3804
G1 X127.988 Y123.620 E11.4141
G1 X127.006 Y123.374 E11.4477
G1 X126.052 Y123.033 E11.4814
G1 X125.137 Y122.600 E11.5151
G1 X124.269 Y122.080 E11.5488
G1 X123.455 Y121.476 E11.5824
G1 X122.705 Y120.796 E11.6161
G1 X122.024 Y120.045 E11.6498
G1 X121.421 Y119.232 E11.6835
G1 X120.900 Y118.362 E11.7172
G1 X120.466 Y117.446 E11.7509
G1 X120.125 Y116.492 E11.7846
G1 X119.879 Y115.509 E11.8184
G1 X119.730 Y114.506 E11.8521
G1 X119.680 Y113.489 E11.8859
G1 X119.680 Y76.182 E13.1268
G1 X124.720 Y76.182 E13.2944
G1 X124.720 Y112.419 E14.4997
G1 X135.223 Y112.419 E14.8490
G1 X135.853 Y112.164
;segType:Loop
G0 X135.680 Y111.402 F10800
G1 X135.680 Y76.604 E16.0064 F600
G1 X138.352 Y76.572 E16.0953
G1 X139.920 Y76.572 E16.1474
G1 X139.920 Y113.480 E17.3750
G1 X139.871 Y114.469 E17.4079
G1 X139.728 Y115.434 E17.4404
G1 X139.491 Y116.381 E17.4728
G1 X139.162 Y117.300 E17.5053
G1 X138.745 Y118.182 E17.5377
G1 X138.244 Y119.018 E17.5702
G1 X137.663 Y119.801 E17.6026
G1 X137.009 Y120.523 E17.6350
G1 X136.287 Y121.177 E17.6674
G1 X135.505 Y121.757 E17.6998
G1 X134.671 Y122.257 E17.7321
G1 X133.791 Y122.673 E17.7645
G1 X132.875 Y123.001 E17.7969
G1 X131.932 Y123.237 E17.8292
G1 X130.971 Y123.380 E17.8615
G1 X130.000 Y123.427 E17.8938
G1 X129.029 Y123.380 E17.9262
G1 X128.068 Y123.237 E17.9585
G1 X127.125 Y123.001 E17.9908
G1 X126.209 Y122.673 E18.0232
G1 X125.329 Y122.257 E18.0555
G1 X124.495 Y121.757 E18.0879
G1 X123.713 Y121.177 E18.1203
G1 X122.991 Y120.523 E18.1527
G1 X122.337 Y119.801 E18.1851
G1 X121.756 Y119.018 E18.2175
G1 X121.255 Y118.182 E18.2500
G1 X120.838 Y117.300 E18.2824
G1 X120.509 Y116.381 E18.3148
G1 X120.272 Y115.434 E18.3473
G1 X120.129 Y114.469 E18.3798
G1 X120.080 Y113.480 E18.4127
G1 X120.080 Y76.572 E19.6403
G1 X124.320 Y76.572 E19.7813
G1 X124.320 Y112.809 E20.9865
G1 X135.680 Y112.809 E21.3644
G1 X135.680 Y111.587 E21.4050
;segType:HShell
G0 X135.880 Y112.756 F10800
G1 X139.720 Y109.010 E21.5834 F600
G1 X139.720 Y108.487
G1 X135.880 Y112.233 E21.7619
G1 X135.880 Y111.711
G1 X139.720 Y107.964 E21.9403
G1 X139.720 Y107.441
G1 X135.880 Y111.188 E22.1187
G1 X135.880 Y110.665
G1 X139.720 Y106.919 E22.2971
G1 X139.720 Y106.396
G1 X135.880 Y110.142 E22.4756
G1 X135.880 Y109.619
G1 X139.720 Y105.873 E22.6540
G1 X139.720 Y105.350
G1 X135.880 Y109.096 E22.8324
G1 X135.880 Y108.574
G1 X139.720 Y104.827 E23.0108
G1 X139.720 Y104.304
G1 X135.880 Y108.051 E23.1892
G1 X135.880 Y107.528
G1 X139.720 Y103.782 E23.3677
G1 X139.720 Y103.259
G1 X135.880 Y107.005 E23.5461
G1 X135.880 Y106.482
G1 X139.720 Y102.736 E23.7245
G1 X139.720 Y102.213
G1 X135.880 Y105.959 E23.9029
G1 X135.880 Y105.437
G1 X139.720 Y101.690 E24.0814
G1 X139.720 Y101.167
G1 X135.880 Y104.914 E24.2598
G1 X135.880 Y104.391
G1 X139.720 Y100.645 E24.4382
G1 X139.720 Y100.122
G1 X135.880 Y103.868 E24.6166
G1 X135.880 Y103.345
G1 X139.720 Y99.599 E24.7951
G1 X139.720 Y99.076
G1 X135.880 Y102.823 E24.9735
G1 X135.880 Y102.300
G1 X139.720 Y98.553 E25.1519
G1 X139.720 Y98.031
G1 X135.880 Y101.777 E25.3303
G1 X135.880 Y101.254
G1 X139.720 Y97.508 E25.5087
G1 X139.720 Y96.985
G1 X135.880 Y100.731 E25.6872
G1 X135.880 Y100.208
G1 X139.720 Y96.462 E25.8656
G1 X139.720 Y95.939
G1 X135.880 Y99.686 E26.0440
G1 X135.880 Y99.163
G1 X139.720 Y95.416 E26.2224
G1 X139.720 Y94.894
G1 X135.880 Y98.640 E26.4009
G1 X135.880 Y98.117
G1 X139.720 Y94.371 E26.5793
G1 X139.720 Y93.848
G1 X135.880 Y97.594 E26.7577
G1 X135.880 Y97.072
G1 X139.720 Y93.325 E26.9361
G1 X139.720 Y92.802
G1 X135.880 Y96.549 E27.1146
G1 X135.880 Y96.026
G1 X139.720 Y92.280 E27.2930
G1 X139.720 Y91.757
G1 X135.880 Y95.503 E27.4714
G1 X135.880 Y94.980
G1 X139.720 Y91.234 E27.6498
G1 X139.720 Y90.711
G1 X135.880 Y94.457 E27.8282
G1 X135.880 Y93.935
G1 X139.720 Y90.188 E28.0067
G1 X139.720 Y89.665
G1 X135.880 Y93.412 E28.1851
G1 X135.880 Y92.889
G1 X139.720 Y89.143 E28.3635
G1 X139.720 Y88.620
G1 X135.880 Y92.366 E28.5419
G1 X135.880 Y91.843
G1 X139.720 Y88.097 E28.7204
G1 X139.720 Y87.574
G1 X135.880 Y91.320 E28.8988
G1 X135.880 Y90.798
G1 X139.720 Y87.051 E29.0772
G1 X139.720 Y86.528
G1 X135.880 Y90.275 E29.2556
G1 X135.880 Y89.752
G1 X139.720 Y86.006 E29.4341
G1 X139.720 Y85.483
G1 X135.880 Y89.229 E29.6125
G1 X135.880 Y88.706
G1 X139.720 Y84.960 E29.7909
G1 X139.720 Y84.437
G1 X135.880 Y88.184 E29.9693
G1 X135.880 Y87.661
G1 X139.720 Y83.914 E30.1477
G1 X139.720 Y83.392
G1 X135.880 Y87.138 E30.3262
G1 X135.880 Y86.615
G1 X139.720 Y82.869 E30.5046
G1 X139.720 Y82.346
G1 X135.880 Y86.092 E30.6830
G1 X135.880 Y85.569
G1 X139.720 Y81.823 E30.8614
G1 X139.720 Y81.300
G1 X135.880 Y85.047 E31.0399
G1 X135.880 Y84.524
G1 X139.720 Y80.777 E31.2183
G1 X139.720 Y80.255
G1 X135.880 Y84.001 E31.3967
G1 X135.880 Y83.478
G1 X139.720 Y79.732 E31.5751
G1 X139.720 Y79.209
G1 X135.880 Y82.955 E31.7535
G1 X135.880 Y82.433
G1 X139.720 Y78.686 E31.9320
G1 X139.720 Y78.163
G1 X135.880 Y81.910 E32.1104
G1 X135.880 Y81.387
G1 X139.720 Y77.641 E32.2888
G1 X139.720 Y77.118
G1 X135.880 Y80.864 E32.4672
G1 X135.880 Y80.341
G1 X139.543 Y76.767 E32.6375
G1 X139.007 Y76.767
G1 X135.880 Y79.818 E32.7828
G1 X135.880 Y79.296
G1 X138.471 Y76.767 E32.9032
G1 X137.930 Y76.772
G1 X135.880 Y78.773 E32.9985
G1 X135.880 Y78.250
G1 X137.388 Y76.779 E33.0686
G1 X136.846 Y76.785
G1 X135.880 Y77.727 E33.1134
G1 X135.880 Y77.204
G1 X136.303 Y76.792 E33.1331
G0 X127.293 Y112.550 F10800
G0 X124.586 Y112.550
G0 X120.280 Y77.263
G1 X120.789 Y76.767 E33.1567 F600
G1 X121.325 Y76.767
G1 X120.280 Y77.786 E33.2052
G1 X120.280 Y78.309
G1 X121.860 Y76.767 E33.2787
G1 X122.396 Y76.767
G1 X120.280 Y78.832 E33.3770
G1 X120.280 Y79.355
G1 X122.932 Y76.767 E33.5002
G1 X123.468 Y76.767
G1 X120.280 Y79.877 E33.6483
G1 X120.280 Y80.400
G1 X124.004 Y76.767 E33.8214
G1 X124.120 Y77.177
G1 X120.280 Y80.923 E33.9998
G1 X120.280 Y81.446
G1 X124.120 Y77.699 E34.1782
G1 X124.120 Y78.222
G1 X120.280 Y81.969 E34.3566
G1 X120.280 Y82.491
G1 X124.120 Y78.745 E34.5351
G1 X124.120 Y79.268
G1 X120.280 Y83.014 E34.7135
G1 X120.280 Y83.537
G1 X124.120 Y79.791 E34.8919
G1 X124.120 Y80.314
G1 X120.280 Y84.060 E35.0703
G1 X120.280 Y84.583
G1 X124.120 Y80.836 E35.2488
G1 X124.120 Y81.359
G1 X120.280 Y85.106 E35.4272
G1 X120.280 Y85.628
G1 X124.120 Y81.882 E35.6056
G1 X124.120 Y82.405
G1 X120.280 Y86.151 E35.7840
G1 X120.280 Y86.674
G1 X124.120 Y82.928 E35.9625
G1 X124.120 Y83.451
G1 X120.280 Y87.197 E36.1409
G1 X120.280 Y87.720
G1 X124.120 Y83.973 E36.3193
G1 X124.120 Y84.496
G1 X120.280 Y88.243 E36.4977
G1 X120.280 Y88.765
G1 X124.120 Y85.019 E36.6762
G1 X124.120 Y85.542
G1 X120.280 Y89.288 E36.8546
G1 X120.280 Y89.811
G1 X124.120 Y86.065 E37.0330
G1 X124.120 Y86.587
G1 X120.280 Y90.334 E37.2114
G1 X120.280 Y90.857
G1 X124.120 Y87.110 E37.3899
G1 X124.120 Y87.633
G1 X120.280 Y91.379 E37.5683
G1 X120.280 Y91.902
G1 X124.120 Y88.156 E37.7467
G1 X124.120 Y88.679
G1 X120.280 Y92.425 E37.9251
G1 X120.280 Y92.948
G1 X124.120 Y89.202 E38.1036
G1 X124.120 Y89.724
G1 X120.280 Y93.471 E38.2820
G1 X120.280 Y93.994
G1 X124.120 Y90.247 E38.4604
G1 X124.120 Y90.770
G1 X120.280 Y94.516 E38.6388
G1 X120.280 Y95.039
G1 X124.120 Y91.293 E38.8173
G1 X124.120 Y91.816
G1 X120.280 Y95.562 E38.9957
G1 X120.280 Y96.085
G1 X124.120 Y92.338 E39.1741
G1 X124.120 Y92.861
G1 X120.280 Y96.608 E39.3525
G1 X120.280 Y97.130
G1 X124.120 Y93.384 E39.5310
G1 X124.120 Y93.907
G1 X120.280 Y97.653 E39.7094
G1 X120.280 Y98.176
G1 X124.120 Y94.430 E39.8878
G1 X124.120 Y94.953
G1 X120.280 Y98.699 E40.0662
G1 X120.280 Y99.222
G1 X124.120 Y95.475 E40.2447
G1 X124.120 Y95.998
G1 X120.280 Y99.745 E40.4231
G1 X120.280 Y100.267
G1 X124.120 Y96.521 E40.6015
G1 X124.120 Y97.044
G1 X120.280 Y100.790 E40.7799
G1 X120.280 Y101.313
G1 X124.120 Y97.567 E40.9584
G1 X124.120 Y98.090
G1 X120.280 Y101.836 E41.1368
G1 X120.280 Y102.359
G1 X124.120 Y98.612 E41.3152
G1 X124.120 Y99.135
G1 X120.280 Y102.882 E41.4936
G1 X120.280 Y103.404
G1 X124.120 Y99.658 E41.6721
G1 X124.120 Y100.181
G1 X120.280 Y103.927 E41.8505
G1 X120.280 Y104.450
G1 X124.120 Y100.704 E42.0289
G1 X124.120 Y101.226
G1 X120.280 Y104.973 E42.2073
G1 X120.280 Y105.496
G1 X124.120 Y101.749 E42.3858
G1 X124.120 Y102.272
G1 X120.280 Y106.018 E42.5642
G1 X120.280 Y106.541
G1 X124.120 Y102.795 E42.7426
G1 X124.120 Y103.318
G1 X120.280 Y107.064 E42.9210
G1 X120.280 Y107.587
G1 X124.120 Y103.841 E43.0995
G1 X124.120 Y104.363
G1 X120.280 Y108.110 E43.2779
G1 X120.280 Y108.633
G1 X124.120 Y104.886 E43.4563
G1 X124.120 Y105.409
G1 X120.280 Y109.155 E43.6347
G1 X120.280 Y109.678
G1 X124.120 Y105.932 E43.8132
G1 X124.120 Y106.455
G1 X120.280 Y110.201 E43.9916
G1 X120.280 Y110.724
G1 X124.120 Y106.977 E44.1700
G1 X124.120 Y107.500
G1 X120.280 Y111.247 E44.3484
G1 X120.280 Y111.769
G1 X124.120 Y108.023 E44.5268
G1 X124.120 Y108.546
G1 X120.280 Y112.292 E44.7053
G1 X120.280 Y112.815
G1 X124.120 Y109.069 E44.8837
G1 X124.120 Y109.592
G1 X120.280 Y113.338 E45.0621
G1 X120.298 Y113.843
G1 X124.120 Y110.114 E45.2397
G1 X124.120 Y110.637
G1 X120.323 Y114.342 E45.4162
G1 X120.381 Y114.808
G1 X124.120 Y111.160 E45.5899
G1 X124.120 Y111.683
G1 X120.449 Y115.265 E45.7605
G1 X120.543 Y115.695
G1 X124.120 Y112.206 E45.9267
G1 X124.120 Y112.729
G1 X120.648 Y116.116 E46.0880
G1 X120.770 Y116.520
G1 X124.373 Y113.004 E46.2554
G1 X124.909 Y113.004
G1 X120.909 Y116.907 E46.4413
G1 X121.053 Y117.289
G1 X125.445 Y113.004 E46.6454
G1 X125.981 Y113.004
G1 X121.222 Y117.647 E46.8665
G1 X121.391 Y118.005
G1 X126.516 Y113.004 E47.1046
G1 X127.052 Y113.004
G1 X121.582 Y118.341 E47.3588
G1 X121.780 Y118.671
G1 X127.588 Y113.004 E47.6287
G1 X128.124 Y113.004
G1 X121.985 Y118.994 E47.9140
G1 X122.210 Y119.297
G1 X128.660 Y113.004 E48.2137
G1 X129.196 Y113.004
G1 X122.435 Y119.601 E48.5278
G1 X122.680 Y119.885
G1 X129.731 Y113.004 E48.8555
G1 X130.267 Y113.004
G1 X122.931 Y120.162 E49.1964
G1 X123.188 Y120.435
G1 X130.803 Y113.004 E49.5503
G1 X131.339 Y113.004
G1 X123.465 Y120.687 E49.9162
G1 X123.743 Y120.938
G1 X131.875 Y113.004 E50.2940
G1 X132.411 Y113.004
G1 X124.038 Y121.173 E50.6831
G1 X124.343 Y121.399
G1 X132.946 Y113.004 E51.0829
G1 X133.482 Y113.004
G1 X124.650 Y121.622 E51.4933
G1 X124.982 Y121.821
G1 X134.018 Y113.004 E51.9132
G1 X134.554 Y113.004
G1 X125.315 Y122.019 E52.3426
G0 X135.397 Y121.592 F10800
G1 X137.895 Y119.155 E52.4586 F600
G0 X138.669 Y117.877 F10800
G1 X134.150 Y122.287 E52.6686 F600
G0 X133.222 Y122.669 F10800
G1 X139.071 Y116.962 E52.9404 F600
G1 X139.335 Y116.182
G1 X132.441 Y122.908 E53.2608
G1 X131.741 Y123.068
G1 X139.508 Y115.490 E53.6217
G1 X139.610 Y114.868
G1 X131.110 Y123.162 E54.0167
G1 X130.528 Y123.206
G1 X139.680 Y114.276 E54.4420
G1 X139.707 Y113.727
G1 X129.968 Y123.230 E54.8946
G1 X129.458 Y123.205
G1 X139.720 Y113.192 E55.3715
G1 X139.720 Y112.670
G1 X128.956 Y123.171 E55.8716
G1 X128.491 Y123.103
G1 X139.720 Y112.147 E56.3934
G1 X139.720 Y111.624
G1 X128.033 Y123.027 E56.9365
G1 X127.606 Y122.920
G1 X139.720 Y111.101 E57.4994
G1 X139.720 Y110.578
G1 X127.180 Y122.813 E58.0821
G1 X126.788 Y122.673
G1 X139.720 Y110.055 E58.6830
G1 X139.720 Y109.533
G1 X126.396 Y122.532 E59.3021
G1 X126.027 Y122.370
G1 X135.626 Y113.004 E59.7482
;segType:Support
G0 F4800 E58.7482
G0 X133.805 Y110.499 F10800
G0 F4800 E59.7482
G1 X132.905 Y110.499 E59.7737 F900
G1 X132.905 Y111.399 E59.7991
G1 X132.905 Y111.399
G1 X133.805 Y111.399 E59.8245
G1 X133.805 Y111.399
G1 X133.805 Y110.499 E59.8500
G1 X134.480 Y109.938 E59.8748
G1 X134.081 Y109.938 E59.8861
G1 X134.081 Y109.938
G1 X134.081 Y109.038 E59.9115
G1 X134.480 Y109.038 E59.9228
G0 F4800 E58.9228
G0 X134.480 Y107.888 F10800
G0 F4800 E59.9228
G1 X134.174 Y107.888 E59.9314 F900
G1 X134.174 Y107.888
G1 X134.174 Y106.988 E59.9569
G1 X134.480 Y106.988 E59.9655
G0 X134.480 Y106.045 F10800
G1 X134.432 Y106.045 E59.9669 F900
G1 X134.432 Y106.045
G1 X134.432 Y105.145 E59.9923
G1 X134.480 Y105.145 E59.9936
G0 F4800 E58.9936
G0 X134.480 Y103.249 F10800
G0 F4800 E59.9936
G1 X134.332 Y103.249 E59.9978 F900
G1 X134.332 Y102.649 E60.0148
G1 X134.480 Y102.649 E60.0189
G0 F4800 E59.0189
G0 X134.480 Y101.096 F10800
G0 F4800 E60.0189
G1 X134.339 Y101.096 E60.0229 F900
G1 X134.339 Y101.096
G1 X134.339 Y100.196 E60.0484
G1 X134.480 Y100.196 E60.0523
G0 F4800 E59.0523
G0 X134.480 Y98.281 F10800
G0 F4800 E60.0523
G1 X134.156 Y98.281 E60.0615 F900
G1 X134.156 Y97.681 E60.0784
G1 X134.480 Y97.681 E60.0876
G0 F4800 E59.0876
G0 X134.480 Y96.217 F10800
G0 F4800 E60.0876
G1 X134.420 Y96.217 E60.0893 F900
G1 X134.420 Y96.217
G1 X134.420 Y95.317 E60.1147
G1 X134.420 Y95.317
G1 X134.480 Y95.317 E60.1164
G0 F4800 E59.1164
G0 X134.480 Y94.278 F10800
G0 F4800 E60.1164
G1 X134.195 Y94.278 E60.1245 F900
G1 X134.195 Y93.678 E60.1415
G1 X134.480 Y93.678 E60.1495
G0 F4800 E59.1495
G0 X134.182 Y92.669 F10800
G0 F4800 E60.1495
G1 X134.182 Y91.769 E60.1750 F900
G1 X134.182 Y91.769
G1 X134.480 Y91.769 E60.1834
G0 X134.480 Y92.669 F10800
G1 X134.182 Y92.669 E60.1918 F900
G0 F4800 E59.1918
G0 X134.351 Y90.255 F10800
G0 F4800 E60.1918
G1 X134.480 Y90.255 E60.1954 F900
G1 X134.480 Y89.655 E60.2124
G1 X134.351 Y89.655 E60.2161
G0 X134.480 Y88.740 F10800
G1 X134.006 Y88.740 E60.2294 F900
G1 X134.006 Y88.740
G1 X134.006 Y87.840 E60.2549
G1 X134.480 Y87.840 E60.2683
G1 X134.006 Y87.840 E60.2817
G0 F4800 E59.2817
G0 X134.367 Y86.325 F10800
G0 F4800 E60.2817
G1 X134.480 Y86.325 E60.2849 F900
G1 X134.480 Y85.725 E60.3018
G1 X134.367 Y85.725 E60.3050
G1 X134.480 Y85.034 E60.3248
G1 X133.827 Y85.034 E60.3433
G0 F4800 E59.3433
G0 X134.480 Y84.134 F10800
G0 F4800 E60.3433
G1 X133.827 Y84.134 E60.3617 F900
G1 X133.827 Y85.034 E60.3872
G0 F4800 E59.3872
G0 X133.998 Y83.199 F10800
G0 F4800 E60.3872
G1 X134.480 Y83.199 E60.4008 F900
G1 X133.998 Y83.199 E60.4144
G1 X133.998 Y82.299 E60.4398
G1 X134.480 Y82.299 E60.4535
G0 F4800 E59.4535
G0 X134.480 Y80.531 F10800
G0 F4800 E60.4535
G1 X133.766 Y80.531 E60.4737 F900
G1 X133.766 Y80.531
G1 X133.766 Y79.631 E60.4991
G1 X134.480 Y79.631 E60.5193
G0 F4800 E59.5193
G0 X133.698 Y77.930 F10800
G0 F4800 E60.5193
G1 X134.480 Y77.930 E60.5414 F900
G0 X134.480 Y77.030 F10800
G1 X133.698 Y77.030 E60.5635 F900
G1 X133.698 Y77.930 E60.5890
G0 F4800 E59.5890
G0 X126.556 Y77.376 F10800
G0 F4800 E60.5890
G1 X125.656 Y77.376 E60.6144 F900
G1 X125.656 Y77.376
G1 X125.656 Y76.476 E60.6398
G1 X125.656 Y76.476
G1 X126.556 Y76.476 E60.6653
G1 X126.556 Y76.476
G1 X126.556 Y77.376 E60.6907
G0 F4800 E59.6907
G0 X126.729 Y79.112 F10800
G0 F4800 E60.6907
G1 X125.829 Y79.112 E60.7162 F900
G1 X125.829 Y80.012 E60.7416
G1 X125.829 Y80.012
G1 X126.729 Y80.012 E60.7671
G1 X126.729 Y80.012
G1 X126.729 Y79.112 E60.7925
G0 F4800 E59.7925
G0 X126.802 Y81.827 F10800
G0 F4800 E60.7925
G1 X126.802 Y80.927 E60.8180 F900
G1 X126.802 Y80.927
G1 X125.902 Y80.927 E60.8434
G1 X125.902 Y81.827 E60.8688
G1 X125.902 Y81.827
G1 X126.802 Y81.827 E60.8943
G0 F4800 E59.8943
G0 X126.685 Y86.187 F10800
G0 F4800 E60.8943
G1 X125.785 Y86.187 E60.9197 F900
G1 X125.785 Y86.187
G1 X125.785 Y85.287 E60.9452
G1 X125.785 Y85.287
G1 X126.685 Y85.287 E60.9706
G1 X126.685 Y85.287
G1 X126.685 Y86.187 E60.9961
G0 F4800 E59.9961
G0 X126.454 Y90.716 F10800
G0 F4800 E60.9961
G1 X125.554 Y90.716 E61.0215 F900
G1 X125.554 Y90.716
G1 X125.554 Y89.816 E61.0470
G1 X126.454 Y89.816 E61.0724
G1 X126.454 Y89.816
G1 X126.454 Y90.716 E61.0978
G0 F4800 E60.0978
G0 X126.482 Y92.686 F10800
G0 F4800 E61.0978
G1 X125.582 Y92.686 E61.1233 F900
G1 X125.582 Y93.586 E61.1487
G1 X125.582 Y93.586
G1 X126.482 Y93.586 E61.1742
G1 X126.482 Y93.586
G1 X126.482 Y92.686 E61.1996
G0 F4800 E60.1996
G0 X126.461 Y97.809 F10800
G0 F4800 E61.1996
G1 X126.461 Y96.909 E61.2251 F900
G1 X126.461 Y96.909
G1 X125.561 Y96.909 E61.2505
G1 X125.561 Y97.809 E61.2759
G1 X125.561 Y97.809
G1 X126.461 Y97.809 E61.3014
G0 F4800 E60.3014
G0 X126.537 Y100.419 F10800
G0 F4800 E61.3014
G1 X126.537 Y99.519 E61.3268 F900
G1 X126.537 Y99.519
G1 X125.637 Y99.519 E61.3523
G1 X125.637 Y99.519
G1 X125.637 Y100.419 E61.3777
G1 X125.637 Y100.419
G1 X126.537 Y100.419 E61.4032
G0 F4800 E60.4032
G0 X126.659 Y102.597 F10800
G0 F4800 E61.4032
G1 X126.659 Y101.697 E61.4286 F900
G1 X126.659 Y101.697
G1 X125.759 Y101.697 E61.4541
G1 X125.759 Y102.597 E61.4795
G1 X125.759 Y102.597
G1 X126.659 Y102.597 E61.5049
G0 F4800 E60.5049
G0 X125.729 Y104.194 F10800
G0 F4800 E61.5049
G1 X126.629 Y104.194 E61.5304 F900
G1 X126.629 Y104.194
G1 X126.629 Y105.094 E61.5558
G1 X126.629 Y105.094
G1 X125.729 Y105.094 E61.5813
G1 X125.729 Y105.094
G1 X125.729 Y104.194 E61.6067
G0 F4800 E60.6067
G0 X125.520 Y107.352 F10800
G0 F4800 E61.6067
G1 X126.302 Y107.352 E61.6288 F900
G1 X126.302 Y107.352
G1 X126.302 Y108.252 E61.6543
G1 X126.302 Y108.252
G1 X125.520 Y108.252 E61.6764
G0 F4800 E60.6764
G0 X126.094 Y110.198 F10800
G0 F4800 E61.6764
G1 X126.094 Y111.098 E61.7018 F900
G1 X126.094 Y111.098
G1 X125.520 Y111.098 E61.7180
G0 X125.520 Y110.198 F10800
G1 X126.094 Y110.198 E61.7342 F900
G0 F4800 E60.7342
G0 X127.166 Y111.070 F10800
G0 F4800 E61.7342
G1 X127.166 Y111.638 E61.7503 F900
G0 F4800 E60.7503
G0 X125.996 Y111.576 F10800
G0 F4800 E61.7503
G1 X125.520 Y111.576 E61.7637 F900
G1 X125.996 Y111.638 E61.7773
G1 X125.996 Y111.576 E61.7791
G1 X126.038 Y111.638 E61.7812
G1 X126.266 Y111.638 E61.7876
G1 X126.266 Y111.070 E61.8037
G1 X127.166 Y111.070 E61.8291
G1 X127.588 Y111.638 E61.8491
G1 X127.588 Y110.919 E61.8695
G1 X128.488 Y110.919 E61.8949
G1 X128.488 Y110.919
G1 X128.488 Y111.638 E61.9152
G1 X128.979 Y111.638 E61.9291
G1 X128.979 Y111.008 E61.9469
G1 X129.879 Y111.008 E61.9724
G1 X129.879 Y111.638 E61.9902
G1 X129.879 Y111.008 E62.0080
G1 X130.809 Y110.939 E62.0344
G1 X131.709 Y110.939 E62.0598
G1 X130.809 Y110.939 E62.0853
G1 X130.809 Y111.638 E62.1050
G0 F4800 E61.1050
G0 X131.709 Y110.939 F10800
G0 F4800 E62.1050
G1 X131.709 Y111.638 E62.1248 F900
; ------------------------------------
; Layer #1
; ------------------------------------
G21 ; mm
G90 ; abs
G92 E0 ; reset extr
M106 S0
;segType:Support
G0 F4800 E-1.0000
G0 F300 Z0.400
G0 X131.709 Y111.638 F10800
G0 F4800 E0.0000
G1 X131.709 Y110.939 E0.0198 F5400
G1 X131.709 Y110.939
G1 X130.809 Y110.939 E0.0452
G1 X129.879 Y111.008 E0.0716
G1 X129.879 Y111.638 E0.0894
G0 X130.809 Y111.638 F10800
G1 X130.809 Y110.939 E0.1092 F5400
G0 X129.879 Y111.008 F10800
G1 X128.979 Y111.008 E0.1346 F5400
G1 X128.979 Y111.638 E0.1524
G1 X128.488 Y111.638 E0.1663
G1 X128.488 Y110.919 E0.1866
G1 X128.488 Y110.919
G1 X127.588 Y110.919 E0.2121
G1 X127.588 Y111.638 E0.2324
G1 X127.166 Y111.638 E0.2443
G1 X127.166 Y111.070 E0.2604
G1 X127.166 Y111.070
G1 X126.266 Y111.070 E0.2858
G1 X126.266 Y111.638 E0.3019
G1 X126.038 Y111.638 E0.3083
G1 X125.996 Y111.576 E0.3105
G1 X125.996 Y111.638 E0.3122
G1 X125.996 Y111.576 E0.3140
G1 X125.520 Y111.576 E0.3274
G0 F4800 E-0.6726
G0 X125.520 Y110.198 F10800
G0 F4800 E0.3274
G1 X126.094 Y110.198 E0.3436 F5400
G1 X126.094 Y110.198
G1 X126.094 Y111.098 E0.3691
G1 X126.094 Y111.098
G1 X125.520 Y111.098 E0.3853
G0 F4800 E-0.6147
G0 X125.520 Y107.352 F10800
G0 F4800 E0.3853
G1 X126.302 Y107.352 E0.4074 F5400
G1 X126.302 Y107.352
G1 X126.302 Y108.252 E0.4328
G1 X126.302 Y108.252
G1 X125.520 Y108.252 E0.4549
G0 F4800 E-0.5451
G0 X126.629 Y104.194 F10800
G0 F4800 E0.4549
G1 X126.629 Y105.094 E0.4804 F5400
G1 X126.629 Y105.094
G1 X125.729 Y105.094 E0.5058
G1 X125.729 Y105.094
G1 X125.729 Y104.194 E0.5313
G1 X125.729 Y104.194
G1 X126.629 Y104.194 E0.5567
G0 F4800 E-0.4433
G0 X126.659 Y101.697 F10800
G0 F4800 E0.5567
G1 X126.659 Y102.597 E0.5822 F5400
G1 X126.659 Y102.597
G1 X125.759 Y102.597 E0.6076
G1 X125.759 Y102.597
G1 X125.759 Y101.697 E0.6330
G1 X126.659 Y101.697 E0.6585
G0 F4800 E-0.3415
G0 X126.537 Y99.519 F10800
G0 F4800 E0.6585
G1 X126.537 Y100.419 E0.6839 F5400
G1 X126.537 Y100.419
G1 X125.637 Y100.419 E0.7094
G1 X125.637 Y100.419
G1 X125.637 Y99.519 E0.7348
G1 X125.637 Y99.519
G1 X126.537 Y99.519 E0.7603
G0 F4800 E-0.2397
G0 X125.561 Y97.809 F10800
G0 F4800 E0.7603
G1 X126.461 Y97.809 E0.7857 F5400
G1 X126.461 Y97.809
G1 X126.461 Y96.909 E0.8112
G1 X126.461 Y96.909
G1 X125.561 Y96.909 E0.8366
G1 X125.561 Y97.809 E0.8620
G0 F4800 E-0.1380
G0 X126.482 Y93.586 F10800
G0 F4800 E0.8620
G1 X126.482 Y92.686 E0.8875 F5400
G1 X126.482 Y92.686
G1 X125.582 Y92.686 E0.9129
G1 X125.582 Y93.586 E0.9384
G1 X125.582 Y93.586
G1 X126.482 Y93.586 E0.9638
G0 F4800 E-0.0362
G0 X126.454 Y90.716 F10800
G0 F4800 E0.9638
G1 X125.554 Y90.716 E0.9893 F5400
G1 X125.554 Y90.716
G1 X125.554 Y89.816 E1.0147
G1 X126.454 Y89.816 E1.0401
G1 X126.454 Y89.816
G1 X126.454 Y90.716 E1.0656
G0 F4800 E0.0656
G0 X125.785 Y85.287 F10800
G0 F4800 E1.0656
G1 X126.685 Y85.287 E1.0910 F5400
G1 X126.685 Y85.287
G1 X126.685 Y86.187 E1.1165
G1 X126.685 Y86.187
G1 X125.785 Y86.187 E1.1419
G1 X125.785 Y86.187
G1 X125.785 Y85.287 E1.1674
G0 F4800 E0.1674
G0 X126.802 Y81.827 F10800
G0 F4800 E1.1674
G1 X125.902 Y81.827 E1.1928 F5400
G1 X125.902 Y81.827
G1 X125.902 Y80.927 E1.2183
G1 X126.802 Y80.927 E1.2437
G1 X126.802 Y80.927
G1 X126.802 Y81.827 E1.2691
G0 F4800 E0.2691
G0 X126.729 Y80.012 F10800
G0 F4800 E1.2691
G1 X126.729 Y79.112 E1.2946 F5400
G1 X126.729 Y79.112
G1 X125.829 Y79.112 E1.3200
G1 X125.829 Y80.012 E1.3455
G1 X125.829 Y80.012
G1 X126.729 Y80.012 E1.3709
G0 F4800 E0.3709
G0 X125.656 Y76.476 F10800
G0 F4800 E1.3709
G1 X126.556 Y76.476 E1.3964 F5400
G1 X126.556 Y76.476
G1 X126.556 Y77.376 E1.4218
G1 X126.556 Y77.376
G1 X125.656 Y77.376 E1.4473
G1 X125.656 Y77.376
G1 X125.656 Y76.476 E1.4727
G0 F4800 E0.4727
G0 X134.480 Y77.030 F10800
G0 F4800 E1.4727
G1 X133.698 Y77.030 E1.4948 F5400
G1 X133.698 Y77.930 E1.5203
G1 X133.698 Y77.930
G1 X134.480 Y77.930 E1.5424
G0 F4800 E0.5424
G0 X134.480 Y79.631 F10800
G0 F4800 E1.5424
G1 X133.766 Y79.631 E1.5626 F5400
G1 X133.766 Y80.531 E1.5880
G1 X133.766 Y80.531 E1.5880
G1 X134.480 Y80.531 E1.6082
G0 F4800 E0.6082
G0 X133.998 Y83.199 F10800
G0 F4800 E1.6082
G1 X133.998 Y82.299 E1.6336 F5400
G1 X134.480 Y82.299 E1.6473
G0 X134.480 Y83.199 F10800
G1 X133.998 Y83.199 E1.6609 F5400
G0 F4800 E0.6609
G0 X134.480 Y84.134 F10800
G0 F4800 E1.6609
G1 X133.827 Y84.134 E1.6793 F5400
G1 X133.827 Y85.034 E1.7048
G1 X133.827 Y85.034
G1 X134.480 Y85.034 E1.7232
G1 X134.480 Y85.725 E1.7428
G1 X134.367 Y85.725 E1.7460
G1 X134.367 Y86.325 E1.7629
G1 X134.480 Y86.325 E1.7661
G0 F4800 E0.7661
G0 X134.480 Y87.840 F10800
G0 F4800 E1.7661
G1 X134.006 Y87.840 E1.7795 F5400
G1 X134.006 Y87.840
G1 X134.006 Y88.740 E1.8049
G1 X134.006 Y88.740
G1 X134.480 Y88.740 E1.8183
G0 X134.480 Y89.655 F10800
G1 X134.351 Y89.655 E1.8220 F5400
G1 X134.351 Y90.255 E1.8389
G1 X134.480 Y90.255 E1.8426
G0 F4800 E0.8426
G0 X134.480 Y91.769 F10800
G0 F4800 E1.8426
G1 X134.182 Y91.769 E1.8510 F5400
G1 X134.182 Y91.769
G1 X134.182 Y92.669 E1.8765
G1 X134.182 Y92.669
G1 X134.480 Y92.669 E1.8849
G0 F4800 E0.8849
G0 X134.480 Y93.678 F10800
G0 F4800 E1.8849
G1 X134.195 Y93.678 E1.8929 F5400
G1 X134.195 Y94.278 E1.9099
G1 X134.480 Y94.278 E1.9180
G0 F4800 E0.9180
G0 X134.420 Y95.317 F10800
G0 F4800 E1.9180
G1 X134.420 Y96.217 E1.9434 F5400
G1 X134.420 Y96.217
G1 X134.480 Y96.217 E1.9451
G0 X134.480 Y95.317 F10800
G1 X134.420 Y95.317 E1.9468 F5400
G0 F4800 E0.9468
G0 X134.156 Y97.681 F10800
G0 F4800 E1.9468
G1 X134.480 Y97.681 E1.9559 F5400
G1 X134.480 Y98.281 E1.9729
G1 X134.156 Y98.281 E1.9820
G0 F4800 E0.9820
G0 X134.480 Y100.196 F10800
G0 F4800 E1.9820
G1 X134.339 Y100.196 E1.9860 F5400
G1 X134.339 Y101.096 E2.0115
G1 X134.339 Y101.096
G1 X134.480 Y101.096 E2.0154
G0 F4800 E1.0154
G0 X134.480 Y102.649 F10800
G0 F4800 E2.0154
G1 X134.332 Y102.649 E2.0196 F5400
G1 X134.332 Y103.249 E2.0366
G1 X134.480 Y103.249 E2.0407
G0 F4800 E1.0407
G0 X134.480 Y106.045 F10800
G0 F4800 E2.0407
G1 X134.432 Y106.045 E2.0421 F5400
G1 X134.432 Y106.045
G1 X134.432 Y105.145 E2.0675
G1 X134.480 Y105.145 E2.0689
G0 F4800 E1.0689
G0 X134.480 Y106.988 F10800
G0 F4800 E2.0689
G1 X134.174 Y106.988 E2.0775 F5400
G1 X134.174 Y107.888 E2.1030
G1 X134.174 Y107.888
G1 X134.480 Y107.888 E2.1116
G0 F4800 E1.1116
G0 X134.480 Y109.038 F10800
G0 F4800 E2.1116
G1 X134.081 Y109.038 E2.1229 F5400
G1 X134.081 Y109.938 E2.1483
G1 X134.081 Y109.938
G1 X134.480 Y109.938 E2.1596
;segType:HShell
G0 F4800 E1.1596
G0 X134.979 Y113.004 F10800
G0 F4800 E2.1596
G1 X139.254 Y117.176 E2.3583 F3600
G1 X139.097 Y117.545
G1 X134.443 Y113.004 E2.5745
;segType:Perimeter
G0 X135.019 Y112.978 F10800
G1 X135.280 Y112.363 E2.5967 F2159
G1 X135.280 Y75.940 E3.8082
G1 X136.159 Y75.937 E3.8374
G1 X140.564 Y75.937 E3.9839
G1 X140.564 Y113.489 E5.2329
G1 X140.513 Y114.530 E5.2676
G1 X140.361 Y115.556 E5.3021
G1 X140.109 Y116.563 E5.3366
G1 X139.760 Y117.540 E5.3711
G1 X139.316 Y118.478 E5.4056
G1 X138.783 Y119.367 E5.4401
G1 X138.165 Y120.201 E5.4746
G1 X137.468 Y120.969 E5.5091
G1 X136.700 Y121.665 E5.5436
G1 X135.867 Y122.283 E5.5781
G1 X134.978 Y122.816 E5.6126
G1 X134.041 Y123.259 E5.6470
G1 X133.065 Y123.608 E5.6815
G1 X132.060 Y123.860 E5.7160
G1 X131.035 Y124.012 E5.7505
G1 X130.000 Y124.063 E5.7849
G1 X128.965 Y124.012 E5.8194
G1 X127.940 Y123.860 E5.8539
G1 X126.935 Y123.608 E5.8883
G1 X125.959 Y123.259 E5.9228
G1 X125.022 Y122.816 E5.9573
G1 X124.133 Y122.283 E5.9918
G1 X123.300 Y121.665 E6.0262
G1 X122.532 Y120.969 E6.0607
G1 X121.835 Y120.201 E6.0952
G1 X121.217 Y119.367 E6.1297
G1 X120.684 Y118.478 E6.1642
G1 X120.240 Y117.540 E6.1987
G1 X119.891 Y116.563 E6.2332
G1 X119.639 Y115.556 E6.2677
G1 X119.487 Y114.530 E6.3023
G1 X119.436 Y113.489 E6.3369
G1 X119.436 Y75.938 E7.5859
G1 X124.720 Y75.976 E7.7616
G1 X124.720 Y112.419 E8.9737
G1 X135.223 Y112.419 E9.3231
G1 X135.853 Y112.164
;segType:Loop
G0 X135.680 Y111.402 F10800
G1 X135.680 Y76.329 E10.4896 F3600
G1 X140.164 Y76.327 E10.6388
G1 X140.164 Y113.480 E11.8745
G1 X140.115 Y114.493 E11.9082
G1 X139.968 Y115.482 E11.9414
G1 X139.725 Y116.452 E11.9747
G1 X139.388 Y117.394 E12.0080
G1 X138.961 Y118.297 E12.0412
G1 X138.447 Y119.154 E12.0744
G1 X137.852 Y119.956 E12.1077
G1 X137.182 Y120.696 E12.1409
G1 X136.442 Y121.366 E12.1741
G1 X135.641 Y121.961 E12.2072
G1 X134.786 Y122.473 E12.2404
G1 X133.885 Y122.899 E12.2736
G1 X132.947 Y123.235 E12.3067
G1 X131.980 Y123.477 E12.3398
G1 X130.995 Y123.623 E12.3730
G1 X130.000 Y123.672 E12.4061
G1 X129.005 Y123.623 E12.4392
G1 X128.020 Y123.477 E12.4724
G1 X127.054 Y123.235 E12.5055
G1 X126.115 Y122.899 E12.5386
G1 X125.214 Y122.473 E12.5718
G1 X124.359 Y121.961 E12.6050
G1 X123.558 Y121.366 E12.6381
G1 X122.818 Y120.696 E12.6713
G1 X122.148 Y119.956 E12.7045
G1 X121.553 Y119.154 E12.7378
G1 X121.039 Y118.297 E12.7710
G1 X120.612 Y117.394 E12.8042
G1 X120.275 Y116.452 E12.8375
G1 X120.032 Y115.482 E12.8708
G1 X119.885 Y114.493 E12.9040
G1 X119.836 Y113.480 E12.9377
G1 X119.836 Y76.331 E14.1733
G1 X124.320 Y76.364 E14.3225
G1 X124.320 Y112.809 E15.5346
G1 X135.680 Y112.809 E15.9125
G1 X135.680 Y111.587 E15.9531
;segType:HShell
G0 X135.515 Y113.004 F10800
G1 X139.393 Y116.788 E16.1333 F3600
G1 X139.532 Y116.401
G1 X135.880 Y112.838 E16.3030
G1 X135.880 Y112.315
G1 X139.637 Y115.981 E16.4776
G1 X139.742 Y115.561
G1 X135.880 Y111.792 E16.6571
G1 X135.880 Y111.270
G1 X139.820 Y115.114 E16.8402
G1 X139.888 Y114.658
G1 X135.880 Y110.747 E17.0264
G1 X135.880 Y110.224
G1 X139.930 Y114.176 E17.2146
G1 X139.954 Y113.677
G1 X135.880 Y109.701 E17.4040
G1 X135.880 Y109.178
G1 X139.964 Y113.163 E17.5938
G1 X139.964 Y112.641
G1 X135.880 Y108.656 E17.7836
G1 X135.880 Y108.133
G1 X139.964 Y112.118 E17.9734
G1 X139.964 Y111.595
G1 X135.880 Y107.610 E18.1632
G1 X135.880 Y107.087
G1 X139.964 Y111.072 E18.3530
G1 X139.964 Y110.549
G1 X135.880 Y106.564 E18.5427
G1 X135.880 Y106.041
G1 X139.964 Y110.027 E18.7325
G1 X139.964 Y109.504
G1 X135.880 Y105.519 E18.9223
G1 X135.880 Y104.996
G1 X139.964 Y108.981 E19.1121
G1 X139.964 Y108.458
G1 X135.880 Y104.473 E19.3019
G1 X135.880 Y103.950
G1 X139.964 Y107.935 E19.4917
G1 X139.964 Y107.412
G1 X135.880 Y103.427 E19.6815
G1 X135.880 Y102.904
G1 X139.964 Y106.890 E19.8713
G1 X139.964 Y106.367
G1 X135.880 Y102.382 E20.0611
G1 X135.880 Y101.859
G1 X139.964 Y105.844 E20.2509
G1 X139.964 Y105.321
G1 X135.880 Y101.336 E20.4407
G1 X135.880 Y100.813
G1 X139.964 Y104.798 E20.6305
G1 X139.964 Y104.275
G1 X135.880 Y100.290 E20.8203
G1 X135.880 Y99.768
G1 X139.964 Y103.753 E21.0101
G1 X139.964 Y103.230
G1 X135.880 Y99.245 E21.1999
G1 X135.880 Y98.722
G1 X139.964 Y102.707 E21.3897
G1 X139.964 Y102.184
G1 X135.880 Y98.199 E21.5795
G1 X135.880 Y97.676
G1 X139.964 Y101.661 E21.7693
G1 X139.964 Y101.139
G1 X135.880 Y97.153 E21.9590
G1 X135.880 Y96.631
G1 X139.964 Y100.616 E22.1488
G1 X139.964 Y100.093
G1 X135.880 Y96.108 E22.3386
G1 X135.880 Y95.585
G1 X139.964 Y99.570 E22.5284
G1 X139.964 Y99.047
G1 X135.880 Y95.062 E22.7182
G1 X135.880 Y94.539
G1 X139.964 Y98.524 E22.9080
G1 X139.964 Y98.002
G1 X135.880 Y94.017 E23.0978
G1 X135.880 Y93.494
G1 X139.964 Y97.479 E23.2876
G1 X139.964 Y96.956
G1 X135.880 Y92.971 E23.4774
G1 X135.880 Y92.448
G1 X139.964 Y96.433 E23.6672
G1 X139.964 Y95.910
G1 X135.880 Y91.925 E23.8570
G1 X135.880 Y91.402
G1 X139.964 Y95.388 E24.0468
G1 X139.964 Y94.865
G1 X135.880 Y90.880 E24.2366
G1 X135.880 Y90.357
G1 X139.964 Y94.342 E24.4264
G1 X139.964 Y93.819
G1 X135.880 Y89.834 E24.6162
G1 X135.880 Y89.311
G1 X139.964 Y93.296 E24.8060
G1 X139.964 Y92.773
G1 X135.880 Y88.788 E24.9958
G1 X135.880 Y88.265
G1 X139.964 Y92.251 E25.1856
G1 X139.964 Y91.728
G1 X135.880 Y87.743 E25.3753
G1 X135.880 Y87.220
G1 X139.964 Y91.205 E25.5651
G1 X139.964 Y90.682
G1 X135.880 Y86.697 E25.7549
G1 X135.880 Y86.174
G1 X139.964 Y90.159 E25.9447
G1 X139.964 Y89.636
G1 X135.880 Y85.651 E26.1345
G1 X135.880 Y85.129
G1 X139.964 Y89.114 E26.3243
G1 X139.964 Y88.591
G1 X135.880 Y84.606 E26.5141
G1 X135.880 Y84.083
G1 X139.964 Y88.068 E26.7039
G1 X139.964 Y87.545
G1 X135.880 Y83.560 E26.8937
G1 X135.880 Y83.037
G1 X139.964 Y87.022 E27.0835
G1 X139.964 Y86.500
G1 X135.880 Y82.514 E27.2733
G1 X135.880 Y81.992
G1 X139.964 Y85.977 E27.4631
G1 X139.964 Y85.454
G1 X135.880 Y81.469 E27.6529
G1 X135.880 Y80.946
G1 X139.964 Y84.931 E27.8427
G1 X139.964 Y84.408
G1 X135.880 Y80.423 E28.0325
G1 X135.880 Y79.900
G1 X139.964 Y83.885 E28.2223
G1 X139.964 Y83.363
G1 X135.880 Y79.378 E28.4121
G1 X135.880 Y78.855
G1 X139.964 Y82.840 E28.6019
G1 X139.964 Y82.317
G1 X135.880 Y78.332 E28.7917
G1 X135.880 Y77.809
G1 X139.964 Y81.794 E28.9814
G1 X139.964 Y81.271
G1 X135.880 Y77.286 E29.1712
G1 X135.880 Y76.763
G1 X139.964 Y80.749 E29.3610
G1 X139.964 Y80.226
G1 X136.170 Y76.524 E29.5373
G1 X136.706 Y76.524
G1 X139.964 Y79.703 E29.6888
G1 X139.964 Y79.180
G1 X137.242 Y76.523 E29.8153
G1 X137.777 Y76.523
G1 X139.964 Y78.657 E29.9169
G1 X139.964 Y78.134
G1 X138.313 Y76.523 E29.9937
G1 X138.849 Y76.523
G1 X139.964 Y77.612 E30.0455
G1 X139.964 Y77.089
G1 X139.384 Y76.523 E30.0725
G0 X127.293 Y112.550 F10800
G0 X124.586 Y112.550
G0 X124.120 Y76.791
G1 X123.879 Y76.556 E30.0837 F3600
G1 X123.339 Y76.552
G1 X124.120 Y77.314 E30.1200
G1 X124.120 Y77.837
G1 X122.799 Y76.548 E30.1814
G1 X122.259 Y76.544
G1 X124.120 Y78.360 E30.2678
G1 X124.120 Y78.882
G1 X121.720 Y76.540 E30.3794
G1 X121.180 Y76.536
G1 X124.120 Y79.405 E30.5160
G1 X124.120 Y79.928
G1 X120.640 Y76.533 E30.6777
G1 X120.100 Y76.529
G1 X124.120 Y80.451 E30.8645
G1 X124.120 Y80.974
G1 X120.036 Y76.989 E31.0543
G1 X120.036 Y77.511
G1 X124.120 Y81.496 E31.2441
G1 X124.120 Y82.019
G1 X120.036 Y78.034 E31.4339
G1 X120.036 Y78.557
G1 X124.120 Y82.542 E31.6237
G1 X124.120 Y83.065
G1 X120.036 Y79.080 E31.8135
G1 X120.036 Y79.603
G1 X124.120 Y83.588 E32.0033
G1 X124.120 Y84.111
G1 X120.036 Y80.125 E32.1931
G1 X120.036 Y80.648
G1 X124.120 Y84.633 E32.3829
G1 X124.120 Y85.156
G1 X120.036 Y81.171 E32.5727
G1 X120.036 Y81.694
G1 X124.120 Y85.679 E32.7625
G1 X124.120 Y86.202
G1 X120.036 Y82.217 E32.9523
G1 X120.036 Y82.740
G1 X124.120 Y86.725 E33.1421
G1 X124.120 Y87.247
G1 X120.036 Y83.262 E33.3319
G1 X120.036 Y83.785
G1 X124.120 Y87.770 E33.5216
G1 X124.120 Y88.293
G1 X120.036 Y84.308 E33.7114
G1 X120.036 Y84.831
G1 X124.120 Y88.816 E33.9012
G1 X124.120 Y89.339
G1 X120.036 Y85.354 E34.0910
G1 X120.036 Y85.876
G1 X124.120 Y89.862 E34.2808
G1 X124.120 Y90.384
G1 X120.036 Y86.399 E34.4706
G1 X120.036 Y86.922
G1 X124.120 Y90.907 E34.6604
G1 X124.120 Y91.430
G1 X120.036 Y87.445 E34.8502
G1 X120.036 Y87.968
G1 X124.120 Y91.953 E35.0400
G1 X124.120 Y92.476
G1 X120.036 Y88.491 E35.2298
G1 X120.036 Y89.013
G1 X124.120 Y92.999 E35.4196
G1 X124.120 Y93.521
G1 X120.036 Y89.536 E35.6094
G1 X120.036 Y90.059
G1 X124.120 Y94.044 E35.7992
G1 X124.120 Y94.567
G1 X120.036 Y90.582 E35.9890
G1 X120.036 Y91.105
G1 X124.120 Y95.090 E36.1788
G1 X124.120 Y95.613
G1 X120.036 Y91.628 E36.3686
G1 X120.036 Y92.150
G1 X124.120 Y96.135 E36.5584
G1 X124.120 Y96.658
G1 X120.036 Y92.673 E36.7482
G1 X120.036 Y93.196
G1 X124.120 Y97.181 E36.9380
G1 X124.120 Y97.704
G1 X120.036 Y93.719 E37.1278
G1 X120.036 Y94.242
G1 X124.120 Y98.227 E37.3176
G1 X124.120 Y98.750
G1 X120.036 Y94.764 E37.5074
G1 X120.036 Y95.287
G1 X124.120 Y99.272 E37.6972
G1 X124.120 Y99.795
G1 X120.036 Y95.810 E37.8870
G1 X120.036 Y96.333
G1 X124.120 Y100.318 E38.0768
G1 X124.120 Y100.841
G1 X120.036 Y96.856 E38.2666
G1 X120.036 Y97.379
G1 X124.120 Y101.364 E38.4564
G1 X124.120 Y101.886
G1 X120.036 Y97.901 E38.6462
G1 X120.036 Y98.424
G1 X124.120 Y102.409 E38.8360
G1 X124.120 Y102.932
G1 X120.036 Y98.947 E39.0257
G1 X120.036 Y99.470
G1 X124.120 Y103.455 E39.2155
G1 X124.120 Y103.978
G1 X120.036 Y99.993 E39.4053
G1 X120.036 Y100.515
G1 X124.120 Y104.501 E39.5951
G1 X124.120 Y105.023
G1 X120.036 Y101.038 E39.7849
G1 X120.036 Y101.561
G1 X124.120 Y105.546 E39.9747
G1 X124.120 Y106.069
G1 X120.036 Y102.084 E40.1645
G1 X120.036 Y102.607
G1 X124.120 Y106.592 E40.3543
G1 X124.120 Y107.115
G1 X120.036 Y103.130 E40.5441
G1 X120.036 Y103.652
G1 X124.120 Y107.638 E40.7339
G1 X124.120 Y108.160
G1 X120.036 Y104.175 E40.9237
G1 X120.036 Y104.698
G1 X124.120 Y108.683 E41.1135
G1 X124.120 Y109.206
G1 X120.036 Y105.221 E41.3033
G1 X120.036 Y105.744
G1 X124.120 Y109.729 E41.4931
G1 X124.120 Y110.252
G1 X120.036 Y106.267 E41.6829
G1 X120.036 Y106.789
G1 X124.120 Y110.774 E41.8727
G1 X124.120 Y111.297
G1 X120.036 Y107.312 E42.0625
G1 X120.036 Y107.835
G1 X124.120 Y111.820 E42.2523
G1 X124.120 Y112.343
G1 X120.036 Y108.358 E42.4421
G1 X120.036 Y108.881
G1 X124.120 Y112.866 E42.6319
G0 X125.070 Y122.158 F10800
G1 X121.493 Y118.668 E42.7981 F3600
G0 X120.925 Y117.591 F10800
G1 X126.170 Y122.709 E43.0418 F3600
G1 X127.020 Y123.015
G1 X120.590 Y116.741 E43.3407
G1 X120.368 Y116.002
G1 X127.755 Y123.210 E43.6839
G1 X128.425 Y123.340
G1 X120.211 Y115.326 E44.0656
G1 X120.120 Y114.714
G1 X129.053 Y123.430 E44.4807
G1 X129.617 Y123.458
G1 X120.068 Y114.141 E44.9245
G1 X120.041 Y113.592
G1 X130.164 Y123.469 E45.3949
G1 X130.674 Y123.444
G1 X120.036 Y113.063 E45.8893
G1 X120.036 Y112.540
G1 X131.166 Y123.401 E46.4065
G1 X131.631 Y123.332
G1 X120.036 Y112.018 E46.9453
G1 X120.036 Y111.495
G1 X132.084 Y123.250 E47.5052
G1 X132.510 Y123.143
G1 X120.036 Y110.972 E48.0849
G1 X120.036 Y110.449
G1 X132.932 Y123.032 E48.6841
G1 X133.324 Y122.892
G1 X120.036 Y109.926 E49.3017
G1 X120.036 Y109.403
G1 X133.716 Y122.752 E49.9374
G1 X134.084 Y122.588
G1 X124.262 Y113.004 E50.3938
G1 X124.798 Y113.004
G1 X134.445 Y122.417 E50.8421
G1 X134.797 Y122.238
G1 X125.334 Y113.004 E51.2819
G1 X125.870 Y113.004
G1 X135.129 Y122.039 E51.7122
G1 X135.461 Y121.840
G1 X126.405 Y113.004 E52.1330
G1 X126.941 Y113.004
G1 X135.771 Y121.619 E52.5433
G1 X136.075 Y121.394
G1 X127.477 Y113.004 E52.9428
G1 X128.013 Y113.004
G1 X136.374 Y121.162 E53.3313
G1 X136.651 Y120.910
G1 X128.549 Y113.004 E53.7079
G1 X129.085 Y113.004
G1 X136.929 Y120.658 E54.0724
G1 X137.191 Y120.391
G1 X129.620 Y113.004 E54.4242
G1 X130.156 Y113.004
G1 X137.443 Y120.114 E54.7628
G1 X137.694 Y119.836
G1 X130.692 Y113.004 E55.0882
G1 X131.228 Y113.004
G1 X137.919 Y119.533 E55.3991
G1 X138.144 Y119.230
G1 X131.764 Y113.004 E55.6956
G1 X132.300 Y113.004
G1 X138.358 Y118.916 E55.9771
G1 X138.556 Y118.586
G1 X132.835 Y113.004 E56.2430
G1 X133.371 Y113.004
G1 X138.754 Y118.256 E56.4931
G1 X138.927 Y117.903
G1 X133.907 Y113.004 E56.7264
;segType:Support
G0 F4800 E55.7264
G0 X132.905 Y111.399 F10800
G0 F4800 E56.7264
G1 X132.905 Y110.499 E56.7518 F5400
G1 X133.805 Y110.499 E56.7773
G1 X133.805 Y110.499
G1 X133.805 Y111.399 E56.8027
G1 X133.805 Y111.399
G1 X132.905 Y111.399 E56.8282
; ------------------------------------
; Layer #2
; ------------------------------------
G21 ; mm
G90 ; abs
G92 E0 ; reset extr
M106 S0
;segType:Support
G0 F4800 E-1.0000
G0 F300 Z0.600
G0 X132.905 Y111.399 F10800
G0 F4800 E0.0000
G1 X133.805 Y111.399 E0.0254 F5400
G1 X133.805 Y111.399
G1 X133.805 Y110.499 E0.0509
G1 X133.805 Y110.499
G1 X132.905 Y110.499 E0.0763
G1 X132.905 Y111.399 E0.1018
G0 F4800 E-0.8982
G0 X130.809 Y110.939 F10800
G0 F4800 E0.1018
G1 X130.809 Y111.638 E0.1215 F5400
G1 X131.709 Y111.638 E0.1470
G1 X131.709 Y110.939 E0.1667
G1 X131.709 Y110.939
G1 X130.809 Y110.939 E0.1922
G1 X129.879 Y111.008 E0.2185
G1 X129.879 Y111.638 E0.2364
G1 X129.879 Y111.008 E0.2542
G1 X128.979 Y111.008 E0.2796
G1 X128.979 Y111.638 E0.2975
G1 X128.488 Y111.638 E0.3113
G1 X128.488 Y110.919 E0.3317
G1 X128.488 Y110.919
G1 X127.588 Y110.919 E0.3571
G1 X127.588 Y111.638 E0.3774
G0 F4800 E-0.6226
G0 X126.094 Y111.098 F10800
G0 F4800 E0.3774
G1 X126.094 Y110.198 E0.4029 F5400
G1 X125.520 Y110.198 E0.4191
G1 X126.094 Y110.198 E0.4353
G0 F4800 E-0.5647
G0 X125.520 Y111.098 F10800
G0 F4800 E0.4353
G1 X126.094 Y111.098 E0.4515 F5400
G1 X125.996 Y111.576 E0.4653
G1 X125.520 Y111.576 E0.4788
G1 X125.996 Y111.638 E0.4923
G1 X125.996 Y111.576 E0.4941
G1 X126.038 Y111.638 E0.4962
G1 X126.266 Y111.638 E0.5026
G1 X126.266 Y111.070 E0.5187
G1 X127.166 Y111.070 E0.5441
G1 X127.166 Y111.070
G1 X127.166 Y111.638 E0.5602
;segType:HShell
G0 F4800 E-0.4398
G0 X125.021 Y122.306 F10800
G0 F4800 E0.5602
G1 X134.554 Y113.004 E1.0032 F3600
;segType:Perimeter
G0 X135.019 Y112.978 F10800
G1 X135.280 Y112.363 E1.0254 F2159
G1 X135.280 Y75.819 E2.2409
G1 X140.487 Y75.780 E2.4141
G1 X140.721 Y75.780 E2.4219
G1 X140.721 Y78.428 E2.5099
G1 X140.717 Y113.489 E3.6760
G1 X140.665 Y114.545 E3.7112
G1 X140.510 Y115.586 E3.7462
G1 X140.255 Y116.607 E3.7812
G1 X139.900 Y117.598 E3.8162
G1 X139.451 Y118.549 E3.8512
G1 X138.909 Y119.452 E3.8862
G1 X138.283 Y120.297 E3.9212
G1 X137.576 Y121.077 E3.9562
G1 X136.797 Y121.783 E3.9912
G1 X135.952 Y122.410 E4.0262
G1 X135.050 Y122.950 E4.0612
G1 X134.099 Y123.400 E4.0961
G1 X133.110 Y123.754 E4.1311
G1 X132.090 Y124.009 E4.1661
G1 X131.050 Y124.164 E4.2010
G1 X130.000 Y124.215 E4.2360
G1 X128.950 Y124.164 E4.2710
G1 X127.910 Y124.009 E4.3059
G1 X126.890 Y123.754 E4.3409
G1 X125.901 Y123.400 E4.3759
G1 X124.950 Y122.950 E4.4108
G1 X124.048 Y122.410 E4.4458
G1 X123.203 Y121.783 E4.4808
G1 X122.424 Y121.077 E4.5158
G1 X121.717 Y120.297 E4.5508
G1 X121.091 Y119.452 E4.5858
G1 X120.549 Y118.549 E4.6208
G1 X120.100 Y117.598 E4.6558
G1 X119.745 Y116.607 E4.6908
G1 X119.490 Y115.586 E4.7258
G1 X119.335 Y114.545 E4.7608
G1 X119.283 Y113.489 E4.7960
G1 X119.279 Y78.428 E5.9621
G1 X119.279 Y75.781 E6.0501
G1 X124.720 Y75.806 E6.2311
G1 X124.720 Y112.419 E7.4488
G1 X135.223 Y112.419 E7.7982
G1 X135.853 Y112.164
;segType:Loop
G0 X135.680 Y111.402 F10800
G1 X135.680 Y76.206 E8.9688 F3600
G1 X140.321 Y76.172 E9.1232
G1 X140.321 Y78.428 E9.1982
G1 X140.317 Y113.479 E10.3640
G1 X140.266 Y114.508 E10.3983
G1 X140.117 Y115.512 E10.4320
G1 X139.871 Y116.496 E10.4658
G1 X139.529 Y117.452 E10.4995
G1 X139.095 Y118.369 E10.5333
G1 X138.574 Y119.239 E10.5670
G1 X137.970 Y120.053 E10.6007
G1 X137.289 Y120.804 E10.6344
G1 X136.539 Y121.484 E10.6681
G1 X135.726 Y122.087 E10.7018
G1 X134.858 Y122.608 E10.7355
G1 X133.943 Y123.040 E10.7691
G1 X132.991 Y123.381 E10.8027
G1 X132.010 Y123.626 E10.8364
G1 X131.010 Y123.775 E10.8700
G1 X130.000 Y123.825 E10.9036
G1 X128.990 Y123.775 E10.9373
G1 X127.990 Y123.626 E10.9709
G1 X127.009 Y123.381 E11.0045
G1 X126.057 Y123.040 E11.0381
G1 X125.142 Y122.608 E11.0718
G1 X124.274 Y122.087 E11.1055
G1 X123.461 Y121.484 E11.1391
G1 X122.711 Y120.804 E11.1728
G1 X122.030 Y120.053 E11.2065
G1 X121.426 Y119.239 E11.2403
G1 X120.905 Y118.369 E11.2740
G1 X120.471 Y117.452 E11.3077
G1 X120.129 Y116.496 E11.3415
G1 X119.883 Y115.512 E11.3752
G1 X119.734 Y114.508 E11.4090
G1 X119.683 Y113.480 E11.4432
G1 X119.679 Y78.428 E12.6090
G1 X119.679 Y76.173 E12.6840
G1 X124.320 Y76.195 E12.8384
G1 X124.320 Y112.809 E14.0562
G1 X135.680 Y112.809 E14.4341
G1 X135.680 Y111.587 E14.4747
;segType:HShell
G0 X135.626 Y113.004 F10800
G1 X125.724 Y122.666 E14.9348 F3600
G1 X125.363 Y122.495
G1 X135.090 Y113.004 E15.3868
G0 X124.586 Y112.550 F10800
G0 X120.124 Y76.371
G1 X119.879 Y76.609 E15.3982 F3600
G1 X119.879 Y77.132
G1 X120.657 Y76.373 E15.4344
G1 X121.190 Y76.375
G1 X119.879 Y77.655 E15.4953
G1 X119.879 Y78.178
G1 X121.724 Y76.378 E15.5810
G1 X122.257 Y76.380
G1 X119.879 Y78.701 E15.6915
G1 X119.879 Y79.223
G1 X122.790 Y76.383 E15.8268
G1 X123.324 Y76.385
G1 X119.879 Y79.746 E15.9869
G1 X119.879 Y80.269
G1 X123.857 Y76.388 E16.1717
G1 X124.120 Y76.654
G1 X119.879 Y80.792 E16.3688
G1 X119.879 Y81.314
G1 X124.120 Y77.177 E16.5659
G1 X124.120 Y77.699
G1 X119.879 Y81.837 E16.7629
G1 X119.879 Y82.360
G1 X124.120 Y78.222 E16.9600
G1 X124.120 Y78.745
G1 X119.879 Y82.883 E17.1570
G1 X119.880 Y83.405
G1 X124.120 Y79.268 E17.3541
G1 X124.120 Y79.791
G1 X119.880 Y83.928 E17.5511
G1 X119.880 Y84.451
G1 X124.120 Y80.314 E17.7482
G1 X124.120 Y80.836
G1 X119.880 Y84.974 E17.9452
G1 X119.880 Y85.496
G1 X124.120 Y81.359 E18.1422
G1 X124.120 Y81.882
G1 X119.880 Y86.019 E18.3393
G1 X119.880 Y86.542
G1 X124.120 Y82.405 E18.5363
G1 X124.120 Y82.928
G1 X119.880 Y87.065 E18.7333
G1 X119.880 Y87.587
G1 X124.120 Y83.451 E18.9304
G1 X124.120 Y83.973
G1 X119.880 Y88.110 E19.1274
G1 X119.880 Y88.633
G1 X124.120 Y84.496 E19.3244
G1 X124.120 Y85.019
G1 X119.880 Y89.156 E19.5214
G1 X119.880 Y89.678
G1 X124.120 Y85.542 E19.7184
G1 X124.120 Y86.065
G1 X119.880 Y90.201 E19.9154
G1 X119.880 Y90.724
G1 X124.120 Y86.587 E20.1124
G1 X124.120 Y87.110
G1 X119.880 Y91.247 E20.3094
G1 X119.881 Y91.769
G1 X124.120 Y87.633 E20.5064
G1 X124.120 Y88.156
G1 X119.881 Y92.292 E20.7034
G1 X119.881 Y92.815
G1 X124.120 Y88.679 E20.9004
G1 X124.120 Y89.202
G1 X119.881 Y93.338 E21.0974
G1 X119.881 Y93.861
G1 X124.120 Y89.724 E21.2944
G1 X124.120 Y90.247
G1 X119.881 Y94.383 E21.4914
G1 X119.881 Y94.906
G1 X124.120 Y90.770 E21.6884
G1 X124.120 Y91.293
G1 X119.881 Y95.429 E21.8854
G1 X119.881 Y95.952
G1 X124.120 Y91.816 E22.0823
G1 X124.120 Y92.338
G1 X119.881 Y96.474 E22.2793
G1 X119.881 Y96.997
G1 X124.120 Y92.861 E22.4763
G1 X124.120 Y93.384
G1 X119.881 Y97.520 E22.6732
G1 X119.881 Y98.043
G1 X124.120 Y93.907 E22.8702
G1 X124.120 Y94.430
G1 X119.881 Y98.565 E23.0672
G1 X119.881 Y99.088
G1 X124.120 Y94.953 E23.2641
G1 X124.120 Y95.475
G1 X119.882 Y99.611 E23.4611
G1 X119.882 Y100.134
G1 X124.120 Y95.998 E23.6580
G1 X124.120 Y96.521
G1 X119.882 Y100.656 E23.8550
G1 X119.882 Y101.179
G1 X124.120 Y97.044 E24.0519
G1 X124.120 Y97.567
G1 X119.882 Y101.702 E24.2489
G1 X119.882 Y102.225
G1 X124.120 Y98.090 E24.4458
G1 X124.120 Y98.612
G1 X119.882 Y102.747 E24.6427
G1 X119.882 Y103.270
G1 X124.120 Y99.135 E24.8397
G1 X124.120 Y99.658
G1 X119.882 Y103.793 E25.0366
G1 X119.882 Y104.316
G1 X124.120 Y100.181 E25.2335
G1 X124.120 Y100.704
G1 X119.882 Y104.838 E25.4305
G1 X119.882 Y105.361
G1 X124.120 Y101.226 E25.6274
G1 X124.120 Y101.749
G1 X119.882 Y105.884 E25.8243
G1 X119.882 Y106.407
G1 X124.120 Y102.272 E26.0212
G1 X124.120 Y102.795
G1 X119.882 Y106.929 E26.2181
G1 X119.883 Y107.452
G1 X124.120 Y103.318 E26.4150
G1 X124.120 Y103.841
G1 X119.883 Y107.975 E26.6119
G1 X119.883 Y108.498
G1 X124.120 Y104.363 E26.8088
G1 X124.120 Y104.886
G1 X119.883 Y109.020 E27.0057
G1 X119.883 Y109.543
G1 X124.120 Y105.409 E27.2026
G1 X124.120 Y105.932
G1 X119.883 Y110.066 E27.3995
G1 X119.883 Y110.589
G1 X124.120 Y106.455 E27.5964
G1 X124.120 Y106.977
G1 X119.883 Y111.111 E27.7933
G1 X119.883 Y111.634
G1 X124.120 Y107.500 E27.9902
G1 X124.120 Y108.023
G1 X119.883 Y112.157 E28.1871
G1 X119.883 Y112.680
G1 X124.120 Y108.546 E28.3839
G1 X124.120 Y109.069
G1 X119.883 Y113.203 E28.5808
G1 X119.895 Y113.714
G1 X124.120 Y109.592 E28.7771
G1 X124.120 Y110.114
G1 X119.920 Y114.213 E28.9723
G1 X119.963 Y114.693
G1 X124.120 Y110.637 E29.1655
G1 X124.120 Y111.160
G1 X120.031 Y115.150 E29.3555
G1 X120.110 Y115.596
G1 X124.120 Y111.683 E29.5418
G1 X124.120 Y112.206
G1 X120.215 Y116.016 E29.7233
G1 X120.320 Y116.436
G1 X124.120 Y112.729 E29.8999
G1 X124.373 Y113.004
G1 X120.458 Y116.824 E30.0818
G1 X120.597 Y117.212
G1 X124.909 Y113.004 E30.2822
G1 X125.445 Y113.004
G1 X120.753 Y117.582 E30.5002
G1 X120.922 Y117.940
G1 X125.981 Y113.004 E30.7353
G1 X126.516 Y113.004
G1 X121.093 Y118.296 E30.9873
G1 X121.291 Y118.626
G1 X127.052 Y113.004 E31.2551
G1 X127.588 Y113.004
G1 X121.488 Y118.956 E31.5385
G1 X121.699 Y119.273
G1 X128.124 Y113.004 E31.8371
G1 X128.660 Y113.004
G1 X121.924 Y119.577 E32.1501
G1 X122.149 Y119.880
G1 X129.196 Y113.004 E32.4776
G1 X129.731 Y113.004
G1 X122.396 Y120.162 E32.8185
G1 X122.647 Y120.439
G1 X130.267 Y113.004 E33.1726
G1 X130.803 Y113.004
G1 X122.903 Y120.712 E33.5397
G1 X123.181 Y120.964
G1 X131.339 Y113.004 E33.9187
G1 X131.875 Y113.004
G1 X123.459 Y121.216 E34.3098
G1 X123.751 Y121.454
G1 X132.411 Y113.004 E34.7122
G1 X132.946 Y113.004
G1 X124.055 Y121.680 E35.1254
G1 X124.359 Y121.906
G1 X133.482 Y113.004 E35.5493
G1 X134.018 Y113.004
G1 X124.689 Y122.107 E35.9829
G0 X131.889 Y123.447 F10800
G1 X139.876 Y115.654 E36.3540 F3600
G1 X139.703 Y116.346
G1 X132.598 Y123.278 E36.6842
G0 X135.556 Y121.960 F10800
G1 X138.279 Y119.303 E36.8107 F3600
G0 X139.431 Y117.134 F10800
G1 X133.386 Y123.032 E37.0916 F3600
G0 X134.317 Y122.646 F10800
G1 X139.024 Y118.053 E37.3103 F3600
G0 X139.988 Y115.022 F10800
G1 X131.257 Y123.541 E37.7160 F3600
G1 X130.664 Y123.596
G1 X140.070 Y114.419 E38.1531
G1 X140.097 Y113.869
G1 X130.100 Y123.624 E38.6177
G1 X129.580 Y123.608
G1 X140.117 Y113.328 E39.1073
G1 X140.117 Y112.805
G1 X129.070 Y123.583 E39.6207
G1 X128.600 Y123.519
G1 X140.117 Y112.282 E40.1559
G1 X140.117 Y111.759
G1 X128.134 Y123.451 E40.7127
G1 X127.699 Y123.352
G1 X140.117 Y111.236 E41.2897
G1 X140.117 Y110.713
G1 X127.273 Y123.246 E41.8866
G1 X126.864 Y123.121
G1 X140.117 Y110.190 E42.5025
G1 X140.117 Y109.667
G1 X126.472 Y122.981 E43.1365
G1 X126.085 Y122.836
G1 X140.117 Y109.145 E43.7886
G1 X140.117 Y108.622
G1 X135.880 Y112.756 E43.9855
G1 X135.880 Y112.233
G1 X140.118 Y108.099 E44.1824
G1 X140.118 Y107.576
G1 X135.880 Y111.711 E44.3793
G1 X135.880 Y111.188
G1 X140.118 Y107.053 E44.5763
G1 X140.118 Y106.530
G1 X135.880 Y110.665 E44.7732
G1 X135.880 Y110.142
G1 X140.118 Y106.007 E44.9701
G1 X140.118 Y105.484
G1 X135.880 Y109.619 E45.1670
G1 X135.880 Y109.096
G1 X140.118 Y104.962 E45.3640
G1 X140.118 Y104.439
G1 X135.880 Y108.574 E45.5609
G1 X135.880 Y108.051
G1 X140.118 Y103.916 E45.7578
G1 X140.118 Y103.393
G1 X135.880 Y107.528 E45.9548
G1 X135.880 Y107.005
G1 X140.118 Y102.870 E46.1517
G1 X140.118 Y102.347
G1 X135.880 Y106.482 E46.3486
G1 X135.880 Y105.959
G1 X140.118 Y101.824 E46.5456
G1 X140.118 Y101.301
G1 X135.880 Y105.437 E46.7425
G1 X135.880 Y104.914
G1 X140.118 Y100.778 E46.9395
G1 X140.118 Y100.256
G1 X135.880 Y104.391 E47.1364
G1 X135.880 Y103.868
G1 X140.119 Y99.733 E47.3334
G1 X140.119 Y99.210
G1 X135.880 Y103.345 E47.5304
G1 X135.880 Y102.823
G1 X140.119 Y98.687 E47.7273
G1 X140.119 Y98.164
G1 X135.880 Y102.300 E47.9243
G1 X135.880 Y101.777
G1 X140.119 Y97.641 E48.1213
G1 X140.119 Y97.118
G1 X135.880 Y101.254 E48.3182
G1 X135.880 Y100.731
G1 X140.119 Y96.595 E48.5152
G1 X140.119 Y96.072
G1 X135.880 Y100.208 E48.7122
G1 X135.880 Y99.686
G1 X140.119 Y95.550 E48.9092
G1 X140.119 Y95.027
G1 X135.880 Y99.163 E49.1062
G1 X135.880 Y98.640
G1 X140.119 Y94.504 E49.3032
G1 X140.119 Y93.981
G1 X135.880 Y98.117 E49.5001
G1 X135.880 Y97.594
G1 X140.119 Y93.458 E49.6971
G1 X140.119 Y92.935
G1 X135.880 Y97.072 E49.8941
G1 X135.880 Y96.549
G1 X140.119 Y92.412 E50.0911
G1 X140.119 Y91.889
G1 X135.880 Y96.026 E50.2881
G1 X135.880 Y95.503
G1 X140.120 Y91.367 E50.4851
G1 X140.120 Y90.844
G1 X135.880 Y94.980 E50.6821
G1 X135.880 Y94.457
G1 X140.120 Y90.321 E50.8792
G1 X140.120 Y89.798
G1 X135.880 Y93.935 E51.0762
G1 X135.880 Y93.412
G1 X140.120 Y89.275 E51.2732
G1 X140.120 Y88.752
G1 X135.880 Y92.889 E51.4702
G1 X135.880 Y92.366
G1 X140.120 Y88.229 E51.6672
G1 X140.120 Y87.706
G1 X135.880 Y91.843 E51.8643
G1 X135.880 Y91.320
G1 X140.120 Y87.183 E52.0613
G1 X140.120 Y86.661
G1 X135.880 Y90.798 E52.2583
G1 X135.880 Y90.275
G1 X140.120 Y86.138 E52.4554
G1 X140.120 Y85.615
G1 X135.880 Y89.752 E52.6524
G1 X135.880 Y89.229
G1 X140.120 Y85.092 E52.8494
G1 X140.120 Y84.569
G1 X135.880 Y88.706 E53.0465
G1 X135.880 Y88.184
G1 X140.120 Y84.046 E53.2435
G1 X140.120 Y83.523
G1 X135.880 Y87.661 E53.4406
G1 X135.880 Y87.138
G1 X140.121 Y83.000 E53.6376
G1 X140.121 Y82.478
G1 X135.880 Y86.615 E53.8347
G1 X135.880 Y86.092
G1 X140.121 Y81.955 E54.0317
G1 X140.121 Y81.432
G1 X135.880 Y85.569 E54.2288
G1 X135.880 Y85.047
G1 X140.121 Y80.909 E54.4259
G1 X140.121 Y80.386
G1 X135.880 Y84.524 E54.6229
G1 X135.880 Y84.001
G1 X140.121 Y79.863 E54.8200
G1 X140.121 Y79.340
G1 X135.880 Y83.478 E55.0171
G1 X135.880 Y82.955
G1 X140.121 Y78.817 E55.2141
G1 X140.121 Y78.294
G1 X135.880 Y82.433 E55.4112
G1 X135.880 Y81.910
G1 X140.121 Y77.772 E55.6083
G1 X140.121 Y77.249
G1 X135.880 Y81.387 E55.8054
G1 X135.880 Y80.864
G1 X140.121 Y76.726 E56.0025
G1 X139.950 Y76.370
G1 X135.880 Y80.341 E56.1916
G1 X135.880 Y79.818
G1 X139.410 Y76.374 E56.3557
G1 X138.870 Y76.378
G1 X135.880 Y79.296 E56.4946
G1 X135.880 Y78.773
G1 X138.331 Y76.382 E56.6085
G1 X137.791 Y76.386
G1 X135.880 Y78.250 E56.6973
G1 X135.880 Y77.727
G1 X137.251 Y76.390 E56.7610
G1 X136.711 Y76.394
G1 X135.880 Y77.204 E56.7996
G1 X135.880 Y76.681
G1 X136.171 Y76.398 E56.8131
;segType:Support
G0 F4800 E55.8131
G0 X134.480 Y77.030 F10800
G0 F4800 E56.8131
G1 X133.698 Y77.030 E56.8352 F5400
G1 X133.698 Y77.930 E56.8606
G1 X133.698 Y77.930
G1 X134.480 Y77.930 E56.8827
G0 F4800 E55.8827
G0 X126.556 Y77.376 F10800
G0 F4800 E56.8827
G1 X125.656 Y77.376 E56.9082 F5400
G1 X125.656 Y77.376
G1 X125.656 Y76.476 E56.9336
G1 X125.656 Y76.476
G1 X126.556 Y76.476 E56.9591
G1 X126.556 Y76.476
G1 X126.556 Y77.376 E56.9845
G0 F4800 E55.9845
G0 X125.829 Y80.012 F10800
G0 F4800 E56.9845
G1 X125.829 Y79.112 E57.0100 F5400
G1 X126.729 Y79.112 E57.0354
G1 X126.729 Y79.112
G1 X126.729 Y80.012 E57.0608
G1 X126.729 Y80.012
G1 X125.829 Y80.012 E57.0863
G0 F4800 E56.0863
G0 X126.802 Y80.927 F10800
G0 F4800 E57.0863
G1 X125.902 Y80.927 E57.1117 F5400
G1 X125.902 Y81.827 E57.1372
G1 X125.902 Y81.827
G1 X126.802 Y81.827 E57.1626
G1 X126.802 Y81.827
G1 X126.802 Y80.927 E57.1881
G0 F4800 E56.1881
G0 X126.685 Y85.287 F10800
G0 F4800 E57.1881
G1 X125.785 Y85.287 E57.2135 F5400
G1 X125.785 Y85.287
G1 X125.785 Y86.187 E57.2390
G1 X125.785 Y86.187
G1 X126.685 Y86.187 E57.2644
G1 X126.685 Y86.187
G1 X126.685 Y85.287 E57.2898
G0 F4800 E56.2898
G0 X134.480 Y79.631 F10800
G0 F4800 E57.2898
G1 X133.766 Y79.631 E57.3100 F5400
G1 X133.766 Y80.531 E57.3355
G1 X133.766 Y80.531
G1 X134.480 Y80.531 E57.3557
G0 F4800 E56.3557
G0 X134.480 Y82.299 F10800
G0 F4800 E57.3557
G1 X133.998 Y82.299 E57.3693 F5400
G1 X133.998 Y83.199 E57.3947
G1 X133.998 Y83.199
G1 X134.480 Y83.199 E57.4083
G0 X134.480 Y84.134 F10800
G1 X133.827 Y84.134 E57.4268 F5400
G1 X133.827 Y85.034 E57.4522
G1 X133.827 Y85.034
G1 X134.480 Y85.034 E57.4707
G1 X134.367 Y85.725 E57.4905
G1 X134.480 Y85.725 E57.4937
G1 X134.367 Y86.325 E57.5110
G1 X134.480 Y86.325 E57.5141
G0 F4800 E56.5141
G0 X134.480 Y87.840 F10800
G0 F4800 E57.5141
G1 X134.006 Y87.840 E57.5275 F5400
G1 X134.006 Y87.840
G1 X134.006 Y88.740 E57.5530
G1 X134.006 Y88.740
G1 X134.480 Y88.740 E57.5664
G0 X134.480 Y89.655 F10800
G1 X134.351 Y89.655 E57.5700 F5400
G1 X134.351 Y90.255 E57.5870
G1 X134.480 Y90.255 E57.5906
G0 F4800 E56.5906
G0 X134.480 Y91.769 F10800
G0 F4800 E57.5906
G1 X134.182 Y91.769 E57.5990 F5400
G1 X134.182 Y91.769
G1 X134.182 Y92.669 E57.6245
G1 X134.182 Y92.669
G1 X134.480 Y92.669 E57.6329
G0 F4800 E56.6329
G0 X134.195 Y94.278 F10800
G0 F4800 E57.6329
G1 X134.480 Y94.278 E57.6410 F5400
G1 X134.480 Y93.678 E57.6579
G1 X134.195 Y93.678 E57.6660
G0 F4800 E56.6660
G0 X125.554 Y90.716 F10800
G0 F4800 E57.6660
G1 X125.554 Y89.816 E57.6914 F5400
G1 X126.454 Y89.816 E57.7169
G1 X126.454 Y89.816
G1 X126.454 Y90.716 E57.7423
G1 X126.454 Y90.716
G1 X125.554 Y90.716 E57.7678
G0 F4800 E56.7678
G0 X125.582 Y93.586 F10800
G0 F4800 E57.7678
G1 X125.582 Y92.686 E57.7932 F5400
G1 X126.482 Y92.686 E57.8187
G1 X126.482 Y92.686
G1 X126.482 Y93.586 E57.8441
G1 X126.482 Y93.586
G1 X125.582 Y93.586 E57.8696
G0 F4800 E56.8696
G0 X126.461 Y96.909 F10800
G0 F4800 E57.8696
G1 X125.561 Y96.909 E57.8950 F5400
G1 X125.561 Y97.809 E57.9204
G1 X125.561 Y97.809
G1 X126.461 Y97.809 E57.9459
G1 X126.461 Y97.809
G1 X126.461 Y96.909 E57.9713
G0 F4800 E56.9713
G0 X125.637 Y99.519 F10800
G0 F4800 E57.9713
G1 X126.537 Y99.519 E57.9968 F5400
G1 X126.537 Y99.519
G1 X126.537 Y100.419 E58.0222
G1 X126.537 Y100.419
G1 X125.637 Y100.419 E58.0477
G1 X125.637 Y100.419
G1 X125.637 Y99.519 E58.0731
G0 F4800 E57.0731
G0 X126.659 Y101.697 F10800
G0 F4800 E58.0731
G1 X126.659 Y102.597 E58.0986 F5400
G1 X126.659 Y102.597
G1 X125.759 Y102.597 E58.1240
G0 F4800 E57.1240
G0 X125.729 Y104.194 F10800
G0 F4800 E58.1240
G1 X126.629 Y104.194 E58.1494 F5400
G1 X126.629 Y104.194
G1 X126.629 Y105.094 E58.1749
G1 X126.629 Y105.094
G1 X125.729 Y105.094 E58.2003
G0 F4800 E57.2003
G0 X125.520 Y107.352 F10800
G0 F4800 E58.2003
G1 X126.302 Y107.352 E58.2224 F5400
G1 X126.302 Y107.352
G1 X126.302 Y108.252 E58.2479
G1 X126.302 Y108.252
G1 X125.520 Y108.252 E58.2700
G0 F4800 E57.2700
G0 X125.729 Y105.094 F10800
G0 F4800 E58.2700
G1 X125.729 Y104.194 E58.2954 F5400
G0 F4800 E57.2954
G0 X125.759 Y102.597 F10800
G0 F4800 E58.2954
G1 X125.759 Y101.697 E58.3209 F5400
G1 X126.659 Y101.697 E58.3463
G0 F4800 E57.3463
G0 X134.480 Y100.196 F10800
G0 F4800 E58.3463
G1 X134.339 Y100.196 E58.3503 F5400
G1 X134.339 Y101.096 E58.3757
G0 F4800 E57.3757
G0 X134.156 Y97.681 F10800
G0 F4800 E58.3757
G1 X134.480 Y97.681 E58.3849 F5400
G0 F4800 E57.3849
G0 X134.480 Y96.217 F10800
G0 F4800 E58.3849
G1 X134.420 Y96.217 E58.3866 F5400
G1 X134.420 Y96.217
G1 X134.420 Y95.317 E58.4120
G1 X134.420 Y95.317
G1 X134.480 Y95.317 E58.4137
G0 F4800 E57.4137
G0 X134.480 Y98.281 F10800
G0 F4800 E58.4137
G1 X134.156 Y98.281 E58.4228 F5400
G0 F4800 E57.4228
G0 X134.339 Y101.096 F10800
G0 F4800 E58.4228
G1 X134.480 Y101.096 E58.4268 F5400
G0 F4800 E57.4268
G0 X134.332 Y102.649 F10800
G0 F4800 E58.4268
G1 X134.480 Y102.649 E58.4310 F5400
G1 X134.480 Y103.249 E58.4479
G1 X134.332 Y103.249 E58.4521
G0 F4800 E57.4521
G0 X134.432 Y106.045 F10800
G0 F4800 E58.4521
G1 X134.480 Y106.045 E58.4535 F5400
G1 X134.432 Y106.045 E58.4548
G1 X134.432 Y105.145 E58.4802
G1 X134.480 Y105.145 E58.4816
G0 F4800 E57.4816
G0 X134.174 Y107.888 F10800
G0 F4800 E58.4816
G1 X134.480 Y107.888 E58.4902 F5400
G0 X134.480 Y106.988 F10800
G1 X134.174 Y106.988 E58.4989 F5400
G1 X134.174 Y107.888 E58.5243
G0 F4800 E57.5243
G0 X134.480 Y109.038 F10800
G0 F4800 E58.5243
G1 X134.081 Y109.038 E58.5356 F5400
G1 X134.081 Y109.938 E58.5610
G1 X134.081 Y109.938
G1 X134.480 Y109.938 E58.5723
; ------------------------------------
; Layer #3
; ------------------------------------
G21 ; mm
G90 ; abs
G92 E0 ; reset extr
M106 S255
;segType:Support
G0 F4800 E-1.0000
G0 F300 Z0.800
G0 X134.480 Y109.938 F10800
G0 F4800 E0.0000
G1 X134.081 Y109.938 E0.0113 F5400
G1 X134.081 Y109.938
G1 X134.081 Y109.038 E0.0367
G1 X134.480 Y109.038 E0.0480
G0 F4800 E-0.9520
G0 X134.480 Y107.888 F10800
G0 F4800 E0.0480
G1 X134.174 Y107.888 E0.0566 F5400
G1 X134.174 Y107.888
G1 X134.174 Y106.988 E0.0821
G1 X134.480 Y106.988 E0.0907
G0 X134.480 Y106.045 F10800
G1 X134.432 Y106.045 E0.0921 F5400
G1 X134.432 Y106.045
G1 X134.432 Y105.145 E0.1175
G1 X134.480 Y105.145 E0.1188
G0 F4800 E-0.8812
G0 X134.332 Y103.249 F10800
G0 F4800 E0.1188
G1 X134.480 Y103.249 E0.1230 F5400
G1 X134.480 Y102.649 E0.1400
G1 X134.332 Y102.649 E0.1441
G0 F4800 E-0.8559
G0 X134.480 Y101.096 F10800
G0 F4800 E0.1441
G1 X134.339 Y101.096 E0.1481 F5400
G1 X134.339 Y101.096
G1 X134.339 Y100.196 E0.1736
G1 X134.480 Y100.196 E0.1775
G0 F4800 E-0.8225
G0 X134.480 Y98.281 F10800
G0 F4800 E0.1775
G1 X134.156 Y98.281 E0.1867 F5400
G1 X134.156 Y97.681 E0.2036
G1 X134.480 Y97.681 E0.2128
G0 F4800 E-0.7872
G0 X134.420 Y95.317 F10800
G0 F4800 E0.2128
G1 X134.480 Y95.317 E0.2145 F5400
G0 X134.480 Y96.217 F10800
G1 X134.420 Y96.217 E0.2162 F5400
G1 X134.420 Y96.217
G1 X134.420 Y95.317 E0.2416
G0 F4800 E-0.7584
G0 X134.480 Y94.278 F10800
G0 F4800 E0.2416
G1 X134.195 Y94.278 E0.2497 F5400
G1 X134.195 Y93.678 E0.2666
G1 X134.480 Y93.678 E0.2747
G0 F4800 E-0.7253
G0 X134.480 Y92.669 F10800
G0 F4800 E0.2747
G1 X134.182 Y92.669 E0.2831 F5400
G1 X134.182 Y92.669
G1 X134.182 Y91.769 E0.3086
G1 X134.182 Y91.769
G1 X134.480 Y91.769 E0.3170
G0 F4800 E-0.6830
G0 X134.480 Y90.255 F10800
G0 F4800 E0.3170
G1 X134.351 Y90.255 E0.3206 F5400
G1 X134.351 Y89.655 E0.3376
G1 X134.480 Y89.655 E0.3413
G0 F4800 E-0.6587
G0 X134.480 Y87.840 F10800
G0 F4800 E0.3413
G1 X134.006 Y87.840 E0.3546 F5400
G1 X134.006 Y87.840
G1 X134.006 Y88.740 E0.3801
G1 X134.006 Y88.740
G1 X134.480 Y88.740 E0.3935
G0 F4800 E-0.6065
G0 X134.480 Y86.325 F10800
G0 F4800 E0.3935
G1 X134.367 Y86.325 E0.3967 F5400
G1 X134.367 Y85.725 E0.4136
G1 X134.480 Y85.725 E0.4168
G1 X134.480 Y85.034 E0.4364
G1 X133.827 Y85.034 E0.4548
G1 X133.827 Y85.034
G1 X133.827 Y84.134 E0.4803
G1 X134.480 Y84.134 E0.4987
G0 X134.480 Y83.199 F10800
G1 X133.998 Y83.199 E0.5123 F5400
G1 X133.998 Y83.199
G1 X133.998 Y82.299 E0.5378
G1 X134.480 Y82.299 E0.5514
G0 F4800 E-0.4486
G0 X134.480 Y80.531 F10800
G0 F4800 E0.5514
G1 X133.766 Y80.531 E0.5716 F5400
G1 X133.766 Y80.531 E0.5716
G1 X133.766 Y79.631 E0.5970
G1 X134.480 Y79.631 E0.6172
G0 F4800 E-0.3828
G0 X134.480 Y77.930 F10800
G0 F4800 E0.6172
G1 X133.698 Y77.930 E0.6393 F5400
G1 X133.698 Y77.930
G1 X133.698 Y77.030 E0.6648
G1 X134.480 Y77.030 E0.6869
G0 F4800 E-0.3131
G0 X126.556 Y77.376 F10800
G0 F4800 E0.6869
G1 X125.656 Y77.376 E0.7123 F5400
G1 X125.656 Y77.376
G1 X125.656 Y76.476 E0.7378
G1 X125.656 Y76.476
G1 X126.556 Y76.476 E0.7632
G1 X126.556 Y76.476
G1 X126.556 Y77.376 E0.7887
G0 F4800 E-0.2113
G0 X126.729 Y79.112 F10800
G0 F4800 E0.7887
G1 X126.729 Y80.012 E0.8141 F5400
G1 X126.729 Y80.012
G1 X125.829 Y80.012 E0.8396
G1 X125.829 Y80.012
G1 X125.829 Y79.112 E0.8650
G1 X126.729 Y79.112 E0.8904
G0 F4800 E-0.1096
G0 X126.802 Y81.827 F10800
G0 F4800 E0.8904
G1 X125.902 Y81.827 E0.9159 F5400
G1 X125.902 Y81.827
G1 X125.902 Y80.927 E0.9413
G1 X126.802 Y80.927 E0.9668
G1 X126.802 Y80.927
G1 X126.802 Y81.827 E0.9922
G0 F4800 E-0.0078
G0 X125.785 Y86.187 F10800
G0 F4800 E0.9922
G1 X125.785 Y85.287 E1.0177 F5400
G1 X125.785 Y85.287
G1 X126.685 Y85.287 E1.0431
G1 X126.685 Y85.287
G1 X126.685 Y86.187 E1.0686
G1 X126.685 Y86.187
G1 X125.785 Y86.187 E1.0940
G0 F4800 E0.0940
G0 X126.454 Y89.816 F10800
G0 F4800 E1.0940
G1 X125.554 Y89.816 E1.1194 F5400
G1 X125.554 Y90.716 E1.1449
G1 X125.554 Y90.716
G1 X126.454 Y90.716 E1.1703
G1 X126.454 Y90.716
G1 X126.454 Y89.816 E1.1958
G0 F4800 E0.1958
G0 X126.482 Y93.586 F10800
G0 F4800 E1.1958
G1 X125.582 Y93.586 E1.2212 F5400
G1 X125.582 Y93.586
G1 X125.582 Y92.686 E1.2467
G1 X126.482 Y92.686 E1.2721
G1 X126.482 Y92.686
G1 X126.482 Y93.586 E1.2976
G0 F4800 E0.2975
G0 X126.461 Y96.909 F10800
G0 F4800 E1.2976
G1 X125.561 Y96.909 E1.3230 F5400
G1 X125.561 Y97.809 E1.3484
G1 X125.561 Y97.809
G1 X126.461 Y97.809 E1.3739
G1 X126.461 Y97.809
G1 X126.461 Y96.909 E1.3993
G0 F4800 E0.3993
G0 X126.537 Y99.519 F10800
G0 F4800 E1.3993
G1 X125.637 Y99.519 E1.4248 F5400
G1 X125.637 Y99.519
G1 X125.637 Y100.419 E1.4502
G1 X125.637 Y100.419
G1 X126.537 Y100.419 E1.4757
G1 X126.537 Y100.419
G1 X126.537 Y99.519 E1.5011
G0 F4800 E0.5011
G0 X126.659 Y101.697 F10800
G0 F4800 E1.5011
G1 X125.759 Y101.697 E1.5265 F5400
G1 X125.759 Y102.597 E1.5520
G1 X125.759 Y102.597
G1 X126.659 Y102.597 E1.5774
G1 X126.659 Y102.597
G1 X126.659 Y101.697 E1.6029
G0 F4800 E0.6029
G0 X126.629 Y104.194 F10800
G0 F4800 E1.6029
G1 X126.629 Y105.094 E1.6283 F5400
G1 X126.629 Y105.094
G1 X125.729 Y105.094 E1.6538
G1 X125.729 Y105.094
G1 X125.729 Y104.194 E1.6792
G1 X125.729 Y104.194
G1 X126.629 Y104.194 E1.7047
G0 F4800 E0.7047
G0 X125.520 Y107.352 F10800
G0 F4800 E1.7047
G1 X126.302 Y107.352 E1.7268 F5400
G1 X126.302 Y107.352
G1 X126.302 Y108.252 E1.7522
G1 X126.302 Y108.252
G1 X125.520 Y108.252 E1.7743
G0 F4800 E0.7743
G0 X126.094 Y110.198 F10800
G0 F4800 E1.7743
G1 X126.094 Y111.098 E1.7997 F5400
G1 X126.094 Y111.098
G1 X125.520 Y111.098 E1.8160
G0 X125.520 Y110.198 F10800
G1 X126.094 Y110.198 E1.8322 F5400
G0 F4800 E0.8322
G0 X125.520 Y111.576 F10800
G0 F4800 E1.8322
G1 X125.996 Y111.576 E1.8456 F5400
G1 X125.996 Y111.638 E1.8474
G1 X125.996 Y111.576 E1.8491
G1 X126.038 Y111.638 E1.8513
G1 X126.266 Y111.638 E1.8577
G1 X126.266 Y111.070 E1.8737
G1 X127.166 Y111.070 E1.8992
G1 X127.166 Y111.070
G1 X127.166 Y111.638 E1.9153
G1 X127.588 Y111.638 E1.9272
G1 X127.588 Y110.919 E1.9475
G1 X128.488 Y110.919 E1.9730
G1 X128.488 Y110.919
G1 X128.488 Y111.638 E1.9933
G1 X128.979 Y111.638 E2.0072
G1 X128.979 Y111.008 E2.0250
G1 X129.879 Y111.008 E2.0504
G1 X129.879 Y111.638 E2.0683
G1 X129.879 Y111.008 E2.0861
G1 X130.809 Y110.939 E2.1125
G1 X131.709 Y110.939 E2.1379
G0 F4800 E1.1379
G0 X130.809 Y111.638 F10800
G0 F4800 E2.1379
G1 X130.809 Y110.939 E2.1577 F5400
G1 X131.709 Y110.939 E2.1831
G1 X131.709 Y111.638 E2.2029
G0 F4800 E1.2029
G0 X132.905 Y111.399 F10800
G0 F4800 E2.2029
G1 X132.905 Y110.499 E2.2283 F5400
G1 X133.805 Y110.499 E2.2537
G1 X133.805 Y110.499
G1 X133.805 Y111.399 E2.2792
G1 X133.805 Y111.399
G1 X132.905 Y111.399 E2.3046
;segType:Loop
G0 F4800 E1.3046
G0 X135.680 Y111.402 F10800
G0 F4800 E2.3046
G1 X135.680 Y76.073 E3.4797 F3600
G1 X140.422 Y76.070 E3.6374
G1 X140.422 Y82.074 E3.8371
G1 X140.418 Y113.479 E4.8816
G1 X140.367 Y114.518 E4.9162
G1 X140.217 Y115.532 E4.9503
G1 X139.968 Y116.526 E4.9844
G1 X139.623 Y117.491 E5.0185
G1 X139.185 Y118.417 E5.0525
G1 X138.658 Y119.295 E5.0866
G1 X138.048 Y120.117 E5.1206
G1 X137.361 Y120.875 E5.1547
G1 X136.603 Y121.562 E5.1887
G1 X135.782 Y122.172 E5.2227
G1 X134.905 Y122.697 E5.2567
G1 X133.982 Y123.134 E5.2907
G1 X133.020 Y123.478 E5.3247
G1 X132.030 Y123.726 E5.3586
G1 X131.020 Y123.876 E5.3926
G1 X130.000 Y123.926 E5.4265
G1 X128.980 Y123.876 E5.4605
G1 X127.970 Y123.726 E5.4944
G1 X126.980 Y123.478 E5.5284
G1 X126.018 Y123.134 E5.5624
G1 X125.095 Y122.697 E5.5964
G1 X124.218 Y122.172 E5.6304
G1 X123.397 Y121.562 E5.6644
G1 X122.639 Y120.875 E5.6984
G1 X121.951 Y120.117 E5.7324
G1 X121.342 Y119.295 E5.7665
G1 X120.815 Y118.417 E5.8005
G1 X120.377 Y117.491 E5.8346
G1 X120.032 Y116.526 E5.8687
G1 X119.783 Y115.532 E5.9028
G1 X119.633 Y114.518 E5.9369
G1 X119.582 Y113.479 E5.9714
G1 X119.578 Y82.074 E7.0160
G1 X119.578 Y76.075 E7.2155
G1 X124.320 Y76.114 E7.3732
G1 X124.320 Y112.809 E8.5937
G1 X135.680 Y112.809 E8.9716
G1 X135.680 Y111.587 E9.0122
;segType:Perimeter
G0 X135.019 Y112.978 F10800
G1 X135.280 Y112.363 E9.0344 F2159
G1 X135.280 Y75.683 E10.2544
G1 X140.822 Y75.680 E10.4387
G1 X140.822 Y82.074 E10.6514
G1 X140.818 Y113.489 E11.6963
G1 X140.766 Y114.555 E11.7318
G1 X140.610 Y115.606 E11.7671
G1 X140.352 Y116.637 E11.8024
G1 X139.994 Y117.637 E11.8378
G1 X139.540 Y118.597 E11.8731
G1 X138.993 Y119.508 E11.9084
G1 X138.361 Y120.361 E11.9438
G1 X137.648 Y121.148 E11.9791
G1 X136.861 Y121.861 E12.0144
G1 X136.008 Y122.494 E12.0497
G1 X135.098 Y123.040 E12.0850
G1 X134.138 Y123.493 E12.1203
G1 X133.139 Y123.851 E12.1556
G1 X132.110 Y124.109 E12.1909
G1 X131.060 Y124.265 E12.2262
G1 X130.000 Y124.317 E12.2615
G1 X128.940 Y124.265 E12.2968
G1 X127.890 Y124.109 E12.3321
G1 X126.861 Y123.851 E12.3674
G1 X125.862 Y123.493 E12.4027
G1 X124.902 Y123.040 E12.4380
G1 X123.992 Y122.494 E12.4733
G1 X123.139 Y121.861 E12.5086
G1 X122.352 Y121.148 E12.5439
G1 X121.639 Y120.361 E12.5793
G1 X121.006 Y119.508 E12.6146
G1 X120.460 Y118.597 E12.6499
G1 X120.006 Y117.637 E12.6852
G1 X119.648 Y116.637 E12.7206
G1 X119.390 Y115.606 E12.7559
G1 X119.234 Y114.555 E12.7913
G1 X119.182 Y113.489 E12.8268
G1 X119.178 Y82.074 E13.8716
G1 X119.178 Y75.681 E14.0842
G1 X124.720 Y75.727 E14.2686
G1 X124.720 Y112.419 E15.4889
G1 X135.223 Y112.419 E15.8383
G1 X135.853 Y112.164
;segType:Infill
G0 X135.880 Y110.819 F10800
G1 X139.720 Y110.819 E15.9660 F5400
G0 X139.720 Y107.122 F10800
G1 X135.880 Y107.122 E16.0937 F5400
G0 X135.880 Y103.425 F10800
G1 X139.720 Y103.425 E16.2214 F5400
G0 X139.720 Y99.728 F10800
G1 X135.880 Y99.728 E16.3491 F5400
G0 X135.880 Y96.031 F10800
G1 X139.720 Y96.031 E16.4768 F5400
G0 X135.880 Y92.334 F10800
G1 X139.720 Y92.334 E16.6045 F5400
G0 X139.720 Y88.637 F10800
G1 X135.880 Y88.637 E16.7322 F5400
G0 X135.880 Y84.940 F10800
G1 X139.720 Y84.940 E16.8599 F5400
G0 X139.720 Y81.243 F10800
G1 X135.880 Y81.243 E16.9876 F5400
G0 X127.293 Y112.550 F10800
G0 X124.586 Y112.550
G0 X124.120 Y77.546
G1 X120.280 Y77.546 E17.1154 F5400
G0 X120.280 Y81.243 F10800
G1 X124.120 Y81.243 E17.2431 F5400
G0 X124.120 Y84.940 F10800
G1 X120.280 Y84.940 E17.3708 F5400
G0 X120.280 Y88.637 F10800
G1 X124.120 Y88.637 E17.4985 F5400
G0 X124.120 Y92.334 F10800
G1 X120.280 Y92.334 E17.6262 F5400
G0 X124.120 Y96.031 F10800
G1 X120.280 Y96.031 E17.7539 F5400
G0 X124.120 Y99.728 F10800
G1 X120.280 Y99.728 E17.8816 F5400
G0 X124.120 Y103.425 F10800
G1 X120.280 Y103.425 E18.0093 F5400
G0 X120.280 Y107.122 F10800
G1 X124.120 Y107.122 E18.1370 F5400
G0 X124.586 Y112.550 F10800
G0 X129.254 Y113.004
G1 X129.254 Y123.195 E18.4760 F5400
G0 X133.043 Y122.733 F10800
G1 X133.043 Y113.004 E18.7995 F5400
G0 X138.495 Y118.212 F10800
G1 X121.505 Y118.212 E19.3646 F5400
;segType:HShell
G0 X121.427 Y118.081 F10800
G1 X120.464 Y117.141 E19.4094 F3600
;segType:Infill
G0 X121.676 Y118.499 F10800
G1 X121.676 Y76.767 E20.7974 F5400
;segType:HShell
G0 X124.095 Y76.767 F10800
G1 X123.620 Y76.303 E20.8195 F3600
G1 X123.080 Y76.299
G1 X123.560 Y76.767 E20.8418
G1 X123.024 Y76.767
G1 X122.539 Y76.294 E20.8643
G1 X121.999 Y76.290
G1 X122.488 Y76.767 E20.8870
G1 X121.952 Y76.767
G1 X121.458 Y76.285 E20.9100
G1 X120.918 Y76.281
G1 X121.416 Y76.767 E20.9331
G1 X120.880 Y76.767
G1 X120.378 Y76.277 E20.9565
G1 X119.837 Y76.272
G1 X120.345 Y76.767 E20.9801
G1 X120.280 Y77.227
G1 X119.778 Y76.737 E21.0034
G1 X119.778 Y77.260
G1 X120.280 Y77.750 E21.0267
G1 X120.280 Y78.273
G1 X119.778 Y77.783 E21.0501
G1 X119.778 Y78.306
G1 X120.280 Y78.796 E21.0734
G1 X120.280 Y79.319
G1 X119.778 Y78.829 E21.0967
G1 X119.778 Y79.352
G1 X120.280 Y79.841 E21.1201
G1 X120.280 Y80.364
G1 X119.778 Y79.874 E21.1434
G1 X119.778 Y80.397
G1 X120.280 Y80.887 E21.1667
G1 X120.280 Y81.410
G1 X119.778 Y80.920 E21.1900
G1 X119.778 Y81.443
G1 X120.280 Y81.933 E21.2134
G1 X120.280 Y82.455
G1 X119.778 Y81.966 E21.2367
G1 X119.778 Y82.489
G1 X120.280 Y82.978 E21.2600
G1 X120.280 Y83.501
G1 X119.778 Y83.011 E21.2833
G1 X119.779 Y83.534
G1 X120.280 Y84.024 E21.3067
G1 X120.280 Y84.547
G1 X119.779 Y84.057 E21.3300
G1 X119.779 Y84.580
G1 X120.280 Y85.070 E21.3533
G1 X120.280 Y85.592
G1 X119.779 Y85.103 E21.3766
G1 X119.779 Y85.626
G1 X120.280 Y86.115 E21.3999
G1 X120.280 Y86.638
G1 X119.779 Y86.149 E21.4232
G1 X119.779 Y86.672
G1 X120.280 Y87.161 E21.4465
G1 X120.280 Y87.684
G1 X119.779 Y87.194 E21.4698
G1 X119.779 Y87.717
G1 X120.280 Y88.207 E21.4931
G1 X120.280 Y88.729
G1 X119.779 Y88.240 E21.5164
G1 X119.779 Y88.763
G1 X120.280 Y89.252 E21.5397
G1 X120.280 Y89.775
G1 X119.779 Y89.286 E21.5630
G1 X119.779 Y89.809
G1 X120.280 Y90.298 E21.5863
G1 X120.280 Y90.821
G1 X119.779 Y90.332 E21.6096
G1 X119.779 Y90.855
G1 X120.280 Y91.343 E21.6328
G1 X120.280 Y91.866
G1 X119.779 Y91.377 E21.6561
G1 X119.779 Y91.900
G1 X120.280 Y92.389 E21.6794
G1 X120.280 Y92.912
G1 X119.779 Y92.423 E21.7027
G1 X119.780 Y92.946
G1 X120.280 Y93.435 E21.7259
G1 X120.280 Y93.958
G1 X119.780 Y93.469 E21.7492
G1 X119.780 Y93.992
G1 X120.280 Y94.480 E21.7725
G1 X120.280 Y95.003
G1 X119.780 Y94.515 E21.7957
G1 X119.780 Y95.038
G1 X120.280 Y95.526 E21.8190
G1 X120.280 Y96.049
G1 X119.780 Y95.561 E21.8422
G1 X119.780 Y96.083
G1 X120.280 Y96.572 E21.8655
G1 X120.280 Y97.094
G1 X119.780 Y96.606 E21.8888
G1 X119.780 Y97.129
G1 X120.280 Y97.617 E21.9120
G1 X120.280 Y98.140
G1 X119.780 Y97.652 E21.9353
G1 X119.780 Y98.175
G1 X120.280 Y98.663 E21.9585
G1 X120.280 Y99.186
G1 X119.780 Y98.698 E21.9817
G1 X119.780 Y99.221
G1 X120.280 Y99.709 E22.0050
G1 X120.280 Y100.231
G1 X119.780 Y99.744 E22.0282
G1 X119.780 Y100.266
G1 X120.280 Y100.754 E22.0514
G1 X120.280 Y101.277
G1 X119.780 Y100.789 E22.0747
G1 X119.780 Y101.312
G1 X120.280 Y101.800 E22.0979
G1 X120.280 Y102.323
G1 X119.781 Y101.835 E22.1211
G1 X119.781 Y102.358
G1 X120.280 Y102.846 E22.1444
G1 X120.280 Y103.368
G1 X119.781 Y102.881 E22.1676
G1 X119.781 Y103.404
G1 X120.280 Y103.891 E22.1908
G1 X120.280 Y104.414
G1 X119.781 Y103.927 E22.2140
G1 X119.781 Y104.449
G1 X120.280 Y104.937 E22.2372
G1 X120.280 Y105.460
G1 X119.781 Y104.972 E22.2604
G1 X119.781 Y105.495
G1 X120.280 Y105.982 E22.2836
G1 X120.280 Y106.505
G1 X119.781 Y106.018 E22.3068
G1 X119.781 Y106.541
G1 X120.280 Y107.028 E22.3300
G1 X120.280 Y107.551
G1 X119.781 Y107.064 E22.3532
G1 X119.781 Y107.587
G1 X120.280 Y108.074 E22.3764
G1 X120.280 Y108.597
G1 X119.781 Y108.110 E22.3996
G1 X119.781 Y108.632
G1 X120.280 Y109.119 E22.4228
G1 X120.280 Y109.642
G1 X119.781 Y109.155 E22.4460
G1 X119.781 Y109.678
G1 X120.280 Y110.165 E22.4692
G1 X120.280 Y110.688
G1 X119.781 Y110.201 E22.4924
G1 X119.781 Y110.724
G1 X120.280 Y111.211 E22.5156
G1 X120.280 Y111.733
G1 X119.782 Y111.247 E22.5387
G1 X119.782 Y111.770
G1 X120.280 Y112.256 E22.5619
G1 X120.280 Y112.779
G1 X119.782 Y112.293 E22.5851
G1 X119.782 Y112.815
G1 X120.280 Y113.302 E22.6083
G1 X120.298 Y113.842
G1 X119.782 Y113.338 E22.6323
G1 X119.802 Y113.881
G1 X120.325 Y114.391 E22.6566
G1 X120.409 Y114.996
G1 X119.829 Y114.430 E22.6835
G1 X119.911 Y115.033
G1 X120.528 Y115.635 E22.7122
G1 X120.022 Y115.664
G1 X120.701 Y116.327 E22.7438
G1 X120.195 Y116.356
G1 X120.989 Y117.130 E22.7806
G0 X120.864 Y118.054 F10800
G1 X122.399 Y119.552 E22.8520 F3600
G1 X121.559 Y119.255
G1 X124.466 Y122.091 E22.9870
G1 X124.133 Y121.244
G1 X125.688 Y122.761 E23.0593
G1 X125.632 Y122.184
G1 X126.610 Y123.138 E23.1047
G1 X126.601 Y122.606
G1 X127.395 Y123.380 E23.1416
G1 X127.408 Y122.870
G1 X128.103 Y123.549 E23.1739
G1 X128.734 Y123.642
G1 X128.126 Y123.049 E23.2021
G1 X128.758 Y123.142
G1 X129.327 Y123.697 E23.2286
G1 X129.891 Y123.725
G1 X129.353 Y123.200 E23.2536
G1 X129.917 Y123.228
G1 X130.412 Y123.710 E23.2765
G1 X130.922 Y123.685
G1 X130.436 Y123.211 E23.2991
G1 X130.946 Y123.185
G1 X131.394 Y123.623 E23.3200
G1 X131.859 Y123.554
G1 X131.412 Y123.117 E23.3408
G1 X131.877 Y123.048
G1 X132.297 Y123.458 E23.3603
G1 X132.723 Y123.351
G1 X132.304 Y122.943 E23.3797
G1 X132.731 Y122.836
G1 X133.134 Y123.229 E23.3985
G1 X133.526 Y123.089
G1 X133.130 Y122.702 E23.4169
G1 X133.522 Y122.562
G1 X133.917 Y122.948 E23.4353
G1 X134.278 Y122.777
G1 X133.898 Y122.406 E23.4529
G1 X134.259 Y122.235
G1 X134.639 Y122.606 E23.4706
G1 X134.984 Y122.421
G1 X134.616 Y122.061 E23.4877
G1 X134.948 Y121.862
G1 X135.316 Y122.222 E23.5048
G1 X135.648 Y122.023
G1 X135.280 Y121.663 E23.5220
G1 X135.594 Y121.447
G1 X135.954 Y121.799 E23.5387
G1 X136.259 Y121.573
G1 X135.898 Y121.221 E23.5555
G1 X136.198 Y120.991
G1 X136.555 Y121.339 E23.5721
G1 X136.833 Y121.087
G1 X136.476 Y120.739 E23.5887
G1 X136.754 Y120.488
G1 X137.111 Y120.836 E23.6052
G1 X137.372 Y120.568
G1 X137.016 Y120.220 E23.6218
G1 X137.268 Y119.943
G1 X137.624 Y120.291 E23.6384
G1 X137.876 Y120.013
G1 X137.518 Y119.664 E23.6550
G1 X137.743 Y119.361
G1 X138.102 Y119.712 E23.6717
G1 X138.327 Y119.408
G1 X137.968 Y119.057 E23.6884
G1 X138.178 Y118.740
G1 X138.545 Y119.098 E23.7054
G1 X138.742 Y118.768
G1 X138.376 Y118.411 E23.7224
G1 X138.573 Y118.080
G1 X138.940 Y118.438 E23.7395
G1 X139.119 Y118.090
G1 X138.742 Y117.722 E23.7570
G1 X138.912 Y117.364
G1 X139.288 Y117.732 E23.7745
G1 X139.454 Y117.371
G1 X139.062 Y116.988 E23.7927
G1 X139.201 Y116.601
G1 X139.592 Y116.983 E23.8109
G1 X139.731 Y116.596
G1 X139.330 Y116.204 E23.8296
G1 X139.435 Y115.784
G1 X139.847 Y116.186 E23.8487
G1 X139.952 Y115.766
G1 X139.537 Y115.360 E23.8681
G1 X139.605 Y114.904
G1 X140.044 Y115.333 E23.8885
G1 X140.112 Y114.876
G1 X139.672 Y114.447 E23.9089
G1 X139.697 Y113.948
G1 X140.172 Y114.412 E23.9310
G1 X140.197 Y113.913
G1 X139.720 Y113.448 E23.9532
G1 X139.720 Y112.925
G1 X140.218 Y113.411 E23.9763
G1 X140.218 Y112.888
G1 X139.720 Y112.402 E23.9995
G1 X139.720 Y111.879
G1 X140.218 Y112.366 E24.0227
G1 X140.218 Y111.843
G1 X139.720 Y111.356 E24.0459
G1 X139.720 Y110.833
G1 X140.218 Y111.320 E24.0690
G1 X140.218 Y110.797
G1 X139.720 Y110.311 E24.0922
G1 X139.720 Y109.788
G1 X140.219 Y110.275 E24.1154
G1 X140.219 Y109.752
G1 X139.720 Y109.265 E24.1386
G1 X139.720 Y108.742
G1 X140.219 Y109.229 E24.1618
G1 X140.219 Y108.706
G1 X139.720 Y108.219 E24.1850
G1 X139.720 Y107.696
G1 X140.219 Y108.183 E24.2082
G1 X140.219 Y107.661
G1 X139.720 Y107.174 E24.2314
G1 X139.720 Y106.651
G1 X140.219 Y107.138 E24.2546
G1 X140.219 Y106.615
G1 X139.720 Y106.128 E24.2778
G1 X139.720 Y105.605
G1 X140.219 Y106.092 E24.3010
G1 X140.219 Y105.570
G1 X139.720 Y105.082 E24.3242
G1 X139.720 Y104.560
G1 X140.219 Y105.047 E24.3474
G1 X140.219 Y104.524
G1 X139.720 Y104.037 E24.3706
G1 X139.720 Y103.514
G1 X140.219 Y104.001 E24.3938
G1 X140.219 Y103.479
G1 X139.720 Y102.991 E24.4170
G1 X139.720 Y102.468
G1 X140.219 Y102.956 E24.4402
G1 X140.219 Y102.433
G1 X139.720 Y101.945 E24.4635
G1 X139.720 Y101.423
G1 X140.219 Y101.910 E24.4867
G1 X140.220 Y101.388
G1 X139.720 Y100.900 E24.5099
G1 X139.720 Y100.377
G1 X140.220 Y100.865 E24.5331
G1 X140.220 Y100.342
G1 X139.720 Y99.854 E24.5564
G1 X139.720 Y99.331
G1 X140.220 Y99.819 E24.5796
G1 X140.220 Y99.296
G1 X139.720 Y98.809 E24.6029
G1 X139.720 Y98.286
G1 X140.220 Y98.774 E24.6261
G1 X140.220 Y98.251
G1 X139.720 Y97.763 E24.6493
G1 X139.720 Y97.240
G1 X140.220 Y97.728 E24.6726
G1 X140.220 Y97.205
G1 X139.720 Y96.717 E24.6958
G1 X139.720 Y96.194
G1 X140.220 Y96.683 E24.7191
G1 X140.220 Y96.160
G1 X139.720 Y95.672 E24.7423
G1 X139.720 Y95.149
G1 X140.220 Y95.637 E24.7656
G1 X140.220 Y95.114
G1 X139.720 Y94.626 E24.7889
G1 X139.720 Y94.103
G1 X140.220 Y94.592 E24.8121
G1 X140.220 Y94.069
G1 X139.720 Y93.580 E24.8354
G1 X139.720 Y93.057
G1 X140.220 Y93.546 E24.8587
G1 X140.220 Y93.023
G1 X139.720 Y92.535 E24.8819
G1 X139.720 Y92.012
G1 X140.220 Y92.500 E24.9052
G1 X140.221 Y91.978
G1 X139.720 Y91.489 E24.9285
G1 X139.720 Y90.966
G1 X140.221 Y91.455 E24.9518
G1 X140.221 Y90.932
G1 X139.720 Y90.443 E24.9750
G1 X139.720 Y89.921
G1 X140.221 Y90.409 E24.9983
G1 X140.221 Y89.887
G1 X139.720 Y89.398 E25.0216
G1 X139.720 Y88.875
G1 X140.221 Y89.364 E25.0449
G1 X140.221 Y88.841
G1 X139.720 Y88.352 E25.0682
G1 X139.720 Y87.829
G1 X140.221 Y88.318 E25.0915
G1 X140.221 Y87.796
G1 X139.720 Y87.306 E25.1148
G1 X139.720 Y86.784
G1 X140.221 Y87.273 E25.1381
G1 X140.221 Y86.750
G1 X139.720 Y86.261 E25.1614
G1 X139.720 Y85.738
G1 X140.221 Y86.227 E25.1847
G1 X140.221 Y85.705
G1 X139.720 Y85.215 E25.2080
G1 X139.720 Y84.692
G1 X140.221 Y85.182 E25.2313
G1 X140.221 Y84.659
G1 X139.720 Y84.169 E25.2546
G1 X139.720 Y83.647
G1 X140.221 Y84.136 E25.2779
G1 X140.221 Y83.613
G1 X139.720 Y83.124 E25.3012
G1 X139.720 Y82.601
G1 X140.222 Y83.091 E25.3246
G1 X140.222 Y82.568
G1 X139.720 Y82.078 E25.3479
G1 X139.720 Y81.555
G1 X140.222 Y82.045 E25.3712
G1 X140.222 Y81.522
G1 X139.720 Y81.033 E25.3945
G1 X139.720 Y80.510
G1 X140.222 Y81.000 E25.4179
G1 X140.222 Y80.477
G1 X139.720 Y79.987 E25.4412
G1 X139.720 Y79.464
G1 X140.222 Y79.954 E25.4645
G1 X140.222 Y79.431
G1 X139.720 Y78.941 E25.4879
G1 X139.720 Y78.418
G1 X140.222 Y78.908 E25.5112
G1 X140.222 Y78.385
G1 X139.720 Y77.896 E25.5345
G1 X139.720 Y77.373
G1 X140.222 Y77.863 E25.5578
G1 X140.222 Y77.340
G1 X139.720 Y76.850 E25.5812
G1 X139.657 Y76.266
G1 X140.222 Y76.817 E25.6074
;segType:Infill
G0 X139.720 Y77.546 F10800
G1 X135.880 Y77.546 E25.7351 F5400
;segType:HShell
G0 X136.443 Y76.790 F10800
G1 X135.909 Y76.268 E25.7599 F3600
G1 X136.444 Y76.268
G1 X136.972 Y76.784 E25.7845
G1 X137.502 Y76.777
G1 X136.980 Y76.268 E25.8088
G1 X137.515 Y76.267
G1 X138.031 Y76.771 E25.8328
G1 X138.563 Y76.767
G1 X138.051 Y76.267 E25.8566
G1 X138.586 Y76.267
G1 X139.099 Y76.767 E25.8804
G1 X139.635 Y76.767
G1 X139.122 Y76.266 E25.9043
;segType:Infill
G0 X136.832 Y76.785 F10800
G1 X136.832 Y120.417 E27.3555 F5400
G0 X134.869 Y121.909 F10800
G1 X125.131 Y121.909 E27.6794 F5400
G1 X125.465 Y122.105 E27.6922
G1 X125.465 Y113.004 E27.9949
G0 X124.586 Y112.550 F10800
G0 X124.120 Y110.819
G1 X120.280 Y110.819 E28.1226 F5400
G0 X120.338 Y114.516 F10800
G1 X139.662 Y114.516 E28.7654 F5400
; ------------------------------------
; Layer #4
; ------------------------------------
G21 ; mm
G90 ; abs
G92 E0 ; reset extr
M106 S255
;segType:Loop
G0 F4800 E-1.0000
G0 F300 Z1.000
G0 X135.680 Y111.402 F10800
G0 F4800 E0.0000
G1 X135.680 Y76.012 E1.1771 F3600
G1 X140.483 Y76.009 E1.3368
G1 X140.483 Y85.811 E1.6628
G1 X140.480 Y113.480 E2.5831
G1 X140.428 Y114.524 E2.6179
G1 X140.277 Y115.543 E2.6521
G1 X140.027 Y116.544 E2.6864
G1 X139.680 Y117.514 E2.7207
G1 X139.239 Y118.446 E2.7550
G1 X138.709 Y119.329 E2.7893
G1 X138.096 Y120.156 E2.8235
G1 X137.405 Y120.919 E2.8577
G1 X136.642 Y121.610 E2.8920
G1 X135.816 Y122.223 E2.9262
G1 X134.935 Y122.751 E2.9604
G1 X134.005 Y123.191 E2.9946
G1 X133.038 Y123.537 E3.0287
G1 X132.042 Y123.786 E3.0629
G1 X131.026 Y123.937 E3.0970
G1 X130.000 Y123.987 E3.1312
G1 X128.974 Y123.937 E3.1654
G1 X127.958 Y123.786 E3.1995
G1 X126.962 Y123.537 E3.2337
G1 X125.995 Y123.191 E3.2678
G1 X125.065 Y122.751 E3.3020
G1 X124.184 Y122.223 E3.3362
G1 X123.358 Y121.610 E3.3704
G1 X122.596 Y120.919 E3.4047
G1 X121.904 Y120.156 E3.4389
G1 X121.291 Y119.329 E3.4731
G1 X120.761 Y118.446 E3.5074
G1 X120.320 Y117.514 E3.5417
G1 X119.973 Y116.544 E3.5760
G1 X119.723 Y115.543 E3.6103
G1 X119.572 Y114.524 E3.6445
G1 X119.520 Y113.480 E3.6793
G1 X119.517 Y85.811 E4.5996
G1 X119.517 Y76.009 E4.9256
G1 X124.320 Y76.012 E5.0853
G1 X124.320 Y112.809 E6.3092
G1 X135.680 Y112.809 E6.6870
G1 X135.680 Y111.587 E6.7277
;segType:Perimeter
G0 X135.019 Y112.978 F10800
G1 X135.280 Y112.363 E6.7499 F2159
G1 X135.280 Y75.622 E7.9719
G1 X140.883 Y75.619 E8.1583
G1 X140.883 Y85.811 E8.4973
G1 X140.880 Y113.489 E9.4178
G1 X140.827 Y114.561 E9.4535
G1 X140.670 Y115.618 E9.4891
G1 X140.411 Y116.655 E9.5246
G1 X140.051 Y117.661 E9.5602
G1 X139.594 Y118.626 E9.5957
G1 X139.045 Y119.543 E9.6312
G1 X138.409 Y120.401 E9.6667
G1 X137.691 Y121.192 E9.7023
G1 X136.900 Y121.909 E9.7378
G1 X136.042 Y122.545 E9.7733
G1 X135.127 Y123.094 E9.8088
G1 X134.162 Y123.550 E9.8443
G1 X133.157 Y123.910 E9.8798
G1 X132.122 Y124.169 E9.9153
G1 X131.066 Y124.326 E9.9508
G1 X130.000 Y124.378 E9.9863
G1 X128.934 Y124.326 E10.0218
G1 X127.878 Y124.169 E10.0573
G1 X126.843 Y123.910 E10.0928
G1 X125.838 Y123.550 E10.1283
G1 X124.873 Y123.094 E10.1638
G1 X123.958 Y122.545 E10.1993
G1 X123.100 Y121.909 E10.2348
G1 X122.309 Y121.192 E10.2703
G1 X121.591 Y120.401 E10.3058
G1 X120.955 Y119.543 E10.3414
G1 X120.406 Y118.626 E10.3769
G1 X119.949 Y117.661 E10.4124
G1 X119.589 Y116.655 E10.4480
G1 X119.330 Y115.618 E10.4835
G1 X119.173 Y114.561 E10.5190
G1 X119.120 Y113.489 E10.5547
G1 X119.117 Y85.811 E11.4753
G1 X119.117 Y75.619 E11.8143
G1 X124.720 Y75.622 E12.0006
G1 X124.720 Y112.419 E13.2245
G1 X135.223 Y112.419 E13.5739
G1 X135.853 Y112.164
;segType:Infill
G0 X135.880 Y110.819 F10800
G1 X139.964 Y110.819 E13.7097 F5400
G0 X135.880 Y107.122 F10800
G1 X139.964 Y107.122 E13.8456 F5400
G0 X139.964 Y103.425 F10800
G1 X135.880 Y103.425 E13.9814 F5400
G0 X135.880 Y99.728 F10800
G1 X139.964 Y99.728 E14.1172 F5400
G0 X135.880 Y96.031 F10800
G1 X139.964 Y96.031 E14.2531 F5400
G0 X139.964 Y92.334 F10800
G1 X135.880 Y92.334 E14.3889 F5400
G0 X135.880 Y88.637 F10800
G1 X139.964 Y88.637 E14.5248 F5400
G0 X139.964 Y84.940 F10800
G1 X135.880 Y84.940 E14.6606 F5400
G0 X135.880 Y81.243 F10800
G1 X139.964 Y81.243 E14.7965 F5400
G0 X139.964 Y77.546 F10800
G1 X135.880 Y77.546 E14.9323 F5400
G0 X127.293 Y112.550 F10800
G0 X124.586 Y112.550
G0 X124.120 Y81.243
G1 X120.036 Y81.243 E15.0682 F5400
G0 X120.036 Y84.940 F10800
G1 X124.120 Y84.940 E15.2040 F5400
G0 X124.120 Y88.637 F10800
G1 X120.036 Y88.637 E15.3399 F5400
G0 X120.036 Y92.334 F10800
G1 X124.120 Y92.334 E15.4757 F5400
G0 X124.120 Y96.031 F10800
G1 X120.036 Y96.031 E15.6115 F5400
G0 X120.036 Y99.728 F10800
G1 X124.120 Y99.728 E15.7474 F5400
G0 X124.120 Y103.425 F10800
G1 X120.036 Y103.425 E15.8832 F5400
G0 X124.120 Y107.122 F10800
G1 X120.036 Y107.122 E16.0191 F5400
G0 X120.036 Y110.819 F10800
G1 X124.120 Y110.819 E16.1549 F5400
G0 X120.091 Y114.516 F10800
G1 X139.909 Y114.516 E16.8141 F5400
;segType:HShell
G0 X139.668 Y115.857 F10800
G1 X140.089 Y115.446 E16.8337 F3600
G1 X140.180 Y114.834
G1 X139.808 Y115.197 E16.8509
G1 X139.899 Y114.586
G1 X140.241 Y114.252 E16.8669
G1 X140.268 Y113.703
G1 X139.937 Y114.026 E16.8823
G1 X139.964 Y113.477
G1 X140.280 Y113.169 E16.8969
G1 X140.280 Y112.646
G1 X139.964 Y112.954 E16.9116
G1 X139.964 Y112.431
G1 X140.280 Y112.123 E16.9262
G1 X140.280 Y111.600
G1 X139.964 Y111.908 E16.9409
G1 X139.964 Y111.385
G1 X140.280 Y111.077 E16.9555
G1 X140.280 Y110.555
G1 X139.964 Y110.862 E16.9702
G1 X139.964 Y110.340
G1 X140.280 Y110.032 E16.9848
G1 X140.280 Y109.509
G1 X139.964 Y109.817 E16.9995
G1 X139.964 Y109.294
G1 X140.280 Y108.986 E17.0142
G1 X140.280 Y108.463
G1 X139.964 Y108.771 E17.0289
G1 X139.964 Y108.248
G1 X140.280 Y107.940 E17.0435
G1 X140.280 Y107.417
G1 X139.964 Y107.725 E17.0582
G1 X139.964 Y107.203
G1 X140.280 Y106.894 E17.0729
G1 X140.280 Y106.372
G1 X139.964 Y106.680 E17.0876
G1 X139.964 Y106.157
G1 X140.280 Y105.849 E17.1022
G1 X140.280 Y105.326
G1 X139.964 Y105.634 E17.1169
G1 X139.964 Y105.111
G1 X140.280 Y104.803 E17.1316
G1 X140.281 Y104.280
G1 X139.964 Y104.588 E17.1463
G1 X139.964 Y104.066
G1 X140.281 Y103.757 E17.1610
G1 X140.281 Y103.234
G1 X139.964 Y103.543 E17.1757
G1 X139.964 Y103.020
G1 X140.281 Y102.711 E17.1904
G1 X140.281 Y102.189
G1 X139.964 Y102.497 E17.2051
G1 X139.964 Y101.974
G1 X140.281 Y101.666 E17.2198
G1 X140.281 Y101.143
G1 X139.964 Y101.452 E17.2345
G1 X139.964 Y100.929
G1 X140.281 Y100.620 E17.2492
G1 X140.281 Y100.097
G1 X139.964 Y100.406 E17.2639
G1 X139.964 Y99.883
G1 X140.281 Y99.574 E17.2787
G1 X140.281 Y99.051
G1 X139.964 Y99.360 E17.2934
G1 X139.964 Y98.837
G1 X140.281 Y98.528 E17.3081
G1 X140.281 Y98.005
G1 X139.964 Y98.315 E17.3228
G1 X139.964 Y97.792
G1 X140.281 Y97.483 E17.3375
G1 X140.281 Y96.960
G1 X139.964 Y97.269 E17.3523
G1 X139.964 Y96.746
G1 X140.281 Y96.437 E17.3670
G1 X140.281 Y95.914
G1 X139.964 Y96.223 E17.3817
G1 X139.964 Y95.701
G1 X140.281 Y95.391 E17.3965
G1 X140.282 Y94.868
G1 X139.964 Y95.178 E17.4112
G1 X139.964 Y94.655
G1 X140.282 Y94.345 E17.4259
G1 X140.282 Y93.822
G1 X139.964 Y94.132 E17.4407
G1 X139.964 Y93.609
G1 X140.282 Y93.300 E17.4554
G1 X140.282 Y92.777
G1 X139.964 Y93.086 E17.4702
G1 X139.964 Y92.564
G1 X140.282 Y92.254 E17.4849
G1 X140.282 Y91.731
G1 X139.964 Y92.041 E17.4997
G1 X139.964 Y91.518
G1 X140.282 Y91.208 E17.5144
G1 X140.282 Y90.685
G1 X139.964 Y90.995 E17.5292
G1 X139.964 Y90.472
G1 X140.282 Y90.162 E17.5440
G1 X140.282 Y89.639
G1 X139.964 Y89.949 E17.5587
G1 X139.964 Y89.427
G1 X140.282 Y89.117 E17.5735
G1 X140.282 Y88.594
G1 X139.964 Y88.904 E17.5883
G1 X139.964 Y88.381
G1 X140.282 Y88.071 E17.6030
G1 X140.282 Y87.548
G1 X139.964 Y87.858 E17.6178
G1 X139.964 Y87.335
G1 X140.282 Y87.025 E17.6326
G1 X140.282 Y86.502
G1 X139.964 Y86.813 E17.6473
G1 X139.964 Y86.290
G1 X140.282 Y85.979 E17.6621
G1 X140.283 Y85.456
G1 X139.964 Y85.767 E17.6769
G1 X139.964 Y85.244
G1 X140.283 Y84.934 E17.6917
G1 X140.283 Y84.411
G1 X139.964 Y84.721 E17.7065
G1 X139.964 Y84.198
G1 X140.283 Y83.888 E17.7213
G1 X140.283 Y83.365
G1 X139.964 Y83.676 E17.7360
G1 X139.964 Y83.153
G1 X140.283 Y82.842 E17.7508
G1 X140.283 Y82.320
G1 X139.964 Y82.630 E17.7656
G1 X139.964 Y82.107
G1 X140.283 Y81.797 E17.7804
G1 X140.283 Y81.274
G1 X139.964 Y81.584 E17.7952
G1 X139.964 Y81.062
G1 X140.283 Y80.751 E17.8100
G1 X140.283 Y80.228
G1 X139.964 Y80.539 E17.8248
G1 X139.964 Y80.016
G1 X140.283 Y79.705 E17.8395
G1 X140.283 Y79.183
G1 X139.964 Y79.493 E17.8543
G1 X139.964 Y78.970
G1 X140.283 Y78.660 E17.8691
G1 X140.283 Y78.137
G1 X139.964 Y78.447 E17.8839
G1 X139.964 Y77.925
G1 X140.283 Y77.614 E17.8987
G1 X140.283 Y77.091
G1 X139.964 Y77.402 E17.9135
G1 X139.964 Y76.879
G1 X140.283 Y76.569 E17.9282
G1 X140.120 Y76.205
G1 X139.794 Y76.523 E17.9434
G1 X139.258 Y76.523
G1 X139.583 Y76.205 E17.9585
G1 X139.047 Y76.205
G1 X138.722 Y76.523 E17.9736
G1 X138.186 Y76.523
G1 X138.511 Y76.206 E17.9888
G1 X137.975 Y76.206
G1 X137.650 Y76.523 E18.0039
G1 X137.114 Y76.523
G1 X137.439 Y76.206 E18.0190
G1 X136.903 Y76.206
G1 X136.578 Y76.524 E18.0341
G1 X136.042 Y76.524
G1 X136.367 Y76.207 E18.0492
;segType:Infill
G0 X136.832 Y76.523 F10800
G1 X136.832 Y120.746 E19.5201 F5400
;segType:HShell
G0 X137.397 Y120.164 F10800
G1 X138.795 Y118.800 E19.5850 F3600
G1 X138.665 Y118.404
G1 X139.358 Y117.727 E19.6172
G0 X139.925 Y116.129 F10800
G1 X139.470 Y116.573 E19.6383 F3600
G1 X139.696 Y116.875
G1 X139.171 Y117.387 E19.6627
;segType:Infill
G0 X138.780 Y118.212 F10800
G1 X121.220 Y118.212 E20.2468 F5400
G1 X121.676 Y118.974 E20.2763
G1 X121.676 Y76.540 E21.6876
G0 X120.036 Y77.546 F10800
G1 X124.120 Y77.546 E21.8235 F5400
;segType:HShell
G0 X124.042 Y76.207 F10800
G1 X123.686 Y76.554 E21.8400 F3600
G1 X123.154 Y76.551
G1 X123.507 Y76.207 E21.8564
G1 X122.971 Y76.206
G1 X122.622 Y76.547 E21.8726
G1 X122.090 Y76.543
G1 X122.436 Y76.206 E21.8887
G1 X121.900 Y76.206
G1 X121.558 Y76.539 E21.9046
G1 X121.026 Y76.535
G1 X121.364 Y76.205 E21.9203
G1 X120.829 Y76.205
G1 X120.495 Y76.531 E21.9358
G1 X120.293 Y76.205
G1 X119.717 Y76.767 E21.9626
G1 X119.717 Y77.290
G1 X120.036 Y76.979 E21.9774
G1 X120.036 Y77.502
G1 X119.717 Y77.812 E21.9922
G1 X119.717 Y78.335
G1 X120.036 Y78.025 E22.0069
G1 X120.036 Y78.548
G1 X119.717 Y78.858 E22.0217
G1 X119.717 Y79.381
G1 X120.036 Y79.070 E22.0365
G1 X120.036 Y79.593
G1 X119.717 Y79.904 E22.0513
G1 X119.717 Y80.427
G1 X120.036 Y80.116 E22.0661
G1 X120.036 Y80.639
G1 X119.717 Y80.949 E22.0809
G1 X119.717 Y81.472
G1 X120.036 Y81.162 E22.0956
G1 X120.036 Y81.685
G1 X119.717 Y81.995 E22.1104
G1 X119.717 Y82.518
G1 X120.036 Y82.207 E22.1252
G1 X120.036 Y82.730
G1 X119.717 Y83.041 E22.1400
G1 X119.717 Y83.563
G1 X120.036 Y83.253 E22.1548
G1 X120.036 Y83.776
G1 X119.717 Y84.086 E22.1696
G1 X119.717 Y84.609
G1 X120.036 Y84.299 E22.1843
G1 X120.036 Y84.822
G1 X119.717 Y85.132 E22.1991
G1 X119.717 Y85.655
G1 X120.036 Y85.344 E22.2139
G1 X120.036 Y85.867
G1 X119.718 Y86.178 E22.2287
G1 X119.718 Y86.700
G1 X120.036 Y86.390 E22.2435
G1 X120.036 Y86.913
G1 X119.718 Y87.223 E22.2582
G1 X119.718 Y87.746
G1 X120.036 Y87.436 E22.2730
G1 X120.036 Y87.958
G1 X119.718 Y88.269 E22.2878
G1 X119.718 Y88.791
G1 X120.036 Y88.481 E22.3026
G1 X120.036 Y89.004
G1 X119.718 Y89.314 E22.3173
G1 X119.718 Y89.837
G1 X120.036 Y89.527 E22.3321
G1 X120.036 Y90.050
G1 X119.718 Y90.360 E22.3469
G1 X119.718 Y90.882
G1 X120.036 Y90.573 E22.3616
G1 X120.036 Y91.095
G1 X119.718 Y91.405 E22.3764
G1 X119.718 Y91.928
G1 X120.036 Y91.618 E22.3911
G1 X120.036 Y92.141
G1 X119.718 Y92.451 E22.4059
G1 X119.718 Y92.974
G1 X120.036 Y92.664 E22.4206
G1 X120.036 Y93.187
G1 X119.718 Y93.496 E22.4354
G1 X119.718 Y94.019
G1 X120.036 Y93.709 E22.4501
G1 X120.036 Y94.232
G1 X119.718 Y94.542 E22.4649
G1 X119.718 Y95.065
G1 X120.036 Y94.755 E22.4796
G1 X120.036 Y95.278
G1 X119.719 Y95.587 E22.4943
G1 X119.719 Y96.110
G1 X120.036 Y95.801 E22.5091
G1 X120.036 Y96.324
G1 X119.719 Y96.633 E22.5238
G1 X119.719 Y97.156
G1 X120.036 Y96.846 E22.5385
G1 X120.036 Y97.369
G1 X119.719 Y97.678 E22.5532
G1 X119.719 Y98.201
G1 X120.036 Y97.892 E22.5680
G1 X120.036 Y98.415
G1 X119.719 Y98.724 E22.5827
G1 X119.719 Y99.247
G1 X120.036 Y98.938 E22.5974
G1 X120.036 Y99.461
G1 X119.719 Y99.769 E22.6121
G1 X119.719 Y100.292
G1 X120.036 Y99.983 E22.6268
G1 X120.036 Y100.506
G1 X119.719 Y100.815 E22.6415
G1 X119.719 Y101.338
G1 X120.036 Y101.029 E22.6562
G1 X120.036 Y101.552
G1 X119.719 Y101.861 E22.6709
G1 X119.719 Y102.383
G1 X120.036 Y102.075 E22.6857
G1 X120.036 Y102.597
G1 X119.719 Y102.906 E22.7003
G1 X119.719 Y103.429
G1 X120.036 Y103.120 E22.7150
G1 X120.036 Y103.643
G1 X119.719 Y103.952 E22.7297
G1 X119.719 Y104.474
G1 X120.036 Y104.166 E22.7444
G1 X120.036 Y104.689
G1 X119.720 Y104.997 E22.7591
G1 X119.720 Y105.520
G1 X120.036 Y105.212 E22.7738
G1 X120.036 Y105.734
G1 X119.720 Y106.043 E22.7885
G1 X119.720 Y106.565
G1 X120.036 Y106.257 E22.8032
G1 X120.036 Y106.780
G1 X119.720 Y107.088 E22.8178
G1 X119.720 Y107.611
G1 X120.036 Y107.303 E22.8325
G1 X120.036 Y107.826
G1 X119.720 Y108.134 E22.8472
G1 X119.720 Y108.657
G1 X120.036 Y108.348 E22.8619
G1 X120.036 Y108.871
G1 X119.720 Y109.179 E22.8765
G1 X119.720 Y109.702
G1 X120.036 Y109.394 E22.8912
G1 X120.036 Y109.917
G1 X119.720 Y110.225 E22.9059
G1 X119.720 Y110.748
G1 X120.036 Y110.440 E22.9205
G1 X120.036 Y110.963
G1 X119.720 Y111.270 E22.9352
G1 X119.720 Y111.793
G1 X120.036 Y111.485 E22.9498
G1 X120.036 Y112.008
G1 X119.720 Y112.316 E22.9645
G1 X119.720 Y112.839
G1 X120.036 Y112.531 E22.9791
G1 X120.036 Y113.054
G1 X119.720 Y113.361 E22.9938
G1 X119.740 Y113.866
G1 X120.040 Y113.572 E23.0078
G1 X120.065 Y114.071
G1 X119.764 Y114.364 E23.0217
G1 X119.820 Y114.833
G1 X120.098 Y114.562 E23.0347
G1 X120.165 Y115.019
G1 X119.887 Y115.290 E23.0476
G1 X119.975 Y115.727
G1 X120.236 Y115.473 E23.0597
G1 X120.341 Y115.893
G1 X120.080 Y116.147 E23.0718
G1 X120.191 Y116.562
G1 X120.446 Y116.313 E23.0836
G1 X120.578 Y116.707
G1 X120.330 Y116.949 E23.0952
G1 X120.469 Y117.337
G1 X120.717 Y117.095 E23.1067
G1 X120.868 Y117.470
G1 X120.630 Y117.702 E23.1178
G1 X120.799 Y118.060
G1 X121.037 Y117.828 E23.1288
G1 X121.206 Y118.185
G1 X120.973 Y118.413 E23.1397
G1 X121.171 Y118.743
G1 X121.403 Y118.517 E23.1504
G1 X121.600 Y118.847
G1 X121.369 Y119.073 E23.1612
G1 X121.581 Y119.388
G1 X121.809 Y119.166 E23.1718
G1 X122.034 Y119.470
G1 X121.806 Y119.692 E23.1823
G1 X122.031 Y119.995
G1 X122.258 Y119.773 E23.1929
G1 X122.505 Y120.056
G1 X122.279 Y120.276 E23.2034
G1 X122.531 Y120.553
G1 X122.756 Y120.333 E23.2139
G1 X123.013 Y120.606
G1 X122.787 Y120.826 E23.2243
G1 X123.065 Y121.078
G1 X123.290 Y120.858 E23.2348
G1 X123.568 Y121.109
G1 X123.342 Y121.330 E23.2453
G1 X123.633 Y121.569
G1 X123.861 Y121.346 E23.2559
G1 X124.165 Y121.572
G1 X123.937 Y121.795 E23.2665
G1 X124.242 Y122.021
G1 X124.470 Y121.798 E23.2771
G1 X124.802 Y121.997
G1 X124.569 Y122.224 E23.2879
G1 X124.901 Y122.423
G1 X125.134 Y122.196 E23.2988
G1 X125.479 Y122.382
G1 X125.239 Y122.616 E23.3099
G1 X125.600 Y122.787
G1 X125.840 Y122.552 E23.3211
G1 X126.201 Y122.722
G1 X125.961 Y122.958 E23.3323
G1 X126.343 Y123.107
G1 X126.594 Y122.863 E23.3440
G1 X126.986 Y123.003
G1 X126.735 Y123.248 E23.3556
G1 X127.136 Y123.379
G1 X127.401 Y123.121 E23.3679
G1 X127.827 Y123.228
G1 X127.562 Y123.486 E23.3802
G1 X127.989 Y123.593
G1 X128.271 Y123.317 E23.3933
G1 X128.736 Y123.386
G1 X128.453 Y123.662 E23.4065
G1 X128.919 Y123.731
G1 X129.219 Y123.438 E23.4204
G1 X129.729 Y123.463
G1 X129.421 Y123.763 E23.4347
G1 X129.931 Y123.788
G1 X130.264 Y123.464 E23.4502
G1 X130.829 Y123.436
G1 X130.488 Y123.768 E23.4660
G1 X131.058 Y123.734
G1 X131.443 Y123.360 E23.4839
;segType:Infill
G0 X129.254 Y123.440 F10800
G1 X129.254 Y113.004 E23.8309 F5400
G0 X125.465 Y113.004 F10800
G1 X125.465 Y122.375 E24.1426 F5400
G1 X124.655 Y121.909 E24.1737
G1 X135.345 Y121.909 E24.5293
;segType:HShell
G0 X135.053 Y122.451 F10800
G1 X136.378 Y121.158 E24.5908 F3600
G0 X134.652 Y122.320 F10800
G1 X133.959 Y122.995 E24.6230 F3600
G1 X133.648 Y122.776
G1 X133.107 Y123.304 E24.6482
G0 X132.093 Y123.248 F10800
G1 X131.690 Y123.641 E24.6669 F3600
G1 X132.367 Y123.503
G1 X132.815 Y123.067 E24.6877
;segType:Infill
G0 X133.043 Y122.993 F10800
G1 X133.043 Y113.004 E25.0199 F5400
;segType:Support
G0 F4800 E24.0199
G0 X131.709 Y111.638 F10800
G0 F4800 E25.0199
G1 X131.709 Y110.939 E25.0397 F5400
G1 X131.709 Y110.939
G1 X130.809 Y110.939 E25.0651
G1 X129.879 Y111.008 E25.0915
G1 X129.879 Y111.638 E25.1093
G0 X130.809 Y111.638 F10800
G1 X130.809 Y110.939 E25.1291 F5400
G0 X129.879 Y111.008 F10800
G1 X128.979 Y111.008 E25.1545 F5400
G1 X128.979 Y111.638 E25.1723
G1 X128.488 Y111.638 E25.1862
G1 X128.488 Y110.919 E25.2065
G1 X128.488 Y110.919
G1 X127.588 Y110.919 E25.2320
G1 X127.588 Y111.638 E25.2523
G1 X127.166 Y111.638 E25.2643
G1 X127.166 Y111.070 E25.2803
G1 X127.166 Y111.070
G1 X126.266 Y111.070 E25.3058
G1 X126.266 Y111.638 E25.3218
G1 X126.038 Y111.638 E25.3283
G1 X125.996 Y111.576 E25.3304
G1 X125.996 Y111.638 E25.3321
G1 X125.996 Y111.576 E25.3339
G1 X125.520 Y111.576 E25.3473
G1 X125.520 Y111.098 E25.3608
G1 X126.094 Y111.098 E25.3771
G1 X126.094 Y111.098
G1 X126.094 Y110.198 E25.4025
G1 X126.094 Y110.198
G1 X125.520 Y110.198 E25.4187
G0 F4800 E24.4187
G0 X125.520 Y108.252 F10800
G0 F4800 E25.4187
G1 X126.302 Y108.252 E25.4408 F5400
G1 X126.302 Y108.252
G1 X126.302 Y107.352 E25.4663
G1 X126.302 Y107.352
G1 X125.520 Y107.352 E25.4884
G0 F4800 E24.4884
G0 X126.629 Y104.194 F10800
G0 F4800 E25.4884
G1 X126.629 Y105.094 E25.5138 F5400
G1 X126.629 Y105.094
G1 X125.729 Y105.094 E25.5393
G1 X125.729 Y105.094
G1 X125.729 Y104.194 E25.5647
G1 X125.729 Y104.194
G1 X126.629 Y104.194 E25.5901
G0 F4800 E24.5901
G0 X126.659 Y102.597 F10800
G0 F4800 E25.5901
G1 X126.659 Y101.697 E25.6156 F5400
G1 X126.659 Y101.697
G1 X125.759 Y101.697 E25.6410
G1 X125.759 Y102.597 E25.6665
G1 X125.759 Y102.597
G1 X126.659 Y102.597 E25.6919
G0 F4800 E24.6919
G0 X125.637 Y99.519 F10800
G0 F4800 E25.6919
G1 X126.537 Y99.519 E25.7174 F5400
G1 X126.537 Y99.519
G1 X126.537 Y100.419 E25.7428
G1 X126.537 Y100.419
G1 X125.637 Y100.419 E25.7682
G1 X125.637 Y100.419
G1 X125.637 Y99.519 E25.7937
G0 F4800 E24.7937
G0 X126.461 Y97.809 F10800
G0 F4800 E25.7937
G1 X125.561 Y97.809 E25.8191 F5400
G1 X125.561 Y97.809
G1 X125.561 Y96.909 E25.8446
G1 X126.461 Y96.909 E25.8700
G1 X126.461 Y96.909
G1 X126.461 Y97.809 E25.8955
G0 F4800 E24.8955
G0 X125.582 Y93.586 F10800
G0 F4800 E25.8955
G1 X125.582 Y92.686 E25.9209 F5400
G1 X126.482 Y92.686 E25.9464
G1 X126.482 Y92.686
G1 X126.482 Y93.586 E25.9718
G1 X126.482 Y93.586
G1 X125.582 Y93.586 E25.9972
G0 F4800 E24.9972
G0 X126.454 Y90.716 F10800
G0 F4800 E25.9972
G1 X125.554 Y90.716 E26.0227 F5400
G1 X125.554 Y90.716
G1 X125.554 Y89.816 E26.0481
G1 X126.454 Y89.816 E26.0736
G1 X126.454 Y89.816
G1 X126.454 Y90.716 E26.0990
G0 F4800 E25.0990
G0 X126.685 Y85.287 F10800
G0 F4800 E26.0990
G1 X125.785 Y85.287 E26.1245 F5400
G1 X125.785 Y85.287
G1 X125.785 Y86.187 E26.1499
G1 X125.785 Y86.187
G1 X126.685 Y86.187 E26.1754
G1 X126.685 Y86.187
G1 X126.685 Y85.287 E26.2008
G0 F4800 E25.2008
G0 X125.902 Y81.827 F10800
G0 F4800 E26.2008
G1 X125.902 Y80.927 E26.2262 F5400
G1 X126.802 Y80.927 E26.2517
G1 X126.802 Y80.927
G1 X126.802 Y81.827 E26.2771
G1 X126.802 Y81.827
G1 X125.902 Y81.827 E26.3026
G0 F4800 E25.3026
G0 X125.829 Y80.012 F10800
G0 F4800 E26.3026
G1 X126.729 Y80.012 E26.3280 F5400
G1 X126.729 Y80.012
G1 X126.729 Y79.112 E26.3535
G1 X126.729 Y79.112
G1 X125.829 Y79.112 E26.3789
G1 X125.829 Y80.012 E26.4043
G0 F4800 E25.4043
G0 X125.656 Y76.476 F10800
G0 F4800 E26.4043
G1 X126.556 Y76.476 E26.4298 F5400
G0 X126.556 Y77.376 F10800
G1 X125.656 Y77.376 E26.4552 F5400
G1 X125.656 Y77.376
G1 X125.656 Y76.476 E26.4807
G1 X126.556 Y76.476 E26.5061
G1 X126.556 Y77.376 E26.5316
G0 F4800 E25.5316
G0 X133.698 Y77.930 F10800
G0 F4800 E26.5316
G1 X133.698 Y77.030 E26.5570 F5400
G1 X134.480 Y77.030 E26.5791
G0 X134.480 Y77.930 F10800
G1 X133.698 Y77.930 E26.6012 F5400
G0 F4800 E25.6012
G0 X133.766 Y80.531 F10800
G0 F4800 E26.6012
G1 X133.766 Y79.631 E26.6267 F5400
G1 X134.480 Y79.631 E26.6469
G0 X134.480 Y80.531 F10800
G1 X133.766 Y80.531 E26.6671 F5400
G0 F4800 E25.6671
G0 X134.480 Y82.299 F10800
G0 F4800 E26.6671
G1 X133.998 Y82.299 E26.6807 F5400
G1 X133.998 Y83.199 E26.7061
G1 X134.480 Y83.199 E26.7197
